alpha8332/-/ideal_sim.csv
timestamp,robot_state,joint_position_1,joint_position_2,joint_position_3,joint_position_4,joint_position_5,joint_position_6,joint_velocity_1,joint_velocity_2,joint_velocity_3,joint_velocity_4,joint_velocity_5,joint_velocity_6,joint_torque_1,joint_torque_2,joint_torque_3,joint_torque_4,joint_torque_5,joint_torque_6
0.0,1,0.4329659158164388,-0.1492075573411153,-1.5978451077878824,0.0110207975564556,-1.4092025993932138,0.0418636340076628,-0.015435401882157862,0.06315836175434797,-0.06695539879475465,-0.15652188164707992,0.2470018898050208,0.18151175007719011,-46.78782344358482,8.03925908476672,-5.419874143041545,-0.9400931266247318,-0.9412452496864709,0.31443542094024607
0.01,2,0.4328115617976172,-0.1485759737235718,-1.59851466177583,0.0094555787399848,-1.4067325804951636,0.0436787515084347,-0.010414658122359643,0.09456304337013416,-0.01234566734055198,-0.07853358460998992,0.10121975791457238,0.014979153305474946,-46.77893537305829,8.1555785562281,-5.303436434044466,-0.7842528544437767,-1.1834091355063636,0.008596989908394234
0.02,2,0.4327576226539916,-0.1473162964737126,-1.5980920211346934,0.0094501258642558,-1.4071782042349223,0.0421632170737723,0.03275153530150898,0.011620257356675934,-0.007333053475699902,0.007509906690874972,0.014972453762174265,-0.040680196055494985,-46.65159435853171,7.950838901932796,-5.278225680148239,-0.5692804480848394,-1.364816218606335,-0.12545472533348168
0.03,2,0.4334665925036474,-0.1483435685764383,-1.598661322845344,0.0096057768738023,-1.40643313141992,0.0428651475873248,-0.021570459636188755,-0.06454990097125995,0.0028274265509553587,0.053439212174765,0.0019190692528758824,0.060637258784460024,-46.78620154935857,7.68637390335359,-5.269903531401116,-0.4505659091364519,-1.376021531324887,0.08770914204971589
0.04,2,0.4323262134612678,-0.1486072944931378,-1.5980354726036743,0.0105189101077511,-1.4071398228498648,0.0433759622494615,0.05511737994919608,-0.015554771591730354,-0.014284663212060789,-0.0057963773672749415,-0.02646625638280664,0.056003329813180194,-46.60175319229759,7.8241288844076955,-5.293908248558569,-0.5758265521428317,-1.4469260111951465,0.0861035040392067
0.05,2,0.4345689401026313,-0.1486546640082729,-1.5989470161095851,0.0094898493264568,-1.4069624565475762,0.0439852141835884,0.013717431160722993,-0.021294017230484574,-0.059201149402932085,0.012441960205614947,0.01442172365995198,0.004901463347390181,-46.636243973008476,7.805253214461706,-5.433545769213072,-0.5559572277429645,-1.3616027250638574,-0.006961449880469733
0.06,2,0.4326005620844823,-0.1490331748377475,-1.599219495591733,0.0107677493118634,-1.4068513883766658,0.0434739915164093,-0.12248534412199474,0.027863149121899744,0.02744218437890078,0.045049623800874974,0.011146080808366321,-0.039504512882120035,-47.123587419582584,7.939476834487246,-5.225111819222924,-0.44249056911964946,-1.3659326473488198,-0.10344174234717671
0.07,2,0.4321192332201914,-0.1480974010258349,-1.598398172422007,0.0103908418024743,-1.406739534931409,0.043195123925946,0.03459508830601088,0.03960743505741493,0.04858999318295698,-0.0008423204182799598,-0.09601099809440905,-0.037647863943695084,-46.67159927687021,8.007461775710734,-5.147602602121008,-0.5666431174022644,-1.578009736249233,-0.10391145832727627
0.08,2,0.4332924638506025,-0.1482410261365992,-1.5982476957280738,0.0107509029034978,-1.408771608338554,0.0427210342375354,0.008514460168543292,-0.03800625363300919,-0.01709672438778842,0.055687029889084964,-0.07580226276721058,0.03249291711123481,-46.702911936066165,7.769593830762711,-5.307305095229873,-0.4163182141082645,-1.5782337337377372,0.029258758456424463
0.09,2,0.4322895224235623,-0.1488575260984951,-1.5987401069097629,0.011504582400256,-1.4082555801867531,0.0438449822681707,-0.10305223852258016,-0.017560809142265488,-0.005513771461829187,-0.0019663705975499907,0.09461353079041057,0.048564591537809954,-47.077729689221144,7.809352665568586,-5.2931200483656475,-0.5416097279058968,-1.227081583586478,0.07826132776910424
0.1,2,0.4312314190801509,-0.1485922423194445,-1.5983579711573104,0.0107115754915468,-1.4068793377227458,0.0436923260682916,0.00530787708440672,0.007702402213519144,0.049441605564748414,-0.07357634586902494,-0.017883307074606503,-0.09169809654632488,-46.79497347613664,7.89442723190271,-5.144267533225628,-0.7404598388023143,-1.4245504100363648,-0.20455389139735192
0.11,2,0.4323956799652504,-0.1487034780542247,-1.597751274798468,0.0100330554828755,-1.4086132463282452,0.0420110203372442,0.03331037172815965,0.03630484571073567,-0.0008869470494610177,0.00454933258585994,-0.049675527403791886,-0.02769870440362497,-46.6643955568014,7.976341311677052,-5.251888023995877,-0.5621086428818846,-1.5228130228047254,-0.10177469307766307
0.12,2,0.4318976265147141,-0.1478661454052298,-1.5983757100982996,0.010802562143264,-1.4078728482708216,0.0431383519802191,0.04251253209642536,0.006676113591815025,-0.017505680484219965,-0.020534741833715033,0.03982110395078786,0.03279252531303983,-46.656711213718054,7.916761758035112,-5.312167916577726,-0.6055811624211095,-1.3290117989470929,0.036117741000290006
0.13,2,0.4332459306071789,-0.1485699557823884,-1.5981013884081523,0.0096223606462012,-1.4078168242492295,0.042666870843505,-0.012059673589234765,-0.0004445468477248804,-0.026696035967777032,-0.029582948390869963,0.039618943705754806,0.01256599907535523,-46.76649566707644,7.870766413515941,-5.3269141545822,-0.6577067162405669,-1.3282956390053169,-0.011407528525790717
0.14,2,0.4316564330429294,-0.1478750363421843,-1.5989096308176551,0.0102109031754466,-1.4070804693967065,0.0433896719617262,0.0017363720043434006,0.009200549194145202,-0.03840045275065318,0.025403604554649975,-0.05778264117562992,-0.046485735401399775,-46.78868743286569,7.9240238820486955,-5.3804224688244755,-0.505526770645632,-1.5083717117176265,-0.11866898070598264
0.15,2,0.4332806580472658,-0.1483859447985055,-1.5988693974631654,0.0101304327372942,-1.408972477072742,0.041737156135477,-0.005535310272564153,-0.06476128438256956,0.03792498218510021,-0.04005413583203499,-0.03747698435402347,0.03720593074230984,-46.74553347952295,7.684256585347309,-5.188401880850399,-0.6711828825661544,-1.5056005515951254,0.023926614187698564
0.16,2,0.4315457268374781,-0.1491702620298357,-1.5981511311739531,0.0094098204588059,-1.407830009083787,0.0441337905765724,-0.04457785061642017,0.03647742731145015,-0.022266883019239625,-0.005485541344829939,0.032171321575225065,0.04834908460707478,-46.932058348946036,7.9605216173328115,-5.317333555184881,-0.6027767033103493,-1.343454579957526,0.08216243853365943
0.17,2,0.4323891010349374,-0.1476563962522765,-1.5993147351235502,0.0100207219103976,-1.4083290506412376,0.0427041378276185,0.09437901745092403,-0.03185547006233497,0.0015118660186219657,0.04988214958448001,-0.00942422825437328,-0.11978570566213015,-46.48145277684563,7.808508227426028,-5.292794801078138,-0.44908493969728186,-1.436626510765735,-0.27555193323905897
0.18,2,0.4334333071864966,-0.1498073714310824,-1.5981208938535807,0.0104074634504955,-1.4080184936488744,0.0417380764633298,0.018692191746749742,-0.05528366523234046,0.05088917112552327,0.00991738420013993,0.11134332091811139,0.00434924916262007,-46.666745007895784,7.6629395106578055,-5.1335363002118015,-0.5393283146556845,-1.1888802725735026,-0.041772944053889045
0.19,2,0.4327629448698724,-0.1487620695569233,-1.5982969517010397,0.0102190695944004,-1.4061021842228754,0.0427911228108709,-0.0813238621552248,0.08319094680059869,-0.009356141124028383,0.048932573325579945,0.0623632845978217,0.07866761430160504,-46.993607662266676,8.11494891235219,-5.28943131625945,-0.4465001882444621,-1.2485141566941005,0.12265948143719743
0.2,2,0.4318068299433921,-0.1481435524950704,-1.5983080166760613,0.0113861149170071,-1.406771227956918,0.0433114287493619,0.06070139002071484,-0.02876609546382941,-0.03806684155091,-0.04138298208825495,-0.08689945016028267,-0.049625405647184956,-46.605776502798065,7.800725882723757,-5.361540016577301,-0.6431129437138818,-1.560420500891162,-0.1261219693830176
0.21,2,0.4339769726702867,-0.1493373914661999,-1.599058288532058,0.0093914099526353,-1.407840173226081,0.0417986146979272,0.07237219100307002,-0.01751866958906445,-0.07377519744226069,-0.10361874280398502,-0.022758979932591128,0.020998732927395014,-46.48395839077522,7.792683796358521,-5.473319061985577,-0.848569969612502,-1.4535184658190392,-0.0075659030053781134
0.22,1,0.4332542737634535,-0.1484939258868517,-1.5997835206249065,0.0093137400609274,-1.4072264075555698,0.0437314034079098,0.02327518732642142,0.17901080826527027,0.045996449257879046,-0.0027472433031449847,-0.07601940720509681,0.07175038126170999,-46.66015735807849,8.41179352519871,-5.195646908020684,-0.5983329681530993,-1.5477640069538268,0.1229292243129908
0.23,2,0.4344424764168151,-0.1457571753008945,-1.5981383595469003,0.0093364650865724,-1.409360561370183,0.0432336223231614,-0.0631849350175101,-0.008427085062909234,0.037468270034046736,0.038169835641710045,0.03283253974952771,-0.02971763392683978,-46.872009618975824,7.945266115722675,-5.16761252374008,-0.49547214514983684,-1.3727431893368403,-0.0874735223353347
0.24,1,0.4319905750631033,-0.1486624675881099,-1.5990341552242255,0.0100771367737616,-1.4065697567605793,0.043137050729373,-0.0940455713774796,-0.17233015469888535,-0.09115385093519945,0.021957560191829956,0.09068136202939892,0.06545937868309495,-47.062667582204206,7.351871676762208,-5.5160416964829535,-0.517486041594807,-1.2012294525850242,0.10143192897770881
0.25,2,0.4325615649892655,-0.1492037783948722,-1.5999614365656043,0.009775616290409,-1.407546934129595,0.0445428098968233,0.041155545172735786,0.061003479797473725,0.004921880873220985,-0.04555976412548004,-0.08862332488889235,-0.038496493087225234,-46.63422463550707,8.032926702014604,-5.303670807203265,-0.693817364471897,-1.5793823738019208,-0.08539342705117713
0.26,2,0.432813685966558,-0.1474423979921604,-1.5989357176067611,0.009165941491252,-1.4083422232583571,0.0423671208676285,0.0997937626868145,0.009349164782390673,0.10965782164927829,-0.018178444928849957,0.04299424722319367,-0.06034384029796509,-46.44822514387313,7.939612071064268,-5.011059386497826,-0.6406059364592468,-1.3320530121529917,-0.16172345691057885
0.27,2,0.4345574402430018,-0.1490167950992244,-1.5977682801326187,0.009412047391832,-1.406687049185131,0.043335933090864,-0.012518915946740927,-0.04465870112320969,-0.006784622628919212,0.07116649698110004,0.022258763482541077,-0.02183318315432496,-46.71541300871604,7.7224845746002275,-5.267142372969047,-0.4110909341698718,-1.3404204981697765,-0.0701699592747661
0.28,2,0.4325633076476232,-0.1483355720146246,-1.5990714100593395,0.010589271430874,-1.4078970479887063,0.041930457204542,-0.148632557917161,0.04337032349474995,0.03231486066547218,0.04637858148948499,-0.045824114267623006,-0.004325136482379727,-47.20351923844245,8.010414456415099,-5.2084875625346925,-0.44363012192285944,-1.5007862297416086,-0.05623600422570561
0.29,2,0.4315847890846586,-0.1481493886293294,-1.5971219829193093,0.0103396190216217,-1.4076035314704836,0.0432494303612164,0.06381969369275153,0.011350968156385866,0.010640420056595712,0.02880737962676497,0.03856042828601636,0.12048713619180022,-46.605303226131305,7.920872808885339,-5.204190849855977,-0.49379943681096694,-1.3261468142698751,0.21317313847277033
0.3,2,0.4338397015214782,-0.1481085526514969,-1.5988586016582076,0.0111654190234093,-1.407125839422986,0.044340199928378,0.06375565634847147,-0.06095810901410037,-0.12859806083025394,0.06505436924535493,0.0803856786027568,-0.02030452141675021,-46.51529884069136,7.705374836598018,-5.60438561424005,-0.38253696271980214,-1.2329424726864424,-0.05204863323690651
0.31,2,0.432859902211628,-0.1493685508096114,-1.5996939441359144,0.0116407064065288,-1.4059958178984284,0.0428433399328814,-0.07370477708821543,0.05419516941010949,-0.030373897393731752,-0.08731078213879999,0.009362397983359028,-0.08422789301674519,-46.966872113395425,8.00673473633664,-5.3838854799799485,-0.7515676566022019,-1.352388603434087,-0.20234827636934555
0.32,2,0.4323656059797139,-0.1470246492632947,-1.5994660796060822,0.0094192033806333,-1.4069385914633188,0.0426556420680431,-0.008218594176689908,0.046295998684935113,0.07442667516440737,-0.010622338721384943,-0.07125659288346187,0.03593013366593005,-46.790185413937415,8.065073778282201,-5.115048112689636,-0.6153841237060518,-1.5324820564655361,0.03515230902343045
0.33,2,0.4326955303280942,-0.1484426308359127,-1.5982054106326262,0.0114282596321011,-1.4074209497560977,0.0435619426062,-0.07273593247449917,-0.06589327813524004,0.0115111188813799,-0.014140921208420035,-0.0663870521767751,0.0026390112270398974,-46.97054045489563,7.678876592780045,-5.234516934193525,-0.5739541736369445,-1.53239014090774,-0.017835427781996357
0.34,2,0.4309108873302239,-0.1483425148259995,-1.5992358572284546,0.0091363849564649,-1.4082663325068543,0.0427084222925839,0.0401872710740353,-0.05074325845194072,-0.013392917367260893,-0.082538858478025,-0.018249948112147862,0.015656433819255175,-46.703156564164836,7.727830712176905,-5.327690422689979,-0.802245883701862,-1.4530235877936182,-0.00460338730180733
0.35,2,0.4334992757495749,-0.1494574960049515,-1.5984732689799714,0.0097774824625406,-1.4077859487183406,0.0438750712825851,0.11293534881761935,0.06048074226202016,0.030051279382881102,0.022814527230295006,0.02854894180726042,0.02515980395381527,-46.38137679416003,8.022478373055467,-5.196202283360129,-0.5228349817791694,-1.3498181321845282,0.03190308781733094
0.36,2,0.4331695943065763,-0.1471328999807591,-1.598634831640797,0.0095926755010708,-1.407695353670709,0.0432116183716602,-0.03225932128794462,0.010559444673009788,0.0026118105706185446,0.031084216391099977,0.12414296288814075,0.03813923090868997,-46.83014806219668,7.954075341135171,-5.269647835215552,-0.506780932913902,-1.1568181890701368,0.047910148063206835
0.37,2,0.432854089323816,-0.1492463071114913,-1.598421032768559,0.0103991667903626,-1.4053030894605778,0.0446378559007589,-0.060709479798815025,-0.07089446564824964,-0.057113121320229165,0.004591769175739998,0.02353854965650992,0.042034371370974766,-46.9281187370397,7.635744360595766,-5.412546198775534,-0.5528497687200069,-1.3101817313307729,0.07709399192425692
0.38,1,0.4319554047106,-0.1485507892937241,-1.5997770940672016,0.0096845108845856,-1.4072245826775789,0.0440523057990797,-0.03951674992005716,0.018772832651110793,-0.09764152047427865,-0.017055979253874972,-0.15620210074006602,-0.10499394803147495,-46.90048793193207,7.929089379115699,-5.554549035619932,-0.6248355374384693,-1.7080928964639464,-0.22574589840583056
0.39,2,0.4320637543254149,-0.1488708504584691,-1.6003738631780446,0.0100580472052851,-1.4084271314753791,0.0425379769401294,-0.0010305046815650698,0.008426484853589489,-0.012840666102309495,-0.038237468748785,0.07913506561263439,-0.10878969722337983,-46.780695211624,7.886848194957061,-5.360449973015301,-0.6684508531582569,-1.2614695397145503,-0.25605232967389474
0.4,1,0.4319347946169687,-0.1483822595966523,-1.6000339073892478,0.0089197615096099,-1.4056418813653262,0.0418765118546121,-0.01604401510180431,0.10869299578254027,0.22045062663932358,-0.04402159796299005,0.030288681861501132,0.03800432534946489,-46.830894131222564,8.2047484079075,-4.767023067497313,-0.7113683185856495,-1.3034573050157583,0.027613739189035168
0.41,2,0.4317428740233788,-0.1466969905428183,-1.5959648506452582,0.0091776152460253,-1.407821357838149,0.0432980634471187,0.11368893331742957,-0.03894678333034446,0.06599310447766848,0.09792967477387504,-0.07393568304514542,0.03976150240856506,-46.449372109708456,7.820813487453036,-5.031095170581763,-0.3500437933331018,-1.5554955642855095,0.052451367194834495
0.42,2,0.4342085732833173,-0.1491611952632592,-1.5987140452996944,0.0108783550050874,-1.407120595026229,0.0426717419027834,0.042017170467095744,-0.14014161967889488,-0.1371497577974945,0.03949589073178501,0.026198214402384234,-0.03913389334177508,-46.56575942786192,7.430981813191954,-5.621428165902757,-0.4536097594617743,-1.3412125131520503,-0.11473424747087527
0.43,2,0.4325832174327207,-0.1494998229363962,-1.598707845801208,0.009967533060661,-1.4072973935501014,0.0425153855802832,-0.05485391474485957,0.08724782668291936,0.017484148789659315,-0.018569481525484988,-0.016650909112869705,0.016416587204104785,-46.921386917521644,8.101298183717601,-5.2346574144802815,-0.6215437387156095,-1.4304467306600044,-0.005978631216618582
0.44,2,0.4331114949884201,-0.1474162387296008,-1.5983643623239012,0.0105069653745777,-1.4074536132084865,0.0430000736468655,-0.025644780209885254,0.07380081414447986,0.006147361409447605,0.10295504394005,0.05852023588154287,0.041066452859789965,-46.81262841168875,8.133882593340122,-5.2526948786116066,-0.3042466172038544,-1.2832288338388809,0.050591421093486265
0.45,2,0.432070321828523,-0.1480238066535066,-1.598584898573019,0.012026633939462,-1.4061269888324706,0.043336714637479,-0.05386940114664174,-0.09272617057762556,0.045191532178379124,-0.0038836710141850264,0.018630868601610118,-0.0761256062354148,-46.93894920089491,7.613036761837103,-5.161700539162814,-0.5333516904673344,-1.3364750808784276,-0.17874308223772076
0.46,2,0.4320341069654873,-0.1492707621411533,-1.5974605316803336,0.010429291954294,-1.4070809958364543,0.0414775615221572,0.07195104635606409,0.006018160399999528,-0.04420675024456866,-0.11190584796018496,-0.05714372460102757,-0.01454643592570977,-46.56293645290821,7.865626312702343,-5.351465238439619,-0.8433406824615344,-1.5071044073633777,-0.08347203834813764
0.47,2,0.4335093427556443,-0.1479034434455066,-1.5994690335779105,0.0097885169802583,-1.407269863324491,0.0430457859189648,0.020546278796315653,0.04402257952032529,-0.06296800320896301,-0.004807802336449958,0.04325574143621003,-0.035869677528750296,-46.658141323981184,8.027495724410954,-5.45862342777791,-0.5916149427530892,-1.3100828250496388,-0.10259515560210469
0.48,2,0.4324450325414136,-0.1483903105507468,-1.598719891744513,0.010333135907565,-1.40621588100773,0.0407601679715822,-0.050801680157000484,-0.01212602041562455,0.06136685311090018,0.004346316036499959,-0.08815828163982742,0.01202220685796486,-46.91475760941036,7.842009575919699,-5.125312031976324,-0.5551141736380469,-1.5518312248664934,-0.04109565603941348
0.49,2,0.4324933091525043,-0.1481459638538191,-1.5982416965156925,0.0098754433009883,-1.4090330289572877,0.0432862300561241,0.08811824435980553,-0.06241180192528978,0.048686194750635625,-0.02099141242661003,-0.06688172897935107,0.06605023716806518,-46.49606677141631,7.699704365783173,-5.142667821012374,-0.6299008099602394,-1.565621078536692,0.10485133584891573
0.5,2,0.4342073974286097,-0.1496385465892526,-1.5977461678495002,0.0099133076590328,-1.4075535155873171,0.0420811727149435,-0.004258861153283444,0.04902333919158952,0.012507956726348635,0.091814187912865,0.12802573315133792,0.004847267816214876,-46.70463455691136,7.981769393393638,-5.218247556087322,-0.3469402001604394,-1.1462158868759031,-0.035630462972493886
0.51,2,0.4324081319294386,-0.1471654970699873,-1.5979915373811655,0.0117117270592456,-1.406472514294261,0.0433831754124484,0.0007236271215987911,0.08608201949691502,-0.0015638078932456168,0.0013942680359599682,0.005579388341281355,0.015510509256730018,-46.761657712053555,8.1795021674839,-5.260788053586268,-0.5280295148473819,-1.369488550634892,0.005226060371109863
0.52,2,0.4342218699710417,-0.1479169061993143,-1.597777444007365,0.009941193019752,-1.4074419278204915,0.0423913829000781,0.05777214823687038,-0.10813834102946507,0.008713342506505573,-0.08390507465196993,-0.0002689899484042968,0.013604069638780206,-46.51796262704362,7.570541766378314,-5.228672376372877,-0.7855412225545467,-1.400573577738875,-0.01346370655034422
0.53,2,0.433563574894176,-0.1493282638905766,-1.5978172705310354,0.0100336255662062,-1.406477894093229,0.043655256805224,0.003347176359716486,0.012731371092250532,-0.104720995719354,0.010018965733069995,-0.05404206989501059,0.007816630756070017,-46.70756934574971,7.883753383549281,-5.5134530176476355,-0.5484203079305919,-1.4888390630868376,-0.006080475738576077
0.54,2,0.434288813498236,-0.1476622787774693,-1.5998718639217522,0.0101415723344134,-1.4085227692183917,0.0425477155151995,0.022761035067284108,0.07923085476121,-0.06463306650091871,-0.03591304263289002,-0.049674906697594334,-0.08584529064934003,-46.62031822546461,8.141561313514915,-5.47487099632305,-0.6605516596403119,-1.5210022391952593,-0.21001743789976368
0.55,2,0.4340187955955217,-0.1477436467953524,-1.5991099318610538,0.0093153647135484,-1.4074713922271809,0.0419383509922372,-0.10872469387009642,-0.018272079686590392,0.11900319338256082,0.02948361340334004,-0.04883790418401812,0.0358947281277798,-47.02557612838532,7.846204629545605,-4.992922384793399,-0.5177152100713618,-1.4983006943438903,0.024322131810041482
0.56,2,0.4321143196208341,-0.1480277203712011,-1.597491800054101,0.0107312446024802,-1.409499527302072,0.0432656100777551,-0.06279672221387589,-0.009758289677945509,0.10101704392124766,-0.04579398863596498,-0.027222141114457976,0.07886560264712995,-46.96397125240416,7.861803424416835,-4.989343804238097,-0.6705122179463294,-1.4956318697025939,0.13017276713151021
0.5700000000000001,2,0.4327628611512442,-0.1479388125889113,-1.5970895909826288,0.0083994849408291,-1.40801583504947,0.0435156630451798,-0.03972605529563855,0.05078644476057964,-0.03433740801215279,0.010376964745049955,0.07506424826124736,0.0222266354199651,-46.868817590433046,8.046549400112553,-5.3156636619274344,-0.5883788260350695,-1.2613852458991426,0.020645627188551063
0.58,2,0.4313197985149213,-0.1470119914759895,-1.598178548214344,0.0109387838973812,-1.4079982423368471,0.0437101427861544,0.04347780897757669,-0.007898150037134732,-0.06029278250054837,0.10182170204847493,-0.011878791154507073,-0.03222030528728485,-46.676928503066314,7.9029343546716735,-5.413220815099879,-0.29628450886270463,-1.4349194704781931,-0.08533105811132986
0.59,2,0.4336324173307957,-0.148096775589654,-1.5982954466326398,0.0104359189817986,-1.4082534108725602,0.0428712569394341,0.062355023316995606,-0.04767171303824008,0.027552973341837816,-0.08312654457326993,0.01945756890785466,0.029133553263739967,-46.52779210741308,7.7456462216901,-5.197113378042787,-0.7712267483066317,-1.3773501210677308,0.024793371289915343
0.6,2,0.4325668989812612,-0.1479654257367543,-1.5976274887475073,0.0092762530059158,-1.40760909095869,0.0442928138514292,-0.07906602371942073,-0.04603864570803945,-0.001400395506445662,0.025047305232689995,0.038169099353124736,0.06442399785922467,-46.99467598250371,7.755142668532191,-5.24945806360952,-0.5297837731888019,-1.3270406618997876,0.11669761416081117
0.61,1,0.4320510968564073,-0.1490175485038148,-1.5983234545427687,0.0109368650864524,-1.4074900288854977,0.0441597368966186,0.04403974095458785,0.020002616529195272,-0.019447669155292502,0.14775037581743997,-0.003497319489653705,-0.15206084415562496,-46.645990773475845,7.916442158396778,-5.31545522158948,-0.18151079471351206,-1.4079922581214976,-0.3182682241910471
0.62,2,0.433447693800353,-0.1475653734061704,-1.5980164421306131,0.0122312605222646,-1.407679037348483,0.0412515969683167,0.10244395879951407,0.015906520053990403,-0.00412010048082001,0.020296673608785013,-0.07041031688254096,-0.11260025722984977,-46.41491424218324,7.954979997388717,-5.267925927538632,-0.4677851643398443,-1.5455984221669805,-0.2829691492640252
0.63,2,0.4340999760323976,-0.148699418102735,-1.598405856552385,0.0113427985586281,-1.4088982352231485,0.0419077317520216,-0.10725362062331822,-0.07138206211776965,-0.004995127751128425,-0.07869101672321006,0.02100660259297671,0.025776610999739963,-47.01791569116995,7.653422686493677,-5.281795928367561,-0.7374659392607446,-1.3871485407092532,0.0036266089507278054
0.64,1,0.4313026213878866,-0.1489930146485258,-1.5981163446856357,0.0106574401878004,-1.4072589052966236,0.0417671291883115,-0.17079607919706918,0.022342527700069947,-0.02529228517821336,-0.037095442298235026,0.10054026609210842,0.06064533277915993,-47.320437252671645,7.924320576844517,-5.323853465932792,-0.6506109624689995,-1.195294615180491,0.07125501405391618
0.65,2,0.4306840544484562,-0.1482525675487336,-1.5989117022559494,0.0106008897126634,-1.4068874299013063,0.0431206384076048,0.10303599333854885,0.044651965329614574,0.0039456701851792175,-0.05361918085964997,-0.019891761532619956,0.07022951752413999,-46.523683712642004,8.01716453822588,-5.27461930463372,-0.6933340707509619,-1.4287291625236032,0.11072602183327583
0.66,2,0.4333633412546576,-0.1480999753419335,-1.598037431281932,0.0095850565706074,-1.407656740527276,0.0431717195387943,0.13659958633319425,-0.01955182220327034,0.0433253242127396,-0.031643891129289926,-0.03575724950919401,0.03016267584802987,-46.31582146141001,7.829893902865226,-5.149942040344302,-0.6637916749764617,-1.475846350996144,0.03135855544889807
0.67,2,0.4334160461751201,-0.148643603992799,-1.5980451957716946,0.0099680118900776,-1.4076025748914902,0.0437238919245654,-0.12013072689766868,-0.06657050986807467,-0.08780097417928623,-0.07107604045278994,-0.02175784283595661,0.024114245751060207,-47.0839042042841,7.669810837090521,-5.477990721017241,-0.7527981652984567,-1.446764224933954,0.02754428104152523
0.68,2,0.4309607267167042,-0.149431385539295,-1.5997934507655178,0.0081635357615516,-1.408091897383995,0.0436540044538155,-0.04823272111812438,0.025810420034139137,0.024785867554566465,0.06953064159896999,0.002112033077006359,0.022866729975535086,-46.9664229652821,7.919381272669803,-5.248971266497307,-0.4463933633822069,-1.4088109229581258,0.024000937429226564
0.6900000000000001,2,0.4324513917527576,-0.1481273955921162,-1.5975494784206032,0.011358624722057,-1.40756033422995,0.0441812265240761,0.09098344796112379,0.020030886574400053,0.03873693022368174,0.03722261982178499,-0.009157280665450518,-0.04832164765074011,-46.489147856602216,7.947682320441843,-5.146774439477081,-0.44728619381253437,-1.4207182873621393,-0.11046748676941487
0.7000000000000001,2,0.4327803956759267,-0.149030767807807,-1.5990187121610442,0.0089079881579873,-1.408275042997304,0.0426875715008007,0.04749342338176421,0.0664525276628955,-0.1078351247286724,-0.04079090431933002,-0.042385582877424444,-0.03834875834552512,-46.60645777341354,8.055329216158151,-5.557281589071195,-0.7035859182670644,-1.5014690671331676,-0.11292653350811588
0.71,2,0.4334012602203929,-0.1467983450388583,-1.5997061809151767,0.0105428066356704,-1.4084080458874986,0.0434142513571656,-0.009739517946119602,-0.043349946997110755,0.06644020540026441,0.03820245606206999,0.015456357273202492,-0.031055329435419887,-46.753322015618544,7.804056589091338,-5.142217326372828,-0.46523205537148693,-1.388445244635803,-0.08743947784243197
0.72,2,0.4325856053170043,-0.1498977667477492,-1.597689908053039,0.0096720372792287,-1.40796591585184,0.0420664649120923,-0.06361150456698494,-0.056412505487245246,0.052051703658562154,-0.0027997466184550256,0.06119411433987976,0.03691216762623031,-46.94756417161668,7.656389153809752,-5.117700394862949,-0.5895067959838419,-1.2881271297892782,0.02827871960476902
0.73,2,0.4321290301290532,-0.1479265951486032,-1.5986651468420054,0.0104868117033013,-1.407184163600701,0.0441524947096902,-0.009237133257269936,0.015448258668029902,0.006061765202625136,0.011934235952274982,0.07192906253131737,0.06340473664994475,-46.80270406520558,7.940962452245688,-5.261932404671788,-0.532302478955202,-1.2510221883836214,0.11255430461616642
0.74,2,0.4324008626518589,-0.1495888015743886,-1.5975686727489864,0.0099107219982742,-1.4065273346012137,0.0433345596450912,0.022826539359885323,-0.0034520233130996836,0.0933863244051869,0.07628478666443506,-0.012764496847850193,-0.05063510227424524,-46.695639746441884,7.826084381399809,-5.010726783874812,-0.3858283448004793,-1.4072727271522112,-0.12779439920119867
0.75,2,0.4325855609162509,-0.1479956356148652,-1.5967974203539017,0.01201250743659,-1.407439453537658,0.0431397926642053,0.061916703131981166,0.02754115527542067,-0.03203342594310099,0.013335420459444948,-0.0349364403418595,-0.053090556122640034,-46.57098132454992,7.97482472574869,-5.301138587892992,-0.4906571243550596,-1.4698589928691153,-0.13562681161127674
0.76,1,0.4336391967144985,-0.1490379784688802,-1.5982093412678484,0.0101774304074631,-1.407226063408051,0.0422727485226384,-0.06363601191483048,-0.10566918500011929,-0.133884061757783,-0.11063885662879,-0.015820219432516325,0.07753802218131503,-46.90549403776045,7.538711705031545,-5.5981228048480975,-0.8464697428038195,-1.4273587484582873,0.11262468287312988
0.77,2,0.4313128406779543,-0.1501090193148676,-1.5994751015890574,0.0097997303040142,-1.4077558579263083,0.0446905531078316,0.0012982288003476894,-0.0050802207668593224,0.0006387067231328203,-0.01663365921697,-0.02610454271597673,0.04444893079481524,-46.80374555707669,7.802992168121766,-5.299788693282077,-0.6208992518604919,-1.4585232853903562,0.08271356887802832
0.78,2,0.4336651612905055,-0.1491395828842174,-1.5981965671333858,0.0098447572231237,-1.4077481542623704,0.0431617271385347,0.09637440266345998,0.07564802184562985,0.09517435944937924,-0.029812969952134998,0.013069490089689939,0.028817243162540182,-46.4244242109853,8.07910717103199,-5.025093527796313,-0.652721855720667,-1.3800211465002654,0.028517804074024745
0.79,2,0.4332403287312235,-0.148596058877955,-1.5975716144000698,0.0092034709049715,-1.4074944681245145,0.0452668979710824,-0.03852437451699331,0.10451492427992898,-0.011178322227867188,0.04310332017799503,0.00993007886364028,-0.015521790330924948,-46.84611384489794,8.184731218554072,-5.272226649989949,-0.48646328834914687,-1.3812262461952463,-0.02858270042469
0.8,2,0.4328946738001656,-0.1470492843986188,-1.598420133577943,0.0107068236266836,-1.4075495526850976,0.0428512913319162,-0.061027772271662895,0.03357838262178919,-0.08357459913268528,0.07886808931725497,0.04707798511744965,-0.09735194888348016,-46.927450235404265,8.026058700356419,-5.478672917588194,-0.3594675474581945,-1.3080321248992899,-0.2284771171172934
0.81,2,0.4320197732857902,-0.1479244912255192,-1.5992431063827235,0.0107808326913166,-1.4065529084221655,0.0433198589934128,-0.022223647208810537,-0.042727794944905084,-0.017461723931533335,0.015479762783154969,-0.07743253102164838,-0.0072082005148702,-46.84603388079072,7.766507928714823,-5.338079913728725,-0.5160881371776195,-1.5371202719188437,-0.04116110545762455
0.8200000000000001,2,0.4324502008559894,-0.1479038402975169,-1.5987693680565738,0.0110164188823467,-1.4090982033055306,0.0427071273216188,-0.05285422454729127,-0.08400977373669988,0.09666503527078207,0.01001817880869997,-0.07874782632630861,-0.08155203049690987,-46.9207085099982,7.643384774819519,-5.038550865938446,-0.5238524423380045,-1.5906567601954658,-0.1990397404986139
0.8300000000000001,2,0.4309626887948444,-0.1496046867002532,-1.5973098056773078,0.0109811962674906,-1.4081278649486917,0.0416888183834746,-0.11686201527611462,-0.04352245033220903,0.11907893089972976,-0.021845538111894998,0.055494218290341735,0.03493658627316994,-47.17223236463047,7.705317120937221,-4.938729255488099,-0.6043923000108944,-1.302765903825387,0.01866285896938276
0.84,2,0.4301129605504671,-0.1487742893041611,-1.5963877894385792,0.0105795081201088,-1.4079883189397238,0.0434058590470822,0.01875590339212585,0.05226115595722558,-0.0551691925453901,-0.042816663030509954,0.06589867385563553,0.08059706569901494,-46.79936773840084,8.021731848668749,-5.346689076939039,-0.6668623159919769,-1.2791660725154408,0.1357394277751867
0.85,2,0.4313378068626869,-0.1485594635811087,-1.5984131895282156,0.0101248630068804,-1.406809891471579,0.0433007596974549,0.1585131962084596,-0.006321441802931149,-0.06643594069128955,0.052100376603120016,-0.01791481140021034,-0.059025982223784995,-46.33110200746304,7.853502955695112,-5.435617949992881,-0.4409358447386119,-1.4232244936642369,-0.14508315831482263
0.86,2,0.4332832244746363,-0.1489007181402197,-1.597716508252405,0.0116215156521712,-1.408346615167728,0.0422253394026065,0.12639424377904052,0.004624222626134489,0.056912739914505295,-0.015552413419460051,0.028982913760200457,-0.009300833815424972,-46.34964216027332,7.874396039413424,-5.106345810204074,-0.572651503662792,-1.360163517266395,-0.061764165920828625
0.87,2,0.4338656917382677,-0.148466979128586,-1.5972749347299255,0.0098138147384912,-1.406230233196375,0.0431147430211464,-0.017893865755486127,0.0983096103695652,-0.054959802299536786,-0.11213998070146498,0.022758452544657803,0.058469821762865276,-46.75920779833165,8.170633068050895,-5.372779960064797,-0.8593129447098045,-1.3302848002704204,0.08711819951385043
0.88,1,0.4329253471595266,-0.1469345259328284,-1.5988157042983957,0.0093787160381419,-1.4078914461168348,0.0433947358378638,-0.12660371466969023,0.03616387177161062,-0.08476159702306418,0.06939203839013003,-0.16795765385704264,-0.04005755745499495,-47.1229511282239,8.037831714108549,-5.493507533927719,-0.4163603644895493,-1.7449412714830181,-0.10573666667110901
0.89,2,0.4313336174448739,-0.1477437016931538,-1.5989701666703868,0.0112016555062938,-1.4095893862735158,0.0423135918720465,-0.08485341289897474,-0.10432476477119507,0.026591678467968727,0.03324396128956,0.008516623769638798,-0.0266825422055552,-47.061369411497864,7.588044652868742,-5.219758216359871,-0.4611570705371769,-1.4259515193632755,-0.09520379565948901
0.9,2,0.4312282789015471,-0.1490210212282523,-1.5982838707290363,0.0100435952639331,-1.407721113641442,0.0428610849937527,0.07719361390294277,-0.07182060173465538,0.05435046739492577,-0.021168517754320028,0.12126976306877646,0.05860375883134476,-46.579441872825186,7.640850958249914,-5.129772365801964,-0.6261397742058945,-1.1630797881235244,0.08358120323990387
0.91,2,0.4328774897229328,-0.1491801137278469,-1.5978831573224883,0.0107782851512074,-1.4071639910121403,0.0434856670486734,0.08651973011337133,0.12484788554285031,-0.014606663658578434,-0.005578796290555028,-0.02182316113245042,-0.0380952055551699,-46.48549509133847,8.22528818259662,-5.290143791239284,-0.5687982233646245,-1.4381231839399433,-0.10044799470931498
0.92,2,0.4329586735038145,-0.1465240635173953,-1.598576004002208,0.009932019338122,-1.408157576864091,0.0420991808826493,-0.06317481150118487,0.005224587645449863,-0.033926147316576394,-0.014327880896215003,-0.014568956123028887,-0.05768613026196495,-46.93133136494687,7.9593800462702236,-5.359227900775865,-0.6118275802059094,-1.4434864909601153,-0.16042713661326652
0.93,2,0.4316139934929091,-0.1490756219749379,-1.5985616802688198,0.0104917275332831,-1.4074553701346009,0.0423319444434341,0.02634428610371886,-0.056533859973680045,-0.0031657714139821103,-0.015089808065670007,0.05680852552542026,0.053242850888579954,-46.71656127256838,7.684800157398843,-5.281897249017739,-0.5997396932505196,-1.2866873930734135,0.06492227909959525
0.94,2,0.4334855592258889,-0.1476547407168689,-1.5986393194304875,0.0096302231768086,-1.4070214063535826,0.0431640379004209,-0.008886146307143794,0.03581490051370456,0.014517482638076729,-0.05384296738225498,0.006051987400468306,-0.030075828171195057,-46.747389940481774,8.011577282893413,-5.240018288737622,-0.7181602004538443,-1.3795211937029528,-0.08923367716515276
0.95,2,0.4314362705667662,-0.1483593239646638,-1.5982713306160583,0.009414868185638,-1.4073343303865915,0.0417304278800102,0.01902415586703954,0.02218912619219998,-0.004052175730484553,0.044347528349435,-0.1290823648692263,-0.05865707994445503,-46.74563058032413,7.946039546256078,-5.275402770226148,-0.47806783590388446,-1.6560483789025193,-0.16790033101783325
0.96,2,0.4338660423432297,-0.1472109581930249,-1.5987203629450972,0.0105171737437973,-1.4096030536509672,0.0419908963015318,0.05036794808766509,-0.043814429874940164,0.019737957769339065,0.12640509221863006,-0.05962298287409684,0.026937371583870065,-46.554408332603714,7.788221680062018,-5.229398406347757,-0.24536628727691429,-1.5625040801997736,0.0071955983616409785
0.97,2,0.4324436295285195,-0.1492356125621626,-1.5978765714606715,0.0119429700300106,-1.4085267900440734,0.0422691753116876,-0.04802874404784274,0.01584611320967072,-0.04231799385919777,-0.004992436463229985,0.1846218365720631,-0.021616404040755016,-46.90649492159865,7.896340406396031,-5.359224540886329,-0.5382152018262318,-1.0524891691695792,-0.0857377677352722
0.98,2,0.4329054674622728,-0.1468940359288315,-1.5995667228222812,0.0104173250145327,-1.405910616919526,0.0415585682207167,-0.04307866543940553,0.028297303068280932,-0.053886381596568445,-0.051692081557415046,0.06188389665447991,-0.04090609568121982,-46.8731711684232,8.015649158138451,-5.438850051078044,-0.693105439948642,-1.2456415865137949,-0.1349762573807653
0.99,2,0.4315820562197314,-0.148669666500797,-1.598954299092603,0.0109091283988623,-1.4072891121109838,0.0414510533980632,0.012215648210478491,-0.09549809141507493,0.10894439131031719,-0.038249922864899956,-0.10724673592032996,0.09568290970205992,-46.7602246771752,7.582115904669591,-5.013400406920482,-0.6472049586091142,-1.6114727554925734,0.13658903104599174
1.0,2,0.4331497804264824,-0.148803997757133,-1.5973878349960748,0.0096523265572347,-1.4080555516379325,0.0434722264147579,0.08933114312351942,0.038007408934549736,-0.050811298683817174,-0.011977416313904959,-0.05566590619534573,0.08771344762828481,-46.466169224166045,7.977930811746705,-5.365795709009976,-0.6129437382723169,-1.5236398865815781,0.15096770214886196
1.01,2,0.4333686790822018,-0.147909518322106,-1.5999705250662792,0.0106695800725842,-1.4084024302348908,0.0432053223506289,-0.08345981712546413,0.0444525298426493,-0.09062964245911687,-0.02855941211477005,0.05899286447124119,-0.013065520805229797,-46.975786158684215,8.028572954696948,-5.542822270554357,-0.628967389890742,-1.3012599171875694,-0.05459379568010226
1.02,2,0.4314805840839731,-0.14791494716028,-1.5992004278452572,0.0090811383149393,-1.4068756943485077,0.0432109159986533,-0.05636726911351364,0.04305248700035014,0.05487905459123921,-0.022002978026995027,0.057086205651391,-0.037297215575859965,-46.970032314577516,8.02418281683396,-5.1559476112978055,-0.652287348612427,-1.2745385170996082,-0.10297328050099655
1.03,2,0.4322413336999315,-0.147048468582099,-1.5988729439744545,0.0102295205120443,-1.407260706121863,0.0424593780391117,0.09060012676102014,-0.04427687602129027,0.018424439577713336,0.11557616941462005,-0.07607569199529207,-0.11580690215586519,-46.49870014231558,7.792521478005375,-5.237259632707538,-0.27962992508076423,-1.5485625478600795,-0.27126572305413105
1.04,2,0.4332925866191935,-0.1488004846807058,-1.598831939053703,0.0113926617032317,-1.4083972081884135,0.040894777955536,0.11080820620377463,0.045270728914000025,0.003608136144173102,-0.08564425584630499,-0.02445821627775624,0.014573860206625044,-46.39602578721683,7.999843729360007,-5.273070243668842,-0.7536024584533919,-1.4680576377560195,-0.03397319958278608
1.05,2,0.434457497824007,-0.146143054003819,-1.598800781251571,0.0085166353951182,-1.407749870447418,0.0427508552432442,-0.007761772740361161,-0.029366549340380244,0.0464193542522251,-0.03616019309225001,-0.01853807606569946,0.13582349405934502,-46.7051392758567,7.868941968287905,-5.1651074643347545,-0.701792959271092,-1.4432706025119968,0.2363672274382769
1.06,2,0.4331373511643863,-0.1493878156675134,-1.5979035519686584,0.0106694578413867,-1.4087679697097275,0.0436112478367229,0.04920862419313943,-0.10949975048017008,0.007465693174846244,0.07889708548999,0.04218708626538836,-0.06297217992059512,-46.58703395144102,7.51497570663923,-5.235574738540825,-0.3603292016587794,-1.34218226309601,-0.1483182316194229
1.07,2,0.4354416703078698,-0.1483330490134224,-1.598651467388074,0.010094577104918,-1.4069061287221103,0.0414914116448323,0.055692158419234916,0.0237917112665062,0.06138809270490597,-0.029702573489579984,0.14039232327652806,-0.07859569997353474,-46.475410583023404,7.951766924772445,-5.123206202298145,-0.6462003675194219,-1.1085349693213864,-0.21136281460366116
1.08,2,0.434251194332771,-0.1489119814421833,-1.5966757901145603,0.0100754063715951,-1.405960123244197,0.0420393338372522,-0.012012410201925339,-0.0035721760568901972,-0.01539232019772685,0.014947189186530034,0.029172739763638766,0.06148001746895497,-46.72614332789084,7.849412627795625,-5.255886916349314,-0.5350552291622193,-1.312054026788898,0.07700745316761684
1.09,2,0.4352014221038313,-0.1484044925345602,-1.5989593137920286,0.0103935208886486,-1.4063226739268375,0.0427210119942114,-0.016023864260494847,0.003751774239194039,-0.11023208302241017,-0.0060730255648900645,-0.07244111019105715,-0.026146603271135285,-46.70016857922413,7.889146590450685,-5.561492033735071,-0.579652903114432,-1.5225327403511013,-0.08802061595817576
1.1,2,0.4339307170475611,-0.1488369459573994,-1.5988804317750085,0.0099539458602973,-1.407408945448018,0.0415164017718295,-0.016798331696188384,-0.008185812195260489,0.02703892789841511,-0.11810449152050004,-0.013906802404073382,0.026154969989955132,-46.75332018378202,7.83819796134795,-5.2159480459224055,-0.8707209437122396,-1.4271895552007452,-0.0014866227717234143
1.11,1,0.4348654554699075,-0.1485682087784654,-1.5984185352340603,0.0080314310582386,-1.406600809974919,0.0432441113940105,0.13760012563361068,-0.07498064062377435,0.09011800593254904,0.03202835774406007,0.11320961942483665,0.09292785350225007,-46.25273527489877,7.647219277325099,-5.044393454608624,-0.5434516906023068,-1.156794002080943,0.15797478858558148
1.12,1,0.4366827195602333,-0.1503365587698749,-1.5970780716563575,0.0105945130151785,-1.4051447530595214,0.0433749588418745,0.19914364020248987,-0.04984555340580982,0.07524715741751287,0.141357338395155,0.027067899411581386,-0.03443062819390996,-45.99541416757909,7.660732289279659,-5.041356668565132,-0.20605219005107195,-1.299956303799501,-0.09477946308877858
1.13,2,0.4388483282739573,-0.1495651198465816,-1.59691359208571,0.0108585778261417,-1.4060594519866874,0.0425554988301323,0.1418484963076838,0.011563000836849191,0.017538660795390904,0.052660118073335,-0.11620810132024761,-0.03663540622662505,-46.080675250714556,7.871958314322901,-5.180693523001011,-0.42119362058154197,-1.604802283806479,-0.11148091933034174
1.14,1,0.439519689486387,-0.1501052987531379,-1.5967272984404497,0.0116477153766452,-1.4074689150859263,0.042642250717342,0.14556711701975977,-0.03210606901433016,0.028274290820173853,-0.12263089865271999,-0.08177176895622917,-0.011125034808830148,-46.042664940081146,7.7220448430398925,-5.148265638581243,-0.8396927236340919,-1.5641188810632212,-0.05915889818660647
1.15,2,0.4417596706143525,-0.1502072412268682,-1.5963481062693066,0.0084059598530873,-1.407694887365812,0.0423329981339557,0.08668337739818621,-0.05369059469168408,-0.04903483789570062,-0.07086564641836006,0.0787075043799712,0.008144980825000245,-46.12971691382724,7.65372327942727,-5.330162695236637,-0.7913234811371395,-1.247679779988533,-0.02525765566974019
1.16,2,0.4412533570343507,-0.1511791106469716,-1.5977079951983637,0.010230402448278,-1.4058947649983269,0.042805150333842,0.1314215166642152,-0.028390162820184084,0.032823114999791514,0.059368333779984996,0.0077340086855892665,0.058852210452705125,-46.01575503922923,7.695609145338152,-5.16631448086962,-0.4201274657615095,-1.3536243240275958,0.08323908658396414
1.17,1,0.4443881009476368,-0.1507750444832719,-1.5956916439693107,0.009593326528687,-1.4075402071921002,0.0435100423430098,0.30383454797550946,0.029401769533424216,0.07125229175029002,0.043522140472890006,-0.08100489065001604,0.01054685961887486,-45.37312618876389,7.883127258128467,-5.009751002121785,-0.47566984701902193,-1.5640109665742719,-0.002798234946179423
1.18,1,0.4473300479938609,-0.1505910752563031,-1.596282949363358,0.0111008452577358,-1.4075148628113272,0.0430160875262195,0.2711289016973789,-0.0959133874409851,-0.07861020923308759,0.07708651960528501,0.03852308759261236,-0.06855384146183009,-45.35356524574933,7.513620710149146,-5.402146416401644,-0.3540709309618144,-1.324448122473556,-0.16840895935944383
1.19,1,0.4498106789815844,-0.1526933122320916,-1.5972638481539725,0.0111350569207927,-1.406769745440248,0.0421389655137732,0.2647938025059998,-0.028998329471519035,-0.059926493773565515,-0.09087144501566001,0.020437422983643483,0.06474917915109506,-45.27334530381452,7.6407875899049476,-5.384864091471276,-0.7731105509377545,-1.3457171042699079,0.08504025167971194
1.2,1,0.4526259240439809,-0.1511710418457335,-1.5974814792388292,0.0092834163574226,-1.4071061143516543,0.0443110711092414,0.30567608570032656,0.031784281715745155,0.061198151737340556,-0.07323954772864996,0.05188295196224546,0.047658630850825126,-45.03808865173568,7.876414886989274,-5.088581410239713,-0.7753218218044817,-1.2895534245408324,0.08344073901119513
1.21,1,0.4559242006955909,-0.1520576265977767,-1.5960398851192257,0.0096702659662197,-1.405732086401003,0.0430921381307897,0.33792801813566087,-0.11709662258077985,0.15823446803746588,0.078232272098455,0.09277163857115411,-0.027986975509090156,-44.80940178836528,7.3987417077781865,-4.802742795901294,-0.38697103201679195,-1.1802954923099884,-0.08613446838541094
1.22,1,0.4593844844066941,-0.1535129742973491,-1.59431678987808,0.0108480617993917,-1.4052506815802313,0.0437513315990596,0.25317788574749367,-0.19631162348600073,0.14401022473918834,0.10721695808192498,-0.0439237762262068,-0.08308929138114499,-44.92524083708565,7.110159535577489,-4.786610546912614,-0.28506442122881703,-1.4440582254892753,-0.18645119810547214
1.23,1,0.4609877584105408,-0.1559838590674967,-1.593159680624442,0.0118146051278582,-1.4066105619255271,0.0414303523031668,0.3436899274130406,-0.021197415483441284,0.12092900492473024,0.02270013709347006,-0.028381232692575864,-0.07352978611357974,-44.58957375193514,7.5490211926300015,-4.809600318839619,-0.47219289048829177,-1.440170745327931,-0.20214687700873363
1.24,1,0.4662582829549549,-0.1539369226070179,-1.5918982097795853,0.0113020645412611,-1.4058183062340828,0.042280735876788,0.4622982597686065,0.00963848529908079,-0.029188436395988226,0.04518243266138002,0.14586674595988836,0.13142283149881992,-44.02292777309188,7.713171671094326,-5.1470497967957165,-0.42880066623344437,-1.0758296741941153,0.22051411182038375
1.25,1,0.4702337236059129,-0.1557910893615151,-1.5937434493523617,0.0127182537810858,-1.4036932270063294,0.0440588089331432,0.37506635735607974,-0.08414886672218902,0.012563554485389705,0.00494859221357993,0.09589216907746057,0.06744731361631971,-44.12560585429114,7.366913778623115,-5.098027006775564,-0.49398053635732714,-1.133277243403903,0.11923417190071128
1.26,1,0.4737596101020765,-0.1556198999414617,-1.5916469386898775,0.0114010363855327,-1.4039004628525336,0.0436296821491144,0.48040848598270847,-0.04559004760128077,0.12661840894266918,-0.15848644429002,-0.04735681078943399,-0.07303188719218513,-43.66854400856471,7.488581865687709,-4.74999455075784,-0.9354985625051545,-1.4239199200617758,-0.16816113147673045
1.27,1,0.4798418933255671,-0.1567028903135407,-1.5912110811735083,0.0095485248952854,-1.404640363222118,0.0425981711892995,0.46257030783643516,-0.05606853926101579,0.11944376219911179,0.049306037323594995,-0.014729009052827369,0.03206809267020522,-43.478767214063915,7.419241727685738,-4.754855442125657,-0.46233014572729936,-1.3734623239802524,0.026566163850826746
1.28,1,0.4830110162588052,-0.156741270726682,-1.5892580634458953,0.0123871571320046,-1.40419504303359,0.0442710440025185,0.47661118022224447,-0.11689326537334954,0.013861681751559107,0.10504193852036497,0.029454717342702885,-0.03165706490162977,-43.30987967957695,7.235424234888791,-4.960220111416149,-0.2520245868173946,-1.276188467418633,-0.07579105909455816
1.29,1,0.489374116930012,-0.1590407556210077,-1.590933847538477,0.0116493636656927,-1.404051268875264,0.0419650298912669,0.5926112416379636,-0.1807147471670989,0.08404027757961119,-0.009798423980789984,0.02166773754571638,-0.047108312142905145,-42.70735546848152,6.963477818206144,-4.8350471446234735,-0.5575703297280795,-1.2888869438460837,-0.1412837652458829
1.3,1,0.4948632410915645,-0.160355565670024,-1.587577257894303,0.0121911886523888,-1.4037616882826758,0.0433288777596604,0.5714810310860408,-0.12754294966692004,0.08620329705479879,-0.01281666765431998,-0.0010228859119609801,0.0033078811423250393,-42.551181133675186,7.076974858991111,-4.728941906610283,-0.5515703142445019,-1.3284765789096742,-0.01999366064952008
1.31,1,0.5008037375517328,-0.1615916146143461,-1.5892097815973811,0.0113930303126063,-1.4040717265935032,0.0420311875141134,0.6261063908294645,-0.09535652600447114,-0.0659369734735682,-0.032661413544205015,0.079000095938353,0.036442802990540105,-42.149685196038185,7.130272416927183,-5.158268294023543,-0.6211361374637769,-1.1746313814255949,0.026810829363705102
1.32,1,0.5073853689081538,-0.1622626961901134,-1.5888959973637744,0.0115379603815047,-1.4021816863639087,0.0440577338194712,0.6762616766643859,-0.111495258894595,0.10560531057381972,-0.028365055694285022,0.08555444504365628,0.07224261390238983,-41.735954084276585,7.0583683631049565,-4.719999056896871,-0.606771991116517,-1.1237218786230985,0.1288086457677715
1.33,1,0.5143289710850205,-0.163821519792238,-1.5870976753859047,0.0108257291987206,-1.40236063769263,0.0434760397921612,0.6994979304404791,-0.09732829376981472,0.17228021044881636,-0.035979428417214944,-0.017475715540249404,-0.03554290152284999,-41.38850123587364,7.046310432404936,-4.499362147873289,-0.6436137024934442,-1.3333612263653372,-0.09548779549235814
1.34,1,0.5213753275169634,-0.1642092620655097,-1.585450393154798,0.0108183718131604,-1.4025312006747137,0.0433468757890142,0.6445632460735762,-0.16142855626642555,0.1528842902745131,0.038884885269990004,-0.0005988867236239592,-0.0017051591358400314,-41.271451031696635,6.840438665350594,-4.498433481375848,-0.45663685291443684,-1.3030188283737587,-0.029749770765543186
1.35,1,0.527220236006492,-0.1670500909175665,-1.5840399895804145,0.0116034269041204,-1.4023726154271026,0.0434419366094444,0.6572073816262347,-0.17817514827491027,0.1275969466210669,0.018798640507584983,0.036731850771065666,0.054569605894265114,-40.999722285457516,6.6907698795031525,-4.519339733277955,-0.48722608754644947,-1.2251856484321566,0.08422567160112006
1.36,1,0.534519475149488,-0.1677727650310079,-1.5828984542223767,0.0111943446233121,-1.4017965636592924,0.0444382679068995,0.722041581522942,-0.21433212199372942,0.022597944869306996,0.03812889766373999,0.0745383517790299,-0.017348872268424867,-40.513250120047545,6.557005364376245,-4.747591176916223,-0.44912750167626947,-1.1380516110600247,-0.04466631526243332
1.37,1,0.5416610676369509,-0.1713367333574411,-1.5835880306830283,0.0123660048573952,-1.400881848391522,0.0430949591640759,0.8676605668451742,-0.28086566318340916,0.1252195631463171,0.133363446939125,0.019564667341565034,-0.07787480374910026,-39.79072946458234,6.232665849382045,-4.511724425043245,-0.18174962263572947,-1.229704674579546,-0.18586780936613814
1.38,1,0.5518726864863915,-0.1733900782946761,-1.5803940629594504,0.0138616135620946,-1.401405270312461,0.0428807718319175,0.84837476734273,-0.10668832692131008,0.19188609068300222,0.077181226100855,0.1285979075904553,-0.00803416379785496,-39.44012210911204,6.683330785365117,-4.249239074494194,-0.28481495711391935,-1.022106632500548,-0.04939933944602359
1.39,1,0.5586285629838055,-0.1734704998958673,-1.5797503088693683,0.0139096293794123,-1.3983098902397129,0.0429342758881188,0.8941792086408606,-0.0483021686170898,0.18916635416905692,-0.055383599665025006,0.10671159206059322,0.034071440603140185,-39.03247372532109,6.855674504236085,-4.2367257930765945,-0.6150266260956769,-1.0039716621053074,0.035614430198986254
1.4,1,0.5697562706592088,-0.1743561216670179,-1.5766107358760693,0.0127539415687941,-1.3992710384712492,0.0435622006439803,1.069204857411471,-0.09678830456444493,0.11835338686301267,-0.0025330597720200215,-0.04215993981855348,-0.00509844809293003,-38.062288471993135,6.67921933440375,-4.319571021542734,-0.5117924716286195,-1.3209376904943282,-0.03330647585523167
1.41,1,0.5800126601320349,-0.1754062659871562,-1.577383241132108,0.0138589681839719,-1.399153089036084,0.0428323069262602,0.8878574232630942,-0.17964230671979053,0.07567901991092363,0.022809048595720006,0.06478574873025611,0.004269148324364744,-38.196075195525225,6.393902276732872,-4.44943209660412,-0.4208115353298244,-1.104687324693403,-0.025519688786443638
1.42,1,0.5875134191244706,-0.1779489678014137,-1.5750971554778508,0.0132101225407085,-1.397975323496644,0.0436475836104676,0.7418413742878438,-0.19400398514633488,0.1331257748357073,-0.08642833591545494,0.07107851750380867,0.026767685004965014,-38.33409298275354,6.261822677954226,-4.237232639664443,-0.7101261376893467,-1.0685464763575014,0.03170653483786784
1.43,1,0.5948494876177918,-0.1792863456900829,-1.574720725635394,0.0121304014656628,-1.3977315186860078,0.0433676606263595,0.9288892417858075,-0.15753971225013486,0.07946800385335573,0.0010744499283499992,0.01965484971737652,-0.018780840033729915,-37.4795066405268,6.324407270539404,-4.360084171846616,-0.5183621999559769,-1.1665177157176387,-0.06358936000114346
1.44,1,0.6060912039601868,-0.1810997620464164,-1.5735077954007837,0.0132316115392755,-1.3975822265022966,0.043271966809793,1.1291894111311873,-0.272001639348525,0.2297071617873958,0.08577827763074997,-0.01812162943116702,-0.087268918135305,-36.428937478794865,5.917551916772561,-3.9480983699732084,-0.2790723788596595,-1.2390848303405022,-0.20200092345279116
1.45,1,0.6174332758404155,-0.1847263784770534,-1.570126582399646,0.0138459670182778,-1.398093951274631,0.0416222822636534,1.0958873213368192,-0.2513267843818598,0.2143678669875193,0.037287574983100015,0.09926059864312498,0.04529736184608023,-36.075160872968816,5.852644906600263,-3.8850102169387686,-0.3849402485037269,-1.0145548696386086,0.03838636831788533
1.46,1,0.6280089503869232,-0.1861262977340536,-1.5692204380610333,0.0139773630389375,-1.395597014529434,0.0441779140467146,1.0390945379295802,-0.21905371181798056,0.08605805552778234,0.031263224727785026,0.2027840170014672,0.06861486483618479,-35.82251224133023,5.9004669502968925,-4.17860041542973,-0.3967162236255219,-0.7575692980179838,0.12335585104401248
1.47,1,0.6382151665990071,-0.189107452713413,-1.5684054212890903,0.0144712315128335,-1.3940382709346018,0.0429945795603771,1.0245924965828046,-0.2830522754929052,0.13856320912462028,-0.0010572437375700253,0.04025588771047195,-0.037629536648900105,-35.4577697168872,5.60413083499454,-4.022887028279348,-0.46517068294150954,-1.0514506847033278,-0.1068829692212199
1.48,1,0.6485008003185793,-0.1917873432439117,-1.5664491738785409,0.0139562181641861,-1.3947918967752246,0.0434253233137366,1.2014218827234802,-0.1278421991556547,0.19361909587441994,-0.02752601235946504,0.036488557930158816,-0.04608834682554991,-34.51585620968228,5.975964895438837,-3.826559889088365,-0.544217938212432,-1.0740578610764118,-0.11733943327412694
1.49,1,0.6622436042534767,-0.1916642966965261,-1.564533039371602,0.0139207112656442,-1.3933084997759986,0.0420728126238661,1.3258697423848997,-0.15232998601834996,0.21031241103602882,0.11698875741697505,0.06257287050919214,0.09036958218432006,-33.59280047330213,5.906808164009247,-3.7273425659761736,-0.1838186862348793,-0.9922212959338239,0.13528876439755547
1.5,1,0.6750181951662773,-0.1948339429642787,-1.5622429256578203,0.0162959933125256,-1.3935404393650408,0.045232714957423,1.2364484265762365,-0.3390150202005546,0.21790347330800097,0.014659092991759978,0.02018224665042423,0.08654364957707515,-33.3500807842161,5.235815442091292,-3.639661498882795,-0.38026079612588193,-1.081641335432204,0.1750354341864192
1.51,1,0.6869725727850015,-0.1984445971005372,-1.560174969905442,0.0142138931254794,-1.39290485484299,0.0438036856154076,1.272674787594269,-0.2754414634705604,0.23979808989149642,0.005835156350834925,0.16566114634055662,-0.06452382084878999,-32.763226596413034,5.300163217512227,-3.5228862848527043,-0.45437314240434956,-0.7779718456109253,-0.1485349467955421
1.52,1,0.7004716909181626,-0.2003427722336899,-1.5574469638599904,0.0164126964395423,-1.3902272164382297,0.0439422385404472,1.3672727282647346,-0.2764282536035903,0.17824724909107914,0.03439355800883004,0.11579386533684399,-0.03992598394278006,-31.939468049075188,5.230766717452792,-3.5949232054902014,-0.32800705540778935,-0.8241536395231419,-0.09726097910792822
1.53,1,0.7143180273502961,-0.203973162172609,-1.5566100249236203,0.014901764285656,-1.3905889775362532,0.043005165936552,1.29869238863779,-0.14702234980477485,0.14952790793113513,-0.006559459286054926,0.006917135886042036,-0.01740644083446999,-31.591355610670682,5.491920780987071,-3.64161339029896,-0.4681629024921592,-1.0491423203852168,-0.06627798194973611
1.54,1,0.7264455386909184,-0.2032832192297854,-1.5544564057013677,0.0162815072538212,-1.3900888737205088,0.0435941097237578,1.3028990237568205,-0.16082243792040068,0.26953764259860513,0.1362243655995899,0.08994425116871652,0.05310536557071484,-31.093635251688703,5.474668519639019,-3.2769804769627053,-0.07670976607391722,-0.87308601350498,0.08357978766872057
1.55,1,0.7403760078254326,-0.207189610931017,-1.5512192720716482,0.0176262515976478,-1.3887900925128789,0.0440672732479663,1.350784423233986,-0.35450230915442943,0.25800860333846654,0.046858439527414954,0.1028998871457909,0.037876788840734976,-30.392760287876634,4.756905196393827,-3.2086890662214684,-0.2665059726586896,-0.8211991173982325,0.06022008707188827
1.56,1,0.7534612271555982,-0.210373265412874,-1.5492962336345983,0.0172186760443695,-1.388030875977593,0.0443516455005725,1.4461806932216714,-0.24175792279509944,0.1760582307493097,-0.059664035030389945,0.08655078407745487,-0.15103476664027995,-29.583162704706954,4.983710448606822,-3.355873844582864,-0.5430015478851593,-0.838712992829187,-0.3133374401010485
1.57,1,0.769299621689866,-0.212024769386919,-1.547698107456662,0.01643297089704,-1.3870590768313298,0.0410465779151607,1.5228637491892016,-0.43588299732426616,0.10269868419275907,0.01026614877539505,0.0988622454020649,-0.08678084558808516,-28.719577755433654,4.343532585927747,-3.491328925636151,-0.38781871705393434,-0.7946540872547025,-0.23440561177783598
1.58,1,0.7839185021393822,-0.2190909253593593,-1.5472422599507432,0.0174239990198774,-1.3860536310695517,0.0426160285888108,1.4339777879128046,-0.27897819281966496,0.18977081978530652,0.14231924672731994,0.07435096239368777,0.1483459885850951,-28.401480421282194,4.56693154040614,-3.2599731614772165,-0.032910269103187006,-0.8235677380358952,0.25938981667327604
1.59,1,0.7979791774481221,-0.2176043332433123,-1.543902691060956,0.0192793558315864,-1.385572057583456,0.0440134976868626,1.570414747643406,-0.1272981955646138,0.25950849078565374,0.005019285726404893,0.0685031419886406,-0.006102717615604977,-27.429742529740796,5.074002256232939,-2.9854419172827305,-0.32977625131274974,-0.825631909124076,-0.028545559257347093
1.6,1,0.8153267970922503,-0.2216368892706516,-1.54205209013503,0.0175243847344055,-1.384683568229779,0.0424939742364987,1.5661549655426654,-0.39011033411295026,0.2939583414192537,-0.06625886153086985,0.0804160740772164,-0.019658834115415108,-26.74861709027789,4.144426379631054,-2.8437992629209563,-0.551845896885459,-0.7840362578733817,-0.07845064401242587
1.61,1,0.8293022767589754,-0.2254065399255713,-1.5380235242325708,0.017954178600969,-1.3839637361019117,0.0436203210045543,1.514651409352702,-0.28235829013532054,0.2370142428896882,-0.009994570948515004,0.14417731610973927,0.044387159582694874,-26.344108572178776,4.335744738641753,-2.8653025321710923,-0.4004403237654844,-0.6421171312509921,0.06653654490462807
1.62,1,0.8456198252793043,-0.227284055073358,-1.5373118052772363,0.0173244933154352,-1.381800021907584,0.0433817174281526,1.5535491315440797,-0.25734351027585506,0.22110695459737206,-0.03707532671334002,0.11849772913828938,0.03961123140378518,-25.574713464791483,4.345076048047615,-2.8837191842418477,-0.483884345315892,-0.6502020213073401,0.05340563490078318
1.63,1,0.860373259389857,-0.2305534101310884,-1.5336013851406234,0.0172126720667022,-1.381593781519146,0.04441254563263,1.6390536019736224,-0.31387320925791024,0.22781647093756963,0.09166692556073011,0.0364332631143216,-0.00014105164055991382,-24.72806268908075,4.0610595240808856,-2.7556327892929655,-0.1648242458490416,-0.8102061455865117,-0.010636508120745944
1.64,1,0.8784008973187768,-0.2335615192585162,-1.532755475858485,0.0191578318266498,-1.3810713566452977,0.0433788963953414,1.7599892457098643,-0.27469722984659467,0.30771402466498454,0.15647384203171,0.08469908338418763,-0.01372267230686508,-23.644150240715234,4.073303642854858,-2.5305116265102745,0.04582203932709811,-0.7032260075698149,-0.05330448801268532
1.65,1,0.8955730443040543,-0.2360473547280203,-1.5274471046473237,0.0203421489073364,-1.3798997998514622,0.0441380921864927,1.7044995620957626,-0.34740534379996413,0.32070568991613424,0.0543424397996449,0.11174755488777555,-0.007723717327829879,-23.123733412146436,3.7681750595621075,-2.3387813270475633,-0.1798985392358996,-0.6256979286859288,-0.0299186411873454
1.66,1,0.912490888560692,-0.2405096261345155,-1.5263413620601622,0.0202446806226427,-1.3788364055475422,0.0432244220487848,1.6579456218886068,-0.3671360607696947,0.1795693637339224,-0.009162556988265118,0.13675232898801015,-0.028666267935964843,-22.586681462502394,3.5528034094255845,-2.658449864888249,-0.3410977383230172,-0.5544204944070596,-0.08550879446923382
1.67,1,0.9287319567418264,-0.2433900759434142,-1.5238557173726452,0.0201588977675711,-1.377164753271702,0.0435647668277734,1.7396209852811484,-0.3240298074192807,0.20206798405481008,0.06085908118658497,0.08502640122257654,-0.03726958094775988,-21.692012645079398,3.581306426165371,-2.52763397346052,-0.16818821426268202,-0.6244393044211227,-0.09761024880799485
1.68,1,0.947283308266315,-0.2469902222829011,-1.522300002379066,0.0214618622463744,-1.3771358775230906,0.0424790304298296,1.7380452945933378,-0.41239236848301525,0.2676292998224583,0.007572120074015101,0.06188093325519839,0.046567349276139744,-20.95468565616328,3.190213621092126,-2.3170592342340237,-0.2688315050740242,-0.6701527253836526,0.0537775656706474
1.69,1,0.9634928626336932,-0.2516379233130745,-1.518503131376196,0.0203103401690514,-1.375927134606598,0.0444961138132962,1.77226099693229,-0.3477130210132892,0.34098402445018605,-0.0011988377129198632,0.037178532298443034,0.05953242870294466,-20.203656374451302,3.2215821274452354,-2.0197662925786055,-0.31954695147443657,-0.6953826689673104,0.10996397527625615
1.7,1,0.9827285282049608,-0.2539444827031669,-1.5154803218900623,0.021437885492116,-1.3763923068771218,0.0436696790038885,1.7651435252556802,-0.30351976555439975,0.2703901495672234,0.09289049880025993,0.17527676088570088,-0.01493141648176502,-19.45558216663042,3.2734323151686704,-2.105566695201999,-0.05613497711487209,-0.42848965720327037,-0.05136023723427873
1.71,1,0.9987957331388068,-0.2577083186241625,-1.5130953283848516,0.0221681501450566,-1.372421599388884,0.0441974854836609,1.8016182976564543,-0.3468140399122466,0.23550148804646343,0.00883632975165003,0.24517928359523156,-0.005132882170414896,-18.70346965207426,3.011815234860283,-2.1212385438475776,-0.24801378341288183,-0.20927046201945299,-0.023846071414992467
1.72,1,1.01876089415809,-0.2608807635014118,-1.510770292129133,0.021614612087149,-1.3714887212052171,0.0435670213604802,1.9915152257885815,-0.33063125720813047,0.23841093190765106,0.03310196056602998,0.09021004649132358,-0.0010562734351848846,-17.335172426906553,2.9493280122689054,-2.0442138465230517,-0.2011881578246219,-0.5005513725539323,-0.02514981579224293
1.73,1,1.0386260376545784,-0.2643209437683251,-1.5083271097466986,0.0228301893563772,-1.3706173984590575,0.0441763600149572,1.8720814208220693,-0.4215670488561446,0.2827944911923619,0.06039735541638995,0.028159676816652546,0.046811572198540014,-16.898868101946555,2.5561143279828977,-1.859959476838241,-0.10256023896801703,-0.6072256569800816,0.07972595529236189
1.74,1,1.0562025225745313,-0.2693121044785347,-1.5051144023052858,0.0228225591954768,-1.370925527668884,0.044503252804451,1.8157711938741494,-0.40553032317335036,0.332911928933477,0.10127656829234509,0.023601864699029917,0.06320433041012499,-16.3647393859922,2.4295338801739446,-1.63828465924307,-0.0005529608006392128,-0.6225038654118586,0.11741486355793883
1.75,1,1.0749414615320614,-0.2724315502317921,-1.501668871168029,0.0248557207222241,-1.370145361165077,0.0454404466231597,1.965805089485484,-0.3156645986864687,0.3182330837030123,0.033218252669720005,0.15042296484223394,0.047815314834579944,-15.16508014085699,2.5899504522705805,-1.5716158382015288,-0.11986971168851937,-0.3532583350493068,0.10069473968747925
1.76,1,1.095518624364241,-0.2756253964522641,-1.4987497406312256,0.0234869242488712,-1.3679170683720394,0.0454595591011426,1.9804537166947633,-0.31667721460504894,0.2597442782739545,-0.0714364909925701,0.12996501671407312,-0.040877850271705055,-14.298047745941968,2.475127986798321,-1.6302639356700688,-0.4157264826780671,-0.34960837544487866,-0.07640490335534728
1.77,1,1.1145505358659566,-0.2787650945238931,-1.49647398560255,0.0234269909023727,-1.3675460608307954,0.0446228896177256,2.02216651239594,-0.4000499563613896,0.28181586453507323,-0.029779011818849982,0.11450876686116551,-0.12941195783064996,-13.411632898769813,2.1151203290222833,-1.5068123191570038,-0.3130811184062294,-0.3731007243258144,-0.26602316072449206
1.78,1,1.1359619546121598,-0.2836263955794919,-1.493113423340524,0.0228913440124942,-1.365626893034816,0.0428713199445296,1.9644571330176275,-0.42184892915263505,0.3840544210394592,0.16382854910118003,0.14010845833011265,0.0463379779356652,-12.728304287056623,1.8795778737025897,-1.1503990600352632,0.15754661164688322,-0.2835179854683334,0.059203165710198236
1.79,1,1.1538396785263092,-0.2872020731069458,-1.4887928971817608,0.0267035618843963,-1.3647438916641932,0.0455496491764389,1.949925177749301,-0.3890284445794506,0.3285546607973977,0.09031041562896999,0.13482877397096305,0.05527950743249993,-12.056791196295624,1.852890613961256,-1.159532675877517,0.06905672476391059,-0.2764173267741743,0.11726116318250726
1.8,1,1.1749604581671458,-0.2914069644710809,-1.4865423301245762,0.0246975523250736,-1.3629303175553968,0.0439769100931796,1.9983856105574849,-0.4663695923518951,0.27462704530210047,-0.09533876872419005,0.12062401262264988,-0.05862708673360015,-11.066578712237613,1.4736959728991936,-1.2268347029002213,-0.445216475102057,-0.2685553672948737,-0.13414311139858248
1.81,1,1.193807390737459,-0.2965294649539837,-1.4833003562757188,0.0247967865099125,-1.3623314114117402,0.0443771074417669,2.0600491662298936,-0.37781944471372564,0.25864766272793993,0.09043503103653497,0.18611213613982658,0.043054110099605136,-10.12771074240786,1.560058898912104,-1.1695239438699012,0.02169887892072797,-0.12560099738738728,0.07522224249663763
1.82,1,1.2161614414917437,-0.2989633533653554,-1.4813693768700174,0.0265062529458043,-1.3592080748326003,0.0448379922951717,2.1551475817102705,-0.27376196487642057,0.3293104207733988,0.07880278704022504,0.17507974947177374,0.025989588468959893,-8.94825346579534,1.7870452440260096,-0.9349376665852116,0.035354929827248194,-0.08519903914069538,0.04800647203641914
1.83,1,1.2369103423716643,-0.3020047042515121,-1.4767141478602508,0.026372842250717,-1.3588298164223047,0.0448968992111461,1.98396238254126,-0.37546595493580526,0.28020676033911895,-0.047954317426429985,0.11182757384410325,0.018795377175055,-8.631853028105546,1.3754859928323708,-0.9180399473779144,-0.28487309871657185,-0.20413822219012445,0.034501653188225324
1.84,1,1.2558406891425689,-0.3064726724640715,-1.475765241663235,0.0255471665972757,-1.3569715233557182,0.0452138998386728,2.10301245471316,-0.46692629755231974,0.2132687056381477,0.0032113966664450155,0.10304108402240386,-0.015489698916225023,-7.517488940753663,0.9447260775432484,-1.056917898219868,-0.17760070482041684,-0.18454534050179383,-0.02931348958143419
1.85,1,1.2789705914659275,-0.3113432302025585,-1.4724487737474878,0.0264370701840459,-1.3567689947418566,0.0445871052328216,2.1912022441252788,-0.4497744766283951,0.3893676298804438,0.03228960650061494,0.08826165091612159,-0.03276382352638482,-6.327723479582961,0.8257120194679777,-0.5171765501417136,-0.08265759056573706,-0.2100536344371262,-0.07326365788952183
1.86,1,1.2996647340250744,-0.3154681619966394,-1.467977889065626,0.026192958727288,-1.3552062903373958,0.0445586233681451,2.008680809273067,-0.40426948350990033,0.35895969865544775,0.03970114596046504,0.19907467783770727,-0.003957634546514904,-6.047522081773719,0.8178543860306302,-0.45906983774835153,-0.07023152833505932,0.04282650749526162,-0.0160785078999294
1.87,1,1.3191442076513888,-0.3194286198727565,-1.4652695797743789,0.0272310931032552,-1.3527875011851025,0.0445079525418913,2.057806408029783,-0.4838269936295436,0.26408879914234795,0.07288220581745004,0.07735876588454982,0.06395801882736474,-5.120966340450995,0.44056583000760186,-0.6149978077936846,0.03867448070658322,-0.15222953336518685,0.11899273645402282
1.88,1,1.34082086218567,-0.3251447018692303,-1.4626961130827791,0.027650602843637,-1.3536591150197048,0.0458377837446924,2.1542194560601358,-0.3436408416299497,0.3308166180763905,0.05484598642789499,0.04641608964619515,0.008285825242190098,-3.9646610149886863,0.6610614161298014,-0.37097425971058584,0.004071675742240571,-0.2315471625339427,0.027595817325690025
1.89,1,1.3622285967725916,-0.3263014367053555,-1.458653247412851,0.0283280128318131,-1.3518591793921786,0.0446736690467351,2.224284320641623,-0.42175979290444976,0.27326691758962074,0.029405918686339905,0.15873589004311572,-0.02633434499783975,-2.8981570377673656,0.38621884304191867,-0.39356254082966835,-0.04259324390724463,0.029091150810423017,-0.05910624362372913
1.9,1,1.3853065485985026,-0.3335798977273193,-1.4572307747309867,0.0282387212173638,-1.3504843972188425,0.0453110968447356,2.1755865286234632,-0.48680479708471946,0.3647240656986517,0.08513101578524994,0.14062702994126486,0.04569710693068489,-2.1211323407854055,-0.06366230526762284,-0.12224549010116048,0.09448720847879791,0.020369074073443016,0.0945180772033277
1.91,1,1.4057403273450608,-0.3360375326470499,-1.451358766098878,0.0300306331475181,-1.3490466387933533,0.0455876111853488,2.0928987528450294,-0.33869699612459614,0.44197494201035914,0.07049194933408508,0.128640618913467,0.038031952648514764,-1.5518445182583758,0.29464387542217585,0.24704195964136866,0.10268734060474327,0.02515142052763153,0.08333548374818536
1.92,1,1.4271645236554031,-0.3403538376498112,-1.4483912758907795,0.0296485602040455,-1.3479115848405732,0.0460717358977059,2.035813479735493,-0.46192713719847567,0.22904531365396386,-0.018691782032004972,0.11051892688602738,-0.10388634532849488,-0.8661324851732921,-0.22611722289610858,-0.19625740500666455,-0.12982381139729682,0.011609115528354863,-0.19323924152047742
1.93,1,1.4464565969397707,-0.3452760753910194,-1.4467778598257988,0.029656797506878,-1.3468362602556327,0.0435098842787789,2.1150499478350904,-0.4311563381650091,0.4030654609153528,0.11602585625142998,0.11202668812024807,-0.07623528930601996,0.1432598505002014,-0.3060831467379961,0.2871954450962311,0.20717621688210303,0.036131129695604614,-0.17636490375943253
1.94,1,1.469465522612105,-0.3489769644131114,-1.4403299666724725,0.0319690773290741,-1.3456710510781682,0.0445470301115855,2.2324010707538977,-0.44058718158832555,0.3738370231718413,0.014657594342405017,0.13779819008349348,-0.00014372193233511132,1.4156702461499933,-0.46390679278116465,0.40756114533724075,0.011562557664443127,0.11097831717138629,-0.008624581519963877
1.95,1,1.4911046183548486,-0.3540878190227859,-1.439301119362362,0.0299499493937261,-1.3440802964539629,0.0435070098401322,2.1901494175147085,-0.3760670665336502,0.23661740426796918,-0.017959759596709868,0.0910279181377649,0.05707459054041519,2.1544791161421735,-0.44922635895574725,0.09537751738087685,-0.12045902556704408,0.04925286576403565,0.09021173935373723
1.96,1,1.5132685109623991,-0.3564983057437844,-1.435597618587113,0.0316098821371399,-1.343850492715413,0.0456885219223938,2.1995750776763967,-0.3100003354859493,0.3330913913293987,0.02600030146772004,0.12082064757614752,0.08968880145262502,3.069311800929258,-0.33539320104759107,0.4476675082919157,0.030939445679375746,0.11343439941180034,0.18816284241208095
1.97,1,1.5350961199083766,-0.3602878257325049,-1.432639291535774,0.0304699554230805,-1.34166388350244,0.0453007858691847,2.2474044419770967,-0.4340990568384495,0.3797740064444999,0.06832196728555479,0.17751725814270092,-0.0006323077136501098,4.085904251670456,-0.8403225647103096,0.6531238576198428,0.10824544237247757,0.2705598048043667,0.0017045832813941328
1.98,1,1.558216599801941,-0.3651802868805534,-1.428002138458223,0.032976321482851,-1.3403001475525589,0.0456758757681208,2.308894710815046,-0.36395550990672987,0.27612833299803796,0.06224789213221983,0.20981848299871375,-0.05818413408462987,5.195194253926882,-0.8011280640968472,0.5331242663302138,0.15571940598340261,0.36243697351401316,-0.10777272097652388
1.99,1,1.5812740141246775,-0.3675669359306395,-1.4271167248758132,0.0317149132657249,-1.3374675138424656,0.0441371031874921,2.106463266730463,-0.4371998769337554,0.2809427721240265,-0.005783973326459885,0.1141211847035084,-0.05821185669371495,5.5101964945825905,-1.104393881930938,0.5717227716174822,-0.04589546309144918,0.22769505112546717,-0.13090975490412451
2.0,1,1.6003458651365503,-0.3739242844192285,-1.4223832830157426,0.0328606420163218,-1.3380177238584887,0.0445116386342465,2.075894678062673,-0.5461399759480096,0.4826458998207439,0.09606240926472026,0.10523535205771983,0.02877342908934981,6.1813647690541345,-1.6537213760743152,1.2179838466613946,0.23736371215142377,0.1989191855134287,0.048678848363321
2.01,1,1.622791907685931,-0.3784897354495997,-1.4174638068793983,0.0336361614510193,-1.3353628068013113,0.0447125717692791,2.24050852259311,-0.43205785846464617,0.19540493321483776,-0.013014221961145031,0.08069177846801168,-0.0648108175443602,7.57304800462067,-1.471265809687217,0.6474657142369566,-0.015939880045801914,0.20293037947756165,-0.13547564787861008
2.02,1,1.6451560355884125,-0.3825654415885214,-1.4184751843514458,0.0326003575770989,-1.3364038882891285,0.0432154222833593,2.1685254236260776,-0.3256962075062514,0.22775182733749677,0.08594938933807472,0.11047028544521886,0.05941968899102999,8.251663823818836,-1.294830571674293,0.6979916253821794,0.2055740513542374,0.24166576367563142,0.09052812290337331
2.03,1,1.6661624161584525,-0.3850036595997247,-1.4129087703326484,0.0353551492377808,-1.3331534010924069,0.0459009655490997,2.1562162177019117,-0.3674658797838598,0.47641521173914514,0.07754268014458499,0.23451640336512591,0.126800091293075,9.054991428847938,-1.5054772188992342,1.4866425069502232,0.2534270698875605,0.5547677434498777,0.26557207649356934
2.04,1,1.6882803599424507,-0.3899147591841986,-1.408946880116663,0.0341512111799906,-1.331713560221826,0.0457514241092208,2.2125260338856534,-0.5276739792464735,0.2787272791481388,-0.010019921643879964,0.12725107168678473,-0.06480138427178497,10.108638628759092,-2.157990002743661,1.1112793819522715,0.004422113971643167,0.3690338975048135,-0.11987399623433412
2.05,1,1.7104129368361656,-0.3955571391846542,-1.4073342247496856,0.0351547508049032,-1.3306083796586712,0.044604937863664,2.220880248328738,-0.4180807497430994,0.32304135170856396,0.13531494192642496,0.16198340743708295,-0.06447660552707478,11.01900434783694,-2.026693614249484,1.2704442243626535,0.39284776352022044,0.46060218026850563,-0.13642173242826572
2.06,1,1.7326979649090255,-0.3982763741790606,-1.4024860530824916,0.0368575100185191,-1.3284738920730843,0.0444618919986793,2.2730441472262664,-0.39336563316111073,0.42439968739574896,0.041538824733215046,0.09813920939265586,-0.04038625095822493,12.066897167443923,-2.0477214893077424,1.6692852135964353,0.2009764508775932,0.37560353589138895,-0.09038671126533646
2.07,1,1.755873819780691,-0.4034244518478764,-1.3988462310017706,0.0359855272995675,-1.328645595470818,0.0437972128444995,2.1612860516636356,-0.5110296567261863,0.3415208434982775,0.04070546167692507,0.039560506004832074,0.06076428834416482,12.658657075622646,-2.5808962784115224,1.5712827662743867,0.17709347526307823,0.25501206116106623,0.101944180026746
2.08,1,1.7759236859422982,-0.4084969673135843,-1.395655636212526,0.0376716192520576,-1.3276826819529877,0.0456771777655626,2.0582837907862306,-0.42108948564491544,0.31350773075858873,0.037461183062620015,0.22354921652691928,0.06172129774691011,13.151644939454723,-2.488613806467487,1.5969678281025013,0.21113507753956814,0.6422477525618486,0.13205767264818308
2.09,1,1.7970394955964155,-0.4118462415607747,-1.3925760763865989,0.0367347509608199,-1.3241746111402797,0.0450316387994377,2.207089126226325,-0.34311839734149363,0.31670900471382213,-0.04372825546766004,0.16182544480254357,-0.014341833843455054,14.442693331939697,-2.3719251402088855,1.6973578077684015,-0.015260226067074542,0.5889616253672569,-0.029751675024420714
2.1,1,1.8200654684668247,-0.4153593352604142,-1.3893214561182496,0.0367970541427044,-1.3244461730569368,0.0453903410886935,2.142918739973765,-0.3575083440082394,0.3175310278051846,0.06938489045765495,0.11987782855857887,0.08813984736201486,15.171221087998386,-2.5380532596965044,1.7970514735472842,0.26908021829332546,0.49963515454618523,0.18059222172535605
2.11,1,1.8398978703958908,-0.4189964084409395,-1.3862254558304952,0.038122448769973,-1.321777054569108,0.046794435746678,2.078681443609909,-0.4000392281940962,0.2596515907193231,0.0621574750148849,0.10416942893947123,0.07957102786189003,15.771805276069461,-2.7929434735724605,1.7452328894652647,0.2841465453681153,0.5216007250645438,0.1845160025948739
2.12,1,1.8616390973390229,-0.4233601198242961,-1.3841284243038632,0.0380402036430021,-1.3223627844781474,0.0469817616459313,2.1810486443322064,-0.4485518967989599,0.3437970325257833,-0.07917579914525977,-0.02736467453803293,-0.024689919497139848,16.948555955961638,-3.0912113778045334,2.018507439780375,-0.07124276820651887,0.24681791992875013,-0.02119600363438636
2.13,1,1.883518843282535,-0.4279674463769187,-1.3793495151799795,0.0365389327870678,-1.3223243480598688,0.0463006373567352,2.1369130081279053,-0.41342152362171813,0.28780112203682373,0.03919112252540498,0.24052212824384744,-0.03092112196676003,17.691338885089216,-3.1470766876145984,2.0218849372744865,0.1871427645717856,0.783360253858083,-0.04387527291156816
2.14,1,1.904377357501581,-0.4316285502967305,-1.3783724018631267,0.0388240260935102,-1.3175523419132704,0.0463633392065961,2.097833101123092,-0.41547754306053564,0.24742161765668458,0.04280501562881969,0.2253607793568424,0.0059505634848099065,18.40843973283662,-3.281383383124463,1.9502495758297222,0.25330482999138226,0.8484776790160398,0.03080862573948514
2.15,1,1.9254755053049968,-0.4362769972381294,-1.3744010828268458,0.0373950330996442,-1.317817132472732,0.0464196486264314,2.0224679166820025,-0.4432238026271351,0.32221970969668057,-0.00035196832419981394,0.04040559576091729,-0.12314963291234493,19.026270091649984,-3.527317804773224,2.256384377018139,0.10968754526218347,0.4732715006349597,-0.226547125757295
2.16,1,1.944826715835221,-0.4404930263492732,-1.371928007669193,0.0388169867270262,-1.316744229998052,0.0439003465483492,2.099994305483166,-0.348831065078789,0.31911500191551534,0.025160035714260134,0.0699782954745709,0.020642573376110016,20.03289767926244,-3.391700611018218,2.3228148622948073,0.20901639604288344,0.5538749495558637,0.023247755648381878
2.17,1,1.96747539141466,-0.4432536185397052,-1.3680187827885355,0.0378982338139294,-1.3164175665632405,0.0468325000939536,2.0140647295102676,-0.3844747220507011,0.3097561832637985,0.11745114259973481,0.09206280462196181,0.11228798197779992,20.68105597452131,-3.5952523085990746,2.416694562085243,0.4167753404291501,0.6045772365468771,0.25052087603582773
2.18,1,1.9851080104254264,-0.4481825207902872,-1.3657328840039171,0.0411660095790209,-1.3149029739056128,0.0461461061879052,2.049529715485998,-0.3480787140337671,0.31060512553153785,0.16458369573525006,0.10164184470116133,0.0018323415418148442,21.492755692879154,-3.658575863318643,2.487393881293143,0.6163011173952256,0.6540271698578293,0.01931368657313151
2.19,1,2.00846598572438,-0.4502151928203805,-1.3618066802779047,0.0411899077286344,-1.3143847296692173,0.0468691469247899,2.1240288202552304,-0.4015926766296446,0.35666545701729113,-0.06367017308618987,0.16146347086737345,0.02824597026608519,22.650572019144995,-3.8902612721595418,2.7203308217878974,0.04626389908196343,0.7840353069181649,0.08298655507494271
2.2,1,2.027588586830531,-0.4562143743228801,-1.3585995748635713,0.0398926061172971,-1.3116737044882654,0.0467110255932269,2.0076666203986626,-0.5385700305578084,0.30712948135134255,0.05527858538144012,0.10389374577264299,-0.09520853541594501,23.06638946382133,-4.511164686531519,2.6927040450530293,0.3112032549676059,0.723116360347742,-0.16629427626256266
2.21,1,2.0486193181323533,-0.4609865934315367,-1.355664090650878,0.0422954794362632,-1.3123068547537644,0.044964976216471,2.0737748728227867,-0.3495516684146299,0.3200348023054689,0.18830392079205518,0.13046956852701408,-0.009910257506715037,24.105943473166597,-4.1111372689049634,2.8130318738191473,0.7038384264682961,0.7636050005465034,-0.02188846109544125
2.22,1,2.0690640842869867,-0.4632054076911727,-1.352198878817462,0.0436586845331382,-1.309064313117725,0.0465128204430926,2.089868575650944,-0.3223415329910301,0.26897378989796383,0.024913639511894847,0.22002718636302543,0.027478569001024994,24.972015227836405,-4.1071653617214245,2.789335697802864,0.3294428506897703,1.0075710689393125,0.07610685531936286
2.23,1,2.090416689645372,-0.4674334240913573,-1.3502846148529186,0.0427937522265011,-1.307906311026504,0.0455145475964915,1.8823558581991806,-0.2897330574896245,0.29185611105537745,-0.07482754840113515,0.13732829551615922,-0.029936424965965047,25.203581289816533,-4.157320509223669,2.903969419632697,0.05846657324126772,0.8653333290700038,-0.05369722531363377
2.24,1,2.1067112014509703,-0.4690000688409652,-1.3463617565963544,0.0421621335651155,-1.306317747207402,0.0459140919437733,1.8168766002802705,-0.34112167331450394,0.27108958906226777,0.034601546092490054,0.18095527660072497,0.04681987883534029,25.65892398828373,-4.366318922934583,2.9697388623468504,0.3162488429406908,0.9843585676211752,0.10580854749820394
2.25,1,2.1267542216509776,-0.4742558575576474,-1.3448628230716733,0.0434857831483509,-1.3042872054944894,0.0464509451731983,1.9546358132132902,-0.49400791096204655,0.2574435305341738,0.05835929941643003,0.058981810018654546,0.04820446478044499,26.873922435083077,-5.008930240961087,2.9805917217670483,0.4087344658314257,0.7810224687152845,0.1166305178297884
2.26,1,2.145803917715236,-0.4788802270602061,-1.341212885985671,0.0433293195534441,-1.3051381110070288,0.0468781812393822,1.8405158834503332,-0.35399087551826747,0.32626903874551916,0.03814297244288979,-0.018463219554687438,0.041054563063414734,27.29355048836455,-4.750732067219306,3.2621536048754827,0.35428205852490513,0.6091142993178122,0.10873925538848632
2.27,1,2.1635645393199843,-0.4813356750680127,-1.3383374422967629,0.0442486425972087,-1.3046564698855831,0.0472720364344666,1.9542781140425625,-0.2989112895144891,0.2350305078687609,0.08391988355720484,0.14703506030515623,-0.10664066777026013,28.34526204433116,-4.671433989481202,3.120320588350828,0.4917074124048076,0.9497436814664129,-0.18074337835259743
2.28,1,2.1848894799960874,-0.4848584528504959,-1.3365122758282957,0.0450077172245882,-1.3021974098009257,0.044745367883977,1.9357965936682264,-0.38032108658784813,0.3206997435749037,0.027514800688700075,0.17343115765371397,0.009670061400139998,29.14281511025228,-5.03896060308819,3.3892486716702006,0.3696715709180332,1.0517170778566776,0.01397805173085881
2.29,1,2.202280471193349,-0.4889420967997697,-1.3319234474252648,0.0447989386109827,-1.3011878467325089,0.0474654376624694,1.837425271368276,-0.5211619044230204,0.328661155903065,-0.007580445722995058,0.016059295887338454,0.07745554821552529,29.543340791242883,-5.60441059481829,3.5468170545815303,0.2767139895486579,0.7571646156922629,0.1903500720390154
2.3000000000000003,1,2.221637985423453,-0.4952816909389563,-1.3299390527102344,0.0448561083101283,-1.301876223883179,0.0462944788482875,1.870222011470113,-0.4129609607617657,0.2632836905210434,-0.012373259066509809,0.06673430705972372,0.003425483569269999,30.41603158075256,-5.501693558706057,3.442905232577389,0.26616119866851096,0.8447470950236324,0.0247255605337764
2.31,1,2.239684911422751,-0.497201316015005,-1.326657773614844,0.0445514734296525,-1.2998531605913144,0.0475339473338548,1.7132593156969023,-0.19970638752150605,0.20142657656113672,0.12329282364371523,0.21005163267006077,-0.008855679684924983,30.667020533404852,-4.929116716646983,3.3867008205393354,0.5977105334321787,1.171843012081597,0.018755261308895863
2.32,1,2.255903171737391,-0.4992758186893864,-1.3259105211790116,0.0473219647830026,-1.2976751912297777,0.046117365254589,1.7361847466166536,-0.3542858211783212,0.302402793715828,0.06018939810315989,0.12622920336370358,-0.0827437755004698,31.3845272387497,-5.465462611220778,3.6615589365010326,0.5092142534145429,1.0477575406996165,-0.15026966151118068
2.33,1,2.274408606355084,-0.5042870324385714,-1.3206097177405274,0.0457552613917157,-1.2973285765240403,0.0458790718238454,1.7384202478658572,-0.3251296498402778,0.3544658687973934,-0.018951381942040185,0.07760940473935385,0.03348205531231996,32.13145112720504,-5.553386578428123,3.950740727359474,0.27219471851937016,0.9574502375656646,0.0786075986532448
2.34,1,2.290671576694708,-0.505778411686192,-1.3188212038030638,0.0469429371441618,-1.2961230031349906,0.0467870063608354,1.6706268971849347,-0.17144470961729108,0.13772141250025793,0.10251757091333004,0.1713169840406592,-0.012650322344370107,32.57858988874723,-5.144530031425882,3.4625350047405434,0.6055589944689481,1.1689768639492693,-3.8138605285321925e-05
2.35,1,2.307821144298783,-0.5077159266309172,-1.3178552894905222,0.0478056128099823,-1.2939022368432271,0.045626065376958,1.8099824010487042,-0.3119916007338963,0.28493511762220924,0.005628601679935272,0.09203543184760354,-0.028498016260225176,33.682639104501526,-5.633983727841082,3.8595466969216687,0.3849034630309738,1.0548290853984277,-0.049147641195156494
2.36,1,2.326871224715682,-0.5120182437008699,-1.3131225014506196,0.0470555091777605,-1.2942822944980386,0.0462170460356309,1.6954985286652624,-0.35602989446464894,0.3259633786871663,-0.062473527133465045,0.07578636359150126,0.08035810031226491,34.101190704027175,-5.916679706481682,4.10410099078114,0.19589555019192803,1.0147297957899948,0.17742930182991717
2.37,1,2.341731114872088,-0.5148365245202102,-1.311336021916779,0.046556142267313,-1.2923865095713971,0.0472332273832033,1.563747945515348,-0.32544293842231564,0.19127319171716728,-0.009982757957500282,0.06943445922675817,-0.05929030950992502,34.30033456083367,-5.923558667031594,3.8209699093713634,0.3146383003706524,1.0399416855933374,-0.08662479760087671
2.38,1,2.358146183625989,-0.5185271024693162,-1.3092970376162762,0.0468558540186105,-1.2928936053135034,0.0450312398454324,1.597506472077903,-0.37387215707745947,0.21411193800981998,-0.057969015298919846,0.0057484996727308335,0.011595419266354975,35.05821289067738,-6.198016551215735,3.9392363041180745,0.2021654507995409,0.9024278516431572,0.022116846885119786
2.39,1,2.373681244313646,-0.5223139676617594,-1.3070537831565825,0.0453967619613346,-1.2922715395779425,0.0474651357685304,1.5179006387118665,-0.3203494964581777,0.1880407817823504,0.1339756681536252,0.1260204734704118,0.08684660743444525,35.44079781808555,-6.169988851093402,3.9413560473402134,0.6455498579990061,1.155413113949737,0.20912766206777034
2.4,1,2.3885041964002265,-0.5249340923984798,-1.3055362219806292,0.049535367381683,-1.2903731958440952,0.0467681719941213,1.6373888864208874,-0.22811664112287744,0.23832746352768774,0.13317585759397982,0.13289150788606818,-0.02387922766991478,36.392180644675825,-5.984994650872714,4.112599586982154,0.7470154671086027,1.2071220574579966,-0.02277846475708615
2.41,1,2.406429022042064,-0.526876300484217,-1.3022872338860287,0.0480602791132142,-1.2896137094202211,0.0469875512151321,1.5409803459285332,-0.3251869319868539,0.3527416779474657,-0.03823954284382994,0.19751599649888707,-0.005971161707125222,36.819948048872256,-6.3441828064654455,4.496104765869614,0.28159975930235825,1.3515607631611148,0.016328355483654945
2.42,1,2.419323803318797,-0.5314378310382168,-1.29848138842168,0.0487705765248064,-1.2864228759141174,0.0466487487599788,1.4628807611704042,-0.336982264826835,0.27890982358401706,0.023200110997699877,0.0660408781878008,0.00048069750279503,37.101440545667195,-6.539222374375385,4.425700493891457,0.45295632919598783,1.1524271966610167,0.024150037076195903
2.43,1,2.435686637265472,-0.5336159457807537,-1.2967090374143484,0.0485242813331682,-1.2882928918564651,0.046997165165188,1.5036663112369286,-0.2615230024100579,0.0987794725916924,-0.0260300864841901,-0.07534976173116936,-0.07847054487157001,37.87831055373377,-6.389078603113841,4.0285451466305915,0.32372345570030775,0.8322455979761223,-0.12852620159439612
2.44,1,2.4493971295435357,-0.536668291086418,-1.296505798969846,0.0482499747951226,-1.2879298711487408,0.0450793378625474,1.3519074726765945,-0.24107103508517747,0.1716762333998645,-0.039274723141915005,0.11433544782757377,-0.024601531292670065,37.971453729175316,-6.434554786837452,4.21688420198609,0.2837542006048556,1.2188764312480949,-0.04955558397620529
2.45,1,2.462724786719004,-0.5384373664824572,-1.293275512746351,0.0477387868703299,-1.2860061828999136,0.0465051345393346,1.442071783000043,-0.33387874788531335,0.24865828422941938,0.1609128580125501,0.16543659111393216,0.10421040572160499,38.77505294716439,-6.774895564099232,4.506247915764828,0.7714434553712007,1.3595524827973549,0.22945524020415287
2.46,1,2.4782385652035366,-0.5433458660441243,-1.2915326332852577,0.0514682319553736,-1.2846211393264622,0.0471635459769795,1.3623497861344092,-0.29714237734477233,0.2393352100261592,0.08982169752703023,0.12827276445216418,-0.050357757962839894,39.15643809594879,-6.836483937135956,4.5352266140894795,0.6869516812834937,1.3129257009428486,-0.06980491560006345
2.47,1,2.489971782441692,-0.5443802140293527,-1.288488808545828,0.0495352208208705,-1.2834407276108704,0.0454979793800778,1.2530567914051938,-0.18491622748795233,0.19017267547728478,-0.04953044787406498,0.03292483652039824,-0.06895100010429998,39.29788780128737,-6.53600766704849,4.503635019900186,0.29024603941817817,1.1458380793911527,-0.13197489883650906
2.48,1,2.5032997010316405,-0.5470441905938833,-1.287729179775712,0.0504776229978923,-1.2839626425960542,0.0457845259748935,1.2775165822871415,-0.3126503889022192,0.17532443622721994,0.010402300540669762,0.07054344402872559,0.010688846592164791,39.90438391753114,-7.012449331049863,4.489303284878502,0.4636379648805601,1.2106369947041307,0.03160299347865592
2.49,1,2.515522114087435,-0.550633221807397,-1.2849823198212835,0.0497432668316839,-1.2820298587302958,0.0457117563119211,1.2263994213824958,-0.2788720602871664,0.2749923131378451,0.04003242082348986,0.09376654669729367,0.0707961607312551,40.23992895704899,-7.036730437677686,4.82087877578792,0.5193543614324001,1.2957388773564338,0.15072607681225053
2.5,1,2.5278276894592904,-0.5526216317996266,-1.282229333512955,0.0512782714143621,-1.2820873116621083,0.0472004491895186,1.1561679721104667,-0.19122005475849524,0.258429138327676,0.07995008187937011,0.045776083469495354,0.0776831399506999,40.521457624107114,-6.843368770819708,4.86206042801235,0.6575236286390559,1.1986088922645877,0.18683042841510267
2.51,1,2.538645473529644,-0.554457622902567,-1.27981373705473,0.0513422684692713,-1.281114337060906,0.0472654191109351,1.2634964138984905,-0.29105788875530836,0.04917194506589562,0.018115696066199963,0.04994873205729222,0.037642695637764984,41.27615431228534,-7.207141961413058,4.411385338604651,0.5045375904788605,1.226413681464229,0.10772408861048029
2.52,1,2.55309761773726,-0.5584427895747328,-1.2812458946116372,0.0516405853356861,-1.2810883370209625,0.0479533031022739,1.2447348193735275,-0.3072929538389335,0.0329251198890379,-0.10304588110450486,0.05673582298253432,-0.030040475241219916,41.797955297015086,-7.395327990189739,4.327803548955291,0.20909156921246846,1.2405078641135825,-0.017323993277407468
2.53,1,2.5635401699171148,-0.5606034819793456,-1.2791552346569492,0.0492813508471812,-1.2799796206012553,0.0466646096061107,1.075613383638907,-0.08411217399280635,0.2960993731410344,0.005447018783575133,0.005965899621762638,-0.028277852852934965,41.708293077005415,-6.801409884812806,5.048458980725921,0.421342956720046,1.1611423457861836,-0.033129150943285585
2.54,1,2.5746098854100383,-0.5601250330545889,-1.2753239071488165,0.0517495257113576,-1.2809690190285272,0.0473877460452152,1.1377276232620082,-0.11398484943357934,0.26351877933936674,0.09055788987957503,0.16377535370691865,-0.03166719989732003,42.33742441559166,-6.87428219876864,5.081947321465734,0.6958245060644557,1.4569732854110562,-0.029060798445488187
2.5500000000000003,1,2.586294722382355,-0.5628831789680172,-1.273884859070162,0.0510925086447727,-1.2767041135271169,0.0460312656081643,1.1173766338796964,-0.326124071920153,0.06743123373106341,0.09435093065053475,0.14565842580726018,0.011630141410974917,42.74376492633739,-7.60723497319835,4.634899899804613,0.6888816813272325,1.5060375396399461,0.03718667761533817
2.56,1,2.5969574180876323,-0.566647514492992,-1.2739752824741952,0.0536365443243683,-1.278055850512382,0.0476203488734347,1.0186125030815063,-0.2170187111649513,0.1719397514775456,0.06059613345757997,-0.103466418389353,0.008670090094770044,42.87398036215391,-7.411670634306864,4.893458492049819,0.6680955803347355,0.980753111541417,0.05510282396198444
2.57,1,2.606666972443985,-0.5672235531913162,-1.270446064040611,0.0523044313139243,-1.278773441894904,0.0462046674100597,0.9901536288794421,-0.10156218031929232,0.12240124982189071,-0.07832852752307495,0.045862527684292775,-0.05080060823078984,43.176985913801836,-7.085462396211235,4.875488790918209,0.2874811026219982,1.2650591760382701,-0.08507379463976034
2.58,1,2.616760490665221,-0.5686787580993778,-1.2715272574777574,0.0520699737739068,-1.2771385999586962,0.0466043367088189,0.8946864731992576,-0.20878256258967665,0.053813391979562475,0.06277502248672982,0.1708432010790517,0.030419718730599968,43.29432517561072,-7.458055714804544,4.671583343197996,0.6343785391460726,1.5477173615519435,0.08336189876440733
2.59,1,2.62456070190797,-0.5713992044431098,-1.2693697962010198,0.0535599317636589,-1.275356577873323,0.0468130617846717,0.890179903647037,-0.19059834515944285,0.17278906335055355,-0.0003066781986499345,0.04017550845273332,-0.010078985056709983,43.59281391666403,-7.4987186845444604,5.033746359927603,0.5139232371764257,1.322022418006772,0.005495367327579374
2.6,1,2.634564088738162,-0.5724907250025667,-1.2680714762107463,0.0520638402099338,-1.2763350897896415,0.0464027570076847,0.9069195268253338,-0.13846680871681394,0.19860924076722242,-0.08544248884776,0.019590970319360856,-0.001621506974374895,44.04316825940658,-7.380527294797567,5.137246403177478,0.26368142171052306,1.2612831034136551,0.016255751837444612
2.61,1,2.642699092444477,-0.574168540617446,-1.2653976113856753,0.0518510819867037,-1.2749647584669357,0.0467806316451842,0.8960413918867927,-0.17314879844505526,0.10212759923373671,0.01177578135080487,0.0940931318142324,0.07414040846989989,44.33593400284356,-7.543296810503067,4.976258244095895,0.5014081416261827,1.4376940528575144,0.17344770228848666
2.62,1,2.6524849165758977,-0.5759537009714678,-1.2660289242260716,0.0522993558369499,-1.2744532271533568,0.0478855651770827,0.7846745620587292,-0.1520076065864573,0.14495083533534459,0.07873880537578523,0.07268647643732251,-0.0195884579477449,44.3932664786162,-7.542353847318035,5.064376949138024,0.6800225479447886,1.4051113683752714,0.002563972431674569
2.63,1,2.6583925836856515,-0.5772086927491752,-1.2624985946789684,0.0534258580942194,-1.2735110289381892,0.0463888624862293,0.777031845518561,-0.22375133107199185,0.08099842292104142,0.11173392609895999,0.0035129238532438656,-0.06333295224669987,44.606645013385844,-7.801509732994397,5.010405804515363,0.7906729061844632,1.2856082275104663,-0.10737555652903633
2.64,1,2.668025553486269,-0.5804287275929076,-1.2644089557676508,0.0545340343589291,-1.274382968676292,0.0466189061321487,0.8000465148842784,-0.22379773812797876,0.055378294016095175,-0.010287365076135091,0.038269761541953606,0.05179545228187997,45.06100781350769,-7.914350173692994,4.889044649592526,0.5133240848644678,1.3376831081258311,0.12633190721691434
2.65,1,2.674393513983337,-0.5816846475117348,-1.2613910287986465,0.0532201107926967,-1.2727456337073502,0.0474247715318669,0.7501260728211889,-0.059693927071718944,0.2810410075908987,-0.07349159736048001,0.08438782987013616,0.07061231984028978,45.16596490720115,-7.4659959376831635,5.543739242599663,0.32246541499779563,1.4626659441610323,0.17605362332950694
2.66,1,2.6830280749426927,-0.581622606134342,-1.2587881356158328,0.0530642024117195,-1.2726952120788892,0.0480311525289545,0.8138122808123427,-0.1350298680095896,0.09893407373987584,0.10468193074482483,0.04751892863080753,-0.009971395717665171,45.702405969548835,-7.689832312288029,5.166558703456517,0.7640015257366276,1.3899365742515934,0.023981907169911
2.67,1,2.690669759599584,-0.5843852448719266,-1.259412347323849,0.0553137494075932,-1.271795255134734,0.0472253436175136,0.6421357805583172,-0.15540921693540932,0.04382275591647833,0.04852683460447524,0.04043274819600651,-0.044797447499939774,45.49304385506241,-7.847662714880947,5.0100540576575385,0.6798524602825962,1.393763352265096,-0.05775733006625171
2.68,1,2.695870790553859,-0.5847307904730502,-1.2579116804975032,0.054034739103809,-1.2718865571149691,0.0471352035789557,0.5486678195137484,-0.03679229446691967,0.2360345606012948,-0.12446553657434987,0.02993212201894968,-0.04055141365756493,45.42068121009971,-7.503906043514807,5.535603574159952,0.21539627474092843,1.3709360603062803,-0.050617362959870446
2.69,1,2.701643115989859,-0.585121090761265,-1.254691656111823,0.0528244386761062,-1.271196612694355,0.0464143153443623,0.6362584625250411,-0.09712959834503043,0.11112250732284723,0.0740121795318599,0.04630762651199882,0.047046426646119716,45.91434615657358,-7.698578465236655,5.319924172534237,0.6813330543138829,1.4174859577046606,0.1137649941285978
2.7,1,2.70859595980436,-0.5866733824399508,-1.2556892303510463,0.0555149826944462,-1.2709604045847291,0.0480761321118781,0.49737498098809674,-0.06366240741013662,-0.025071333086790215,0.13566168476952487,-0.033198208868612245,-0.0020553572995948843,45.77580946454278,-7.652507101185979,4.9495123443334474,0.9027204178665453,1.263198449135956,0.040488677749905555
2.71,1,2.711590615609621,-0.5863943389094677,-1.255193082773559,0.0555376723714967,-1.2718605768717273,0.0463732081983704,0.5201753596538294,-0.10662766628075637,0.060157540646654795,0.006521096382745145,-0.05311409934837252,-0.00593579461745479,45.963996832750425,-7.771636354230928,5.177468955991682,0.5804361888258585,1.205363222436473,0.007183944411570317
2.72,1,2.7189994669974364,-0.588805935765566,-1.2544860795381132,0.0556454046221011,-1.2720226865716966,0.047957416219529,0.6110251320712745,-0.17623992075203043,-0.004111483606938915,-0.015184941408559818,-0.0216396637423788,0.06545410409473477,46.53290020551538,-8.064879007608189,5.038006492421069,0.5288644006127061,1.265069899649074,0.17372686215332844
2.73,1,2.7238111182510463,-0.5899191373245083,-1.2552753124456977,0.0552339735433255,-1.2722933701465748,0.0476822902802651,0.40676106758124053,-0.0890684172396794,0.05436015702781072,0.013018373694824795,0.09788910254332484,-0.07191913078707021,46.11257406218967,-7.842326551634118,5.160508606780408,0.5890869114017776,1.4987137607229162,-0.10514649669924009
