alpha8332/-/indy12_pickplace_joint_angles.csv
time,joint angle0,joint angle1,joint angle2,joint angle3,joint angle4,joint angle5
0.0,0.43296591581643884,-0.14920755734111535,-1.5978451077878824,0.011020797556455669,-1.4092025993932138,0.04186363400766282
0.01,0.43281156179761726,-0.14857597372357187,-1.59851466177583,0.00945557873998485,-1.4067325804951636,0.04367875150843471
0.02,0.4327576226539916,-0.14731629647371264,-1.5980920211346934,0.009450125864255816,-1.4071782042349223,0.042163217073772366
0.03,0.4334665925036474,-0.14834356857643838,-1.5986613228453441,0.009605776873802315,-1.4064331314199199,0.04286514758732489
0.04,0.4323262134612678,-0.14860729449313786,-1.5980354726036743,0.010518910107751163,-1.4071398228498648,0.043375962249461594
0.05,0.4345689401026313,-0.1486546640082729,-1.5989470161095851,0.009489849326456874,-1.4069624565475762,0.04398521418358844
0.06,0.4326005620844823,-0.14903317483774758,-1.599219495591733,0.010767749311863497,-1.4068513883766658,0.043473991516409315
0.07,0.4321192332201914,-0.14809740102583496,-1.598398172422007,0.01039084180247437,-1.4067395349314087,0.043195123925946086
0.08,0.4332924638506025,-0.14824102613659923,-1.5982476957280738,0.010750902903497804,-1.408771608338554,0.042721034237535496
0.09,0.4322895224235623,-0.14885752609849515,-1.5987401069097629,0.011504582400256076,-1.4082555801867531,0.04384498226817072
0.1,0.43123141908015095,-0.14859224231944457,-1.5983579711573104,0.010711575491546832,-1.4068793377227458,0.043692326068291626
0.11,0.43239567996525047,-0.14870347805422474,-1.5977512747984681,0.010033055482875546,-1.4086132463282452,0.04201102033724428
0.12,0.43189762651471414,-0.14786614540522983,-1.5983757100982996,0.010802562143264069,-1.4078728482708216,0.04313835198021916
0.13,0.4332459306071789,-0.14856995578238846,-1.5981013884081523,0.00962236064620125,-1.4078168242492295,0.042666870843505
0.14,0.43165643304292944,-0.14787503634218432,-1.5989096308176551,0.010210903175446663,-1.4070804693967065,0.043389671961726245
0.15,0.4332806580472658,-0.14838594479850556,-1.5988693974631654,0.010130432737294205,-1.408972477072742,0.04173715613547707
0.16,0.4315457268374781,-0.1491702620298357,-1.5981511311739531,0.009409820458805947,-1.407830009083787,0.04413379057657241
0.17,0.4323891010349374,-0.14765639625227658,-1.5993147351235502,0.010020721910397674,-1.4083290506412376,0.04270413782761857
0.18,0.4334333071864966,-0.14980737143108241,-1.5981208938535807,0.01040746345049551,-1.4080184936488744,0.04173807646332983
0.19,0.43276294486987243,-0.14876206955692337,-1.5982969517010397,0.010219069594400451,-1.4061021842228754,0.042791122810870934
0.2,0.4318068299433921,-0.14814355249507044,-1.5983080166760613,0.01138611491700719,-1.406771227956918,0.04331142874936191
0.21,0.4339769726702867,-0.1493373914661999,-1.5990582885320581,0.009391409952635377,-1.407840173226081,0.04179861469792729
0.22,0.4332542737634535,-0.14849392588685176,-1.5997835206249065,0.009313740060927478,-1.4072264075555698,0.04373140340790983
0.23,0.43444247641681516,-0.14575717530089452,-1.5981383595469005,0.009336465086572456,-1.409360561370183,0.043233622323161434
0.24,0.4319905750631033,-0.1486624675881099,-1.5990341552242255,0.010077136773761637,-1.4065697567605793,0.04313705072937308
0.25,0.4325615649892655,-0.14920377839487228,-1.5999614365656043,0.009775616290409059,-1.407546934129595,0.04454280989682338
0.26,0.43281368596655806,-0.1474423979921604,-1.5989357176067613,0.009165941491252017,-1.4083422232583571,0.042367120867628505
0.27,0.4345574402430018,-0.1490167950992244,-1.5977682801326187,0.009412047391832011,-1.406687049185131,0.04333593309086402
0.28,0.4325633076476232,-0.14833557201462466,-1.5990714100593395,0.010589271430874092,-1.4078970479887065,0.04193045720454208
0.29,0.43158478908465864,-0.1481493886293294,-1.5971219829193093,0.010339619021621747,-1.4076035314704836,0.043249430361216465
0.3,0.4338397015214782,-0.14810855265149697,-1.5988586016582076,0.0111654190234093,-1.407125839422986,0.044340199928378086
0.31,0.432859902211628,-0.14936855080961148,-1.5996939441359144,0.011640706406528856,-1.4059958178984284,0.04284333993288143
0.32,0.43236560597971396,-0.14702464926329475,-1.5994660796060822,0.009419203380633356,-1.4069385914633188,0.04265564206804317
0.33,0.43269553032809427,-0.14844263083591278,-1.5982054106326262,0.011428259632101128,-1.4074209497560977,0.04356194260620001
0.34,0.4309108873302239,-0.1483425148259995,-1.5992358572284546,0.009136384956464955,-1.4082663325068543,0.04270842229258394
0.35000000000000003,0.4334992757495749,-0.14945749600495153,-1.5984732689799714,0.009777482462540694,-1.4077859487183406,0.04387507128258517
0.36,0.4331695943065763,-0.14713289998075915,-1.598634831640797,0.009592675501070897,-1.407695353670709,0.04321161837166021
0.37,0.432854089323816,-0.1492463071114913,-1.598421032768559,0.010399166790362626,-1.4053030894605778,0.04463785590075891
0.38,0.4319554047106,-0.14855078929372412,-1.5997770940672016,0.009684510884585653,-1.4072245826775789,0.044052305799079754
0.39,0.4320637543254149,-0.14887085045846912,-1.6003738631780446,0.010058047205285194,-1.4084271314753793,0.04253797694012943
0.4,0.43193479461696876,-0.14838225959665233,-1.6000339073892478,0.008919761509609953,-1.4056418813653262,0.04187651185461219
0.41000000000000003,0.4317428740233788,-0.14669699054281835,-1.5959648506452582,0.009177615246025375,-1.4078213578381493,0.04329806344711875
0.42,0.43420857328331736,-0.14916119526325922,-1.5987140452996944,0.010878355005087464,-1.4071205950262293,0.04267174190278342
0.43,0.43258321743272077,-0.14949982293639624,-1.598707845801208,0.009967533060661012,-1.4072973935501014,0.042515385580283255
0.44,0.4331114949884201,-0.14741623872960083,-1.5983643623239012,0.010506965374577798,-1.4074536132084863,0.043000073646865554
0.45,0.43207032182852306,-0.1480238066535066,-1.598584898573019,0.012026633939462036,-1.4061269888324706,0.04333671463747901
0.46,0.4320341069654873,-0.14927076214115334,-1.5974605316803336,0.010429291954294073,-1.4070809958364543,0.041477561522157265
0.47000000000000003,0.43350934275564434,-0.14790344344550665,-1.5994690335779103,0.009788516980258306,-1.407269863324491,0.04304578591896482
0.48,0.4324450325414136,-0.14839031055074686,-1.5987198917445127,0.01033313590756509,-1.40621588100773,0.04076016797158222
0.49,0.4324933091525043,-0.14814596385381915,-1.5982416965156923,0.009875443300988366,-1.4090330289572877,0.04328623005612413
0.5,0.4342073974286097,-0.1496385465892526,-1.5977461678495002,0.009913307659032826,-1.4075535155873171,0.04208117271494356
0.51,0.4324081319294386,-0.14716549706998738,-1.5979915373811655,0.011711727059245617,-1.4064725142942607,0.04338317541244841
0.52,0.43422186997104173,-0.14791690619931433,-1.5977774440073653,0.009941193019752012,-1.4074419278204915,0.04239138290007815
0.53,0.433563574894176,-0.14932826389057663,-1.5978172705310354,0.010033625566206296,-1.406477894093229,0.04365525680522403
0.54,0.434288813498236,-0.1476622787774693,-1.5998718639217522,0.010141572334413469,-1.4085227692183917,0.04254771551519956
0.55,0.4340187955955217,-0.1477436467953524,-1.5991099318610538,0.00931536471354846,-1.4074713922271807,0.04193835099223726
0.56,0.4321143196208341,-0.14802772037120115,-1.597491800054101,0.010731244602480225,-1.409499527302072,0.043265610077755166
0.5700000000000001,0.43276286115124424,-0.14793881258891137,-1.5970895909826288,0.008399484940829155,-1.40801583504947,0.04351566304517982
0.58,0.4313197985149213,-0.1470119914759895,-1.598178548214344,0.010938783897381224,-1.4079982423368473,0.043710142786154434
0.59,0.43363241733079577,-0.14809677558965403,-1.5982954466326398,0.01043591898179865,-1.4082534108725602,0.042871256939434194
0.6,0.43256689898126127,-0.14796542573675434,-1.5976274887475073,0.009276253005915808,-1.40760909095869,0.04429281385142924
0.61,0.43205109685640736,-0.1490175485038148,-1.5983234545427687,0.010936865086452417,-1.4074900288854975,0.044159736896618666
0.62,0.43344769380035303,-0.14756537340617046,-1.5980164421306131,0.012231260522264658,-1.407679037348483,0.04125159696831679
0.63,0.43409997603239764,-0.14869941810273504,-1.598405856552385,0.011342798558628143,-1.4088982352231485,0.04190773175202167
0.64,0.43130262138788666,-0.1489930146485258,-1.5981163446856355,0.010657440187800469,-1.4072589052966236,0.04176712918831151
0.65,0.4306840544484562,-0.14825256754873367,-1.5989117022559494,0.010600889712663496,-1.4068874299013063,0.0431206384076048
0.66,0.4333633412546576,-0.14809997534193356,-1.598037431281932,0.009585056570607453,-1.407656740527276,0.04317171953879432
0.67,0.43341604617512014,-0.14864360399279902,-1.5980451957716946,0.009968011890077629,-1.4076025748914902,0.04372389192456546
0.68,0.4309607267167042,-0.14943138553929503,-1.5997934507655178,0.008163535761551625,-1.408091897383995,0.0436540044538155
0.6900000000000001,0.43245139175275765,-0.14812739559211624,-1.5975494784206032,0.011358624722057007,-1.40756033422995,0.04418122652407611
0.7000000000000001,0.43278039567592674,-0.14903076780780708,-1.5990187121610442,0.008907988157987304,-1.4082750429973039,0.04268757150080078
0.71,0.43340126022039294,-0.14679834503885833,-1.5997061809151767,0.010542806635670456,-1.4084080458874986,0.04341425135716568
0.72,0.43258560531700435,-0.14989776674774924,-1.5976899080530387,0.009672037279228751,-1.40796591585184,0.042066464912092316
0.73,0.43212903012905324,-0.1479265951486032,-1.5986651468420054,0.010486811703301322,-1.407184163600701,0.04415249470969028
0.74,0.4324008626518589,-0.14958880157438867,-1.5975686727489864,0.009910721998274266,-1.4065273346012135,0.04333455964509125
0.75,0.4325855609162509,-0.14799563561486526,-1.5967974203539017,0.012012507436590087,-1.407439453537658,0.043139792664205305
0.76,0.4336391967144985,-0.14903797846888028,-1.5982093412678484,0.010177430407463127,-1.407226063408051,0.04227274852263845
0.77,0.4313128406779543,-0.15010901931486764,-1.5994751015890574,0.009799730304014275,-1.4077558579263083,0.044690553107831606
0.78,0.4336651612905055,-0.14913958288421744,-1.5981965671333858,0.009844757223123758,-1.4077481542623704,0.04316172713853475
0.79,0.43324032873122353,-0.148596058877955,-1.5975716144000698,0.009203470904971573,-1.4074944681245145,0.04526689797108241
0.8,0.4328946738001656,-0.1470492843986188,-1.5984201335779433,0.010706823626683697,-1.4075495526850976,0.04285129133191626
0.81,0.4320197732857902,-0.14792449122551923,-1.5992431063827235,0.010780832691316694,-1.4065529084221655,0.04331985899341289
0.8200000000000001,0.43245020085598945,-0.14790384029751696,-1.5987693680565738,0.011016418882346769,-1.4090982033055306,0.04270712732161885
0.8300000000000001,0.4309626887948444,-0.14960468670025323,-1.5973098056773078,0.010981196267490601,-1.4081278649486917,0.04168881838347462
0.84,0.4301129605504671,-0.14877428930416117,-1.5963877894385792,0.010579508120108874,-1.4079883189397238,0.04340585904708227
0.85,0.4313378068626869,-0.14855946358110875,-1.5984131895282156,0.010124863006880473,-1.406809891471579,0.04330075969745499
0.86,0.43328322447463635,-0.1489007181402197,-1.597716508252405,0.011621515652171255,-1.408346615167728,0.04222533940260654
0.87,0.4338656917382677,-0.14846697912858603,-1.5972749347299255,0.009813814738491218,-1.406230233196375,0.04311474302114646
0.88,0.4329253471595266,-0.1469345259328284,-1.5988157042983957,0.00937871603814198,-1.4078914461168348,0.04339473583786381
0.89,0.4313336174448739,-0.14774370169315387,-1.5989701666703868,0.011201655506293866,-1.4095893862735158,0.042313591872046544
0.9,0.43122827890154714,-0.1490210212282523,-1.5982838707290365,0.010043595263933157,-1.407721113641442,0.042861084993752706
0.91,0.4328774897229328,-0.14918011372784692,-1.5978831573224885,0.010778285151207496,-1.4071639910121405,0.04348566704867344
0.92,0.4329586735038145,-0.14652406351739536,-1.5985760040022081,0.009932019338122051,-1.408157576864091,0.042099180882649356
0.93,0.4316139934929091,-0.14907562197493793,-1.5985616802688198,0.010491727533283132,-1.4074553701346009,0.04233194444343416
0.9400000000000001,0.4334855592258889,-0.1476547407168689,-1.5986393194304875,0.009630223176808658,-1.4070214063535826,0.0431640379004209
0.9500000000000001,0.43143627056676626,-0.1483593239646638,-1.5982713306160583,0.009414868185638066,-1.4073343303865915,0.041730427880010246
0.96,0.43386604234322973,-0.14721095819302493,-1.5987203629450972,0.010517173743797383,-1.4096030536509672,0.041990896301531855
0.97,0.43244362952851956,-0.14923561256216267,-1.5978765714606715,0.011942970030010634,-1.4085267900440734,0.04226917531168768
0.98,0.4329054674622728,-0.14689403592883157,-1.5995667228222812,0.010417325014532772,-1.4059106169195261,0.04155856822071674
0.99,0.4315820562197314,-0.14866966650079708,-1.598954299092603,0.01090912839886235,-1.4072891121109838,0.041451053398063244
1.0,0.43314978042648244,-0.14880399775713302,-1.5973878349960748,0.009652326557234794,-1.4080555516379325,0.043472226414757974
1.01,0.43336867908220184,-0.14790951832210603,-1.5999705250662792,0.010669580072584207,-1.4084024302348908,0.04320532235062899
1.02,0.43148058408397316,-0.14791494716028006,-1.5992004278452572,0.009081138314939398,-1.4068756943485075,0.0432109159986533
1.03,0.4322413336999315,-0.14704846858209902,-1.5988729439744545,0.01022952051204436,-1.407260706121863,0.04245937803911171
1.04,0.4332925866191935,-0.1488004846807058,-1.598831939053703,0.011392661703231773,-1.4083972081884135,0.040894777955536095
1.05,0.43445749782400706,-0.14614305400381908,-1.598800781251571,0.00851663539511823,-1.407749870447418,0.042750855243244235
1.06,0.43313735116438634,-0.1493878156675134,-1.5979035519686584,0.010669457841386787,-1.4087679697097277,0.043611247836722954
1.07,0.4354416703078698,-0.14833304901342245,-1.598651467388074,0.010094577104918042,-1.4069061287221105,0.041491411644832374
1.08,0.43425119433277104,-0.14891198144218334,-1.5966757901145605,0.010075406371595194,-1.405960123244197,0.04203933383725222
1.09,0.43520142210383134,-0.1484044925345602,-1.5989593137920286,0.010393520888648622,-1.4063226739268375,0.042721011994211494
1.1,0.4339307170475611,-0.1488369459573994,-1.5988804317750083,0.009953945860297365,-1.407408945448018,0.041516401771829574
1.11,0.4348654554699075,-0.14856820877846547,-1.5984185352340603,0.008031431058238687,-1.406600809974919,0.04324411139401058
1.12,0.43668271956023336,-0.1503365587698749,-1.5970780716563575,0.010594513015178575,-1.4051447530595214,0.04337495884187457
1.1300000000000001,0.4388483282739573,-0.14956511984658166,-1.59691359208571,0.010858577826141708,-1.4060594519866874,0.04255549883013239
1.1400000000000001,0.439519689486387,-0.15010529875313797,-1.5967272984404495,0.01164771537664526,-1.4074689150859265,0.04264225071734202
1.1500000000000001,0.44175967061435256,-0.15020724122686824,-1.5963481062693066,0.008405959853087397,-1.407694887365812,0.04233299813395571
1.16,0.44125335703435076,-0.1511791106469716,-1.5977079951983637,0.010230402448278036,-1.4058947649983267,0.04280515033384204
1.17,0.4443881009476368,-0.15077504448327192,-1.5956916439693107,0.009593326528687076,-1.4075402071921002,0.04351004234300989
1.18,0.4473300479938609,-0.1505910752563031,-1.5962829493633581,0.011100845257735888,-1.4075148628113272,0.04301608752621955
1.19,0.4498106789815844,-0.15269331223209165,-1.5972638481539723,0.011135056920792755,-1.406769745440248,0.042138965513773205
1.2,0.45262592404398094,-0.15117104184573352,-1.5974814792388292,0.009283416357422627,-1.4071061143516543,0.04431107110924145
1.21,0.4559242006955909,-0.15205762659777672,-1.5960398851192255,0.009670265966219763,-1.405732086401003,0.04309213813078976
1.22,0.45938448440669416,-0.1535129742973491,-1.59431678987808,0.01084806179939173,-1.4052506815802313,0.04375133159905968
1.23,0.4609877584105408,-0.1559838590674967,-1.5931596806244421,0.01181460512785825,-1.4066105619255271,0.04143035230316682
1.24,0.4662582829549549,-0.15393692260701794,-1.5918982097795853,0.011302064541261156,-1.4058183062340828,0.042280735876788024
1.25,0.4702337236059129,-0.15579108936151517,-1.5937434493523615,0.012718253781085813,-1.4036932270063294,0.04405880893314321
1.26,0.4737596101020765,-0.15561989994146175,-1.5916469386898775,0.011401036385532713,-1.4039004628525336,0.043629682149114425
1.27,0.4798418933255671,-0.15670289031354073,-1.5912110811735085,0.009548524895285468,-1.404640363222118,0.04259817118929954
1.28,0.4830110162588052,-0.156741270726682,-1.5892580634458953,0.012387157132004613,-1.4041950430335899,0.04427104400251852
1.29,0.489374116930012,-0.15904075562100775,-1.590933847538477,0.011649363665692733,-1.404051268875264,0.041965029891266985
1.3,0.4948632410915645,-0.16035556567002401,-1.587577257894303,0.012191188652388836,-1.4037616882826758,0.0433288777596604
1.31,0.5008037375517328,-0.16159161461434618,-1.5892097815973811,0.011393030312606356,-1.4040717265935032,0.04203118751411344
1.32,0.5073853689081538,-0.16226269619011346,-1.5888959973637744,0.011537960381504718,-1.4021816863639087,0.04405773381947128
1.33,0.5143289710850205,-0.163821519792238,-1.5870976753859047,0.010825729198720638,-1.4023606376926299,0.04347603979216121
1.34,0.5213753275169634,-0.16420926206550973,-1.5854503931547979,0.010818371813160407,-1.4025312006747137,0.043346875789014236
1.35,0.527220236006492,-0.16705009091756653,-1.5840399895804145,0.01160342690412041,-1.4023726154271026,0.04344193660944441
1.36,0.534519475149488,-0.16777276503100794,-1.5828984542223767,0.0111943446233121,-1.4017965636592924,0.044438267906899545
1.37,0.5416610676369509,-0.17133673335744112,-1.5835880306830283,0.012366004857395254,-1.400881848391522,0.04309495916407598
1.3800000000000001,0.5518726864863915,-0.17339007829467615,-1.5803940629594504,0.013861613562094604,-1.401405270312461,0.042880771831917575
1.3900000000000001,0.5586285629838055,-0.1734704998958673,-1.5797503088693685,0.013909629379412373,-1.3983098902397129,0.04293427588811881
1.4000000000000001,0.5697562706592088,-0.17435612166701792,-1.5766107358760693,0.0127539415687941,-1.3992710384712492,0.043562200643980364
1.41,0.5800126601320349,-0.17540626598715625,-1.577383241132108,0.013858968183971955,-1.399153089036084,0.04283230692626022
1.42,0.5875134191244706,-0.17794896780141375,-1.5750971554778508,0.01321012254070856,-1.3979753234966439,0.043647583610467666
1.43,0.5948494876177918,-0.17928634569008292,-1.574720725635394,0.012130401465662887,-1.3977315186860078,0.04336766062635952
1.44,0.6060912039601868,-0.18109976204641642,-1.5735077954007837,0.01323161153927551,-1.3975822265022966,0.04327196680979309
1.45,0.6174332758404155,-0.1847263784770534,-1.570126582399646,0.01384596701827786,-1.398093951274631,0.04162228226365343
1.46,0.6280089503869232,-0.1861262977340536,-1.5692204380610333,0.013977363038937575,-1.3955970145294339,0.044177914046714624
1.47,0.6382151665990071,-0.18910745271341306,-1.5684054212890903,0.0144712315128335,-1.3940382709346018,0.04299457956037714
1.48,0.6485008003185793,-0.1917873432439117,-1.5664491738785407,0.013956218164186174,-1.3947918967752246,0.04342532331373669
1.49,0.6622436042534767,-0.1916642966965261,-1.564533039371602,0.013920711265644262,-1.3933084997759986,0.042072812623866154
1.5,0.6750181951662773,-0.1948339429642787,-1.5622429256578205,0.016295993312525646,-1.3935404393650408,0.04523271495742304
1.51,0.6869725727850015,-0.1984445971005372,-1.560174969905442,0.014213893125479457,-1.39290485484299,0.043803685615407685
1.52,0.7004716909181626,-0.2003427722336899,-1.5574469638599904,0.01641269643954233,-1.3902272164382297,0.04394223854044725
1.53,0.7143180273502961,-0.20397316217260902,-1.5566100249236203,0.014901764285656066,-1.3905889775362532,0.043005165936552056
1.54,0.7264455386909184,-0.20328321922978548,-1.5544564057013677,0.016281507253821298,-1.3900888737205088,0.043594109723757865
1.55,0.7403760078254326,-0.20718961093101704,-1.5512192720716482,0.01762625159764786,-1.3887900925128789,0.044067273247966304
1.56,0.7534612271555982,-0.210373265412874,-1.5492962336345983,0.017218676044369583,-1.388030875977593,0.044351645500572516
1.57,0.769299621689866,-0.21202476938691908,-1.547698107456662,0.01643297089704001,-1.3870590768313298,0.04104657791516079
1.58,0.7839185021393822,-0.21909092535935934,-1.5472422599507432,0.01742399901987743,-1.3860536310695515,0.04261602858881084
1.59,0.7979791774481221,-0.2176043332433123,-1.543902691060956,0.01927935583158647,-1.385572057583456,0.04401349768686265
1.6,0.8153267970922503,-0.22163688927065162,-1.54205209013503,0.017524384734405585,-1.384683568229779,0.04249397423649877
1.61,0.8293022767589754,-0.22540653992557133,-1.5380235242325708,0.017954178600969067,-1.3839637361019117,0.04362032100455434
1.62,0.8456198252793043,-0.227284055073358,-1.5373118052772365,0.017324493315435292,-1.3818000219075839,0.04338171742815262
1.6300000000000001,0.860373259389857,-0.23055341013108843,-1.5336013851406234,0.017212672066702298,-1.3815937815191461,0.04441254563263009
1.6400000000000001,0.8784008973187768,-0.23356151925851626,-1.532755475858485,0.0191578318266498,-1.3810713566452975,0.04337889639534145
1.6500000000000001,0.8955730443040543,-0.23604735472802038,-1.5274471046473235,0.020342148907336457,-1.3798997998514622,0.04413809218649279
1.6600000000000001,0.9124908885606919,-0.24050962613451551,-1.5263413620601622,0.020244680622642723,-1.3788364055475422,0.04322442204878486
1.67,0.9287319567418264,-0.24339007594341422,-1.5238557173726452,0.020158897767571186,-1.377164753271702,0.04356476682777347
1.68,0.947283308266315,-0.24699022228290118,-1.522300002379066,0.021461862246374464,-1.3771358775230906,0.042479030429829645
1.69,0.9634928626336932,-0.25163792331307455,-1.518503131376196,0.020310340169051484,-1.375927134606598,0.044496113813296226
1.7,0.9827285282049608,-0.25394448270316694,-1.5154803218900623,0.02143788549211606,-1.3763923068771218,0.043669679003888566
1.71,0.9987957331388069,-0.2577083186241625,-1.5130953283848516,0.022168150145056673,-1.372421599388884,0.04419748548366095
1.72,1.01876089415809,-0.26088076350141187,-1.510770292129133,0.02161461208714905,-1.3714887212052171,0.0435670213604802
1.73,1.0386260376545784,-0.26432094376832516,-1.5083271097466986,0.022830189356377296,-1.3706173984590577,0.04417636001495724
1.74,1.0562025225745313,-0.26931210447853476,-1.5051144023052858,0.02282255919547681,-1.3709255276688839,0.04450325280445104
1.75,1.0749414615320614,-0.2724315502317921,-1.501668871168029,0.024855720722224108,-1.3701453611650767,0.04544044662315974
1.76,1.095518624364241,-0.27562539645226414,-1.4987497406312256,0.023486924248871256,-1.3679170683720394,0.04545955910114268
1.77,1.1145505358659566,-0.27876509452389314,-1.49647398560255,0.023426990902372706,-1.3675460608307954,0.044622889617725654
1.78,1.1359619546121598,-0.28362639557949193,-1.4931134233405239,0.02289134401249423,-1.365626893034816,0.042871319944529675
1.79,1.1538396785263092,-0.2872020731069458,-1.4887928971817608,0.026703561884396394,-1.3647438916641932,0.04554964917643892
1.8,1.1749604581671458,-0.2914069644710809,-1.4865423301245762,0.024697552325073632,-1.3629303175553968,0.043976910093179625
1.81,1.1938073907374587,-0.2965294649539837,-1.4833003562757188,0.024796786509912593,-1.3623314114117402,0.044377107441766976
1.82,1.2161614414917437,-0.29896335336535546,-1.4813693768700174,0.026506252945804342,-1.3592080748326003,0.04483799229517172
1.83,1.2369103423716645,-0.3020047042515121,-1.4767141478602508,0.026372842250717034,-1.3588298164223047,0.044896899211146146
1.84,1.2558406891425689,-0.30647267246407156,-1.475765241663235,0.025547166597275746,-1.3569715233557182,0.04521389983867281
1.85,1.2789705914659275,-0.3113432302025585,-1.4724487737474878,0.026437070184045928,-1.3567689947418566,0.0445871052328216
1.86,1.2996647340250744,-0.31546816199663946,-1.467977889065626,0.026192958727288003,-1.3552062903373958,0.04455862336814514
1.87,1.3191442076513888,-0.31942861987275656,-1.4652695797743787,0.02723109310325521,-1.3527875011851025,0.04450795254189133
1.8800000000000001,1.34082086218567,-0.3251447018692303,-1.4626961130827791,0.027650602843637007,-1.3536591150197048,0.045837783744692474
1.8900000000000001,1.3622285967725916,-0.32630143670535555,-1.458653247412851,0.02832801283181315,-1.3518591793921786,0.044673669046735184
1.9000000000000001,1.3853065485985026,-0.33357989772731933,-1.4572307747309867,0.02823872121736385,-1.3504843972188425,0.04531109684473567
1.9100000000000001,1.4057403273450608,-0.3360375326470499,-1.451358766098878,0.030030633147518155,-1.3490466387933533,0.04558761118534882
1.92,1.4271645236554031,-0.34035383764981125,-1.4483912758907795,0.029648560204045504,-1.3479115848405732,0.046071735897705995
1.93,1.4464565969397707,-0.34527607539101945,-1.4467778598257988,0.02965679750687801,-1.3468362602556327,0.04350988427877894
1.94,1.469465522612105,-0.34897696441311143,-1.4403299666724723,0.03196907732907416,-1.3456710510781682,0.044547030111585596
1.95,1.4911046183548486,-0.35408781902278597,-1.439301119362362,0.029949949393726194,-1.3440802964539629,0.04350700984013225
1.96,1.5132685109623991,-0.35649830574378444,-1.4355976185871133,0.0316098821371399,-1.343850492715413,0.04568852192239386
1.97,1.5350961199083766,-0.3602878257325049,-1.432639291535774,0.030469955423080595,-1.3416638835024401,0.045300785869184755
1.98,1.558216599801941,-0.36518028688055343,-1.4280021384582233,0.032976321482851095,-1.3403001475525587,0.0456758757681208
1.99,1.5812740141246775,-0.3675669359306395,-1.4271167248758132,0.031714913265724926,-1.3374675138424656,0.04413710318749213
2.0,1.6003458651365503,-0.3739242844192285,-1.4223832830157426,0.032860642016321884,-1.3380177238584887,0.04451163863424656
2.0100000000000002,1.622791907685931,-0.3784897354495997,-1.4174638068793983,0.0336361614510193,-1.3353628068013113,0.04471257176927911
2.02,1.6451560355884125,-0.38256544158852146,-1.4184751843514458,0.03260035757709895,-1.3364038882891285,0.043215422283359374
2.0300000000000002,1.6661624161584525,-0.38500365959972477,-1.4129087703326484,0.035355149237780895,-1.3331534010924069,0.045900965549099754
2.04,1.6882803599424507,-0.38991475918419866,-1.408946880116663,0.03415121117999061,-1.331713560221826,0.04575142410922088
2.05,1.7104129368361656,-0.3955571391846542,-1.4073342247496856,0.035154750804903205,-1.3306083796586712,0.044604937863664096
2.06,1.7326979649090255,-0.39827637417906064,-1.4024860530824916,0.03685751001851913,-1.3284738920730845,0.044461891998679344
2.07,1.7558738197806907,-0.4034244518478764,-1.3988462310017706,0.03598552729956756,-1.328645595470818,0.04379721284449951
2.08,1.7759236859422982,-0.4084969673135843,-1.3956556362125259,0.03767161925205768,-1.3276826819529877,0.04567717776556267
2.09,1.7970394955964155,-0.41184624156077476,-1.3925760763865989,0.03673475096081996,-1.3241746111402797,0.04503163879943777
2.1,1.8200654684668252,-0.4153593352604142,-1.3893214561182496,0.036797054142704406,-1.3244461730569368,0.045390341088693505
2.11,1.8398978703958908,-0.41899640844093955,-1.3862254558304952,0.038122448769973,-1.3217770545691079,0.04679443574667806
2.12,1.8616390973390229,-0.42336011982429617,-1.3841284243038632,0.03804020364300215,-1.3223627844781474,0.046981761645931326
2.13,1.883518843282535,-0.4279674463769187,-1.3793495151799797,0.036538932787067824,-1.3223243480598688,0.0463006373567352
2.14,1.904377357501581,-0.43162855029673053,-1.3783724018631267,0.03882402609351023,-1.3175523419132704,0.04636333920659616
2.15,1.9254755053049972,-0.43627699723812946,-1.3744010828268458,0.0373950330996442,-1.317817132472732,0.04641964862643149
2.16,1.944826715835221,-0.4404930263492732,-1.371928007669193,0.03881698672702629,-1.3167442299980519,0.043900346548349296
2.17,1.9674753914146599,-0.4432536185397052,-1.3680187827885357,0.037898233813929476,-1.3164175665632403,0.046832500093953656
2.18,1.9851080104254266,-0.4481825207902872,-1.3657328840039173,0.041166009579020967,-1.3149029739056128,0.046146106187905295
2.19,2.0084659857243796,-0.4502151928203805,-1.3618066802779047,0.041189907728634415,-1.3143847296692173,0.04686914692478993
2.2,2.027588586830531,-0.45621437432288015,-1.3585995748635713,0.03989260611729719,-1.3116737044882654,0.04671102559322697
2.21,2.0486193181323533,-0.4609865934315367,-1.3556640906508781,0.04229547943626329,-1.3123068547537644,0.044964976216471046
2.22,2.0690640842869867,-0.46320540769117274,-1.352198878817462,0.04365868453313827,-1.309064313117725,0.04651282044309269
2.23,2.090416689645372,-0.4674334240913573,-1.3502846148529186,0.04279375222650112,-1.3079063110265041,0.04551454759649156
2.24,2.1067112014509703,-0.46900006884096523,-1.3463617565963544,0.04216213356511558,-1.306317747207402,0.04591409194377333
2.25,2.1267542216509776,-0.4742558575576474,-1.3448628230716733,0.04348578314835093,-1.3042872054944894,0.046450945173198394
2.2600000000000002,2.145803917715236,-0.4788802270602061,-1.341212885985671,0.04332931955344419,-1.3051381110070288,0.046878181239382255
2.27,2.1635645393199843,-0.4813356750680127,-1.3383374422967629,0.044248642597208704,-1.3046564698855831,0.04727203643446663
2.2800000000000002,2.1848894799960874,-0.48485845285049595,-1.3365122758282955,0.04500771722458823,-1.3021974098009255,0.04474536788397705
2.29,2.2022804711933492,-0.48894209679976974,-1.3319234474252648,0.044798938610982796,-1.3011878467325089,0.04746543766246946
2.3000000000000003,2.221637985423453,-0.4952816909389563,-1.3299390527102344,0.04485610831012832,-1.301876223883179,0.04629447884828757
2.31,2.239684911422751,-0.497201316015005,-1.326657773614844,0.04455147342965254,-1.2998531605913144,0.04753394733385483
2.32,2.255903171737391,-0.4992758186893864,-1.3259105211790116,0.04732196478300263,-1.2976751912297777,0.046117365254589066
2.33,2.274408606355084,-0.5042870324385714,-1.3206097177405274,0.04575526139171578,-1.2973285765240403,0.04587907182384549
2.34,2.290671576694708,-0.505778411686192,-1.3188212038030638,0.046942937144161825,-1.2961230031349906,0.046787006360835486
2.35,2.307821144298783,-0.5077159266309172,-1.3178552894905222,0.04780561280998232,-1.2939022368432271,0.04562606537695809
2.36,2.326871224715682,-0.5120182437008699,-1.3131225014506196,0.04705550917776058,-1.2942822944980386,0.046217046035630975
2.37,2.341731114872088,-0.5148365245202102,-1.311336021916779,0.04655614226731303,-1.2923865095713973,0.047233227383203374
2.38,2.358146183625989,-0.5185271024693162,-1.3092970376162762,0.04685585401861059,-1.2928936053135034,0.04503123984543241
2.39,2.373681244313646,-0.5223139676617594,-1.3070537831565825,0.04539676196133461,-1.2922715395779423,0.04746513576853041
2.4,2.3885041964002265,-0.5249340923984798,-1.3055362219806292,0.04953536738168308,-1.2903731958440952,0.046768171994121366
2.41,2.406429022042064,-0.526876300484217,-1.3022872338860287,0.04806027911321425,-1.2896137094202211,0.04698755121513214
2.42,2.419323803318797,-0.5314378310382168,-1.2984813884216801,0.04877057652480649,-1.2864228759141174,0.04664874875997881
2.43,2.435686637265472,-0.5336159457807537,-1.2967090374143484,0.048524281333168245,-1.2882928918564653,0.04699716516518807
2.44,2.4493971295435353,-0.536668291086418,-1.296505798969846,0.04824997479512263,-1.2879298711487408,0.04507933786254744
2.45,2.462724786719004,-0.5384373664824572,-1.293275512746351,0.04773878687032991,-1.2860061828999136,0.046505134539334636
2.46,2.4782385652035366,-0.5433458660441243,-1.2915326332852577,0.05146823195537369,-1.2846211393264622,0.047163545976979526
2.47,2.4899717824416916,-0.5443802140293527,-1.2884888085458281,0.049535220820870515,-1.2834407276108704,0.04549797938007785
2.48,2.5032997010316405,-0.5470441905938833,-1.287729179775712,0.0504776229978923,-1.2839626425960542,0.04578452597489353
2.49,2.515522114087435,-0.550633221807397,-1.2849823198212835,0.049743266831683924,-1.2820298587302958,0.04571175631192117
2.5,2.5278276894592904,-0.5526216317996266,-1.282229333512955,0.05127827141436213,-1.2820873116621083,0.04720044918951862
2.5100000000000002,2.538645473529644,-0.554457622902567,-1.27981373705473,0.051342268469271306,-1.281114337060906,0.04726541911093514
2.52,2.5530976177372597,-0.5584427895747328,-1.2812458946116372,0.05164058533568618,-1.2810883370209625,0.04795330310227398
2.5300000000000002,2.5635401699171148,-0.5606034819793456,-1.2791552346569492,0.049281350847181285,-1.2799796206012553,0.046664609606110775
2.54,2.5746098854100383,-0.5601250330545889,-1.2753239071488163,0.051749525711357686,-1.2809690190285272,0.047387746045215215
2.5500000000000003,2.586294722382355,-0.5628831789680172,-1.273884859070162,0.05109250864477271,-1.2767041135271169,0.046031265608164396
2.56,2.5969574180876323,-0.566647514492992,-1.2739752824741952,0.05363654432436835,-1.278055850512382,0.047620348873434776
2.57,2.606666972443985,-0.5672235531913162,-1.270446064040611,0.05230443131392434,-1.278773441894904,0.04620466741005979
2.58,2.616760490665221,-0.5686787580993778,-1.2715272574777574,0.05206997377390681,-1.2771385999586962,0.04660433670881898
2.59,2.6245607019079706,-0.5713992044431098,-1.2693697962010198,0.05355993176365892,-1.2753565778733227,0.046813061784671706
2.6,2.634564088738162,-0.5724907250025667,-1.2680714762107463,0.05206384020993383,-1.2763350897896417,0.04640275700768477
2.61,2.642699092444477,-0.574168540617446,-1.2653976113856753,0.05185108198670379,-1.2749647584669357,0.04678063164518426
2.62,2.6524849165758977,-0.5759537009714678,-1.2660289242260716,0.05229935583694996,-1.2744532271533568,0.04788556517708273
2.63,2.6583925836856515,-0.5772086927491752,-1.2624985946789684,0.05342585809421949,-1.2735110289381892,0.04638886248622939
2.64,2.668025553486269,-0.5804287275929076,-1.2644089557676508,0.054534034358929125,-1.274382968676292,0.04661890613214878
2.65,2.674393513983337,-0.5816846475117348,-1.2613910287986463,0.05322011079269674,-1.2727456337073502,0.04742477153186692
2.66,2.6830280749426927,-0.581622606134342,-1.2587881356158328,0.053064202411719566,-1.2726952120788892,0.04803115252895453
2.67,2.690669759599584,-0.5843852448719266,-1.259412347323849,0.05531374940759322,-1.271795255134734,0.04722534361751361
2.68,2.695870790553859,-0.5847307904730502,-1.2579116804975032,0.05403473910380906,-1.2718865571149693,0.04713520357895574
2.69,2.701643115989859,-0.585121090761265,-1.254691656111823,0.0528244386761062,-1.271196612694355,0.046414315344362383
2.7,2.70859595980436,-0.5866733824399508,-1.2556892303510465,0.05551498269444623,-1.2709604045847291,0.048076132111878195
2.71,2.711590615609621,-0.5863943389094677,-1.255193082773559,0.05553767237149677,-1.2718605768717273,0.046373208198370416
2.72,2.7189994669974364,-0.588805935765566,-1.2544860795381132,0.05564540462210116,-1.2720226865716966,0.04795741621952909
2.73,2.7238111182510463,-0.5899191373245083,-1.2552753124456977,0.05523397354332559,-1.2722933701465748,0.04768229028026518
2.74,2.7271346883490613,-0.5905873041103595,-1.253398876397557,0.05590577209599767,-1.2700649045208299,0.04651903360378761
2.75,2.7323341752790413,-0.5903592685940414,-1.2521743571079196,0.05463309715913517,-1.2698552581043812,0.04576496055677917
2.7600000000000002,2.737167148923275,-0.5937864967166997,-1.2513770268871158,0.05516073360030652,-1.2673230693784716,0.046179811241822986
2.77,2.740509047026026,-0.5914079506419032,-1.2504264480079106,0.05451432091683389,-1.2689846512279637,0.047148379894981954
2.7800000000000002,2.7443404334610095,-0.5942605132391207,-1.2510184306867165,0.05379535935430531,-1.268852670875472,0.047545633104142664
2.79,2.747123942091491,-0.5956821605709536,-1.249592436194459,0.05557086278384346,-1.2694106901030804,0.04691384573242667
2.8000000000000003,2.748980562896876,-0.595739415145651,-1.250478168937426,0.056382519388715586,-1.2691573279874329,0.04772273981357641
2.81,2.7525356897879942,-0.5951513777009878,-1.2497239345976552,0.056125257615997466,-1.2689032292255686,0.0457966368694204
2.82,2.7542706472399585,-0.5963080384325679,-1.25031897016126,0.05576944930254254,-1.2686948726453273,0.049245601763389234
2.83,2.756195902325437,-0.596096954258396,-1.249877104028128,0.05502441483988786,-1.268031007526608,0.045148114234477066
2.84,2.7599284201285563,-0.5950012225068079,-1.2489863287342582,0.05572082575979037,-1.2671395761320723,0.04703791748485802
2.85,2.7610074300631062,-0.598993180798247,-1.2477617002591386,0.05543023569181487,-1.2688102822591907,0.0472946912794207
2.86,2.762590988613809,-0.5977739364283977,-1.2475535080263087,0.05439190400748095,-1.2669175437789972,0.04596735300356087
2.87,2.763911690466143,-0.5959024651318577,-1.2468898338861805,0.0556720874688288,-1.2685689793256112,0.04672768388047434
2.88,2.7657582519084363,-0.5977798471762439,-1.2477718482042164,0.05558344647082814,-1.2678631117854942,0.04593336105044684
2.89,2.7662738759960415,-0.597212948488805,-1.2487317198194456,0.05546498889034505,-1.2683296546530687,0.04729074763743408
2.9,2.767253620570391,-0.5968891113099035,-1.2469650037387128,0.05450254109345506,-1.2669764963707868,0.046519124602577046
2.91,2.767807533874699,-0.5980429193958822,-1.2477282035776274,0.05644045011240521,-1.2681950913090663,0.04665629367743687
2.92,2.768319471958227,-0.5989223755610229,-1.2462524527738787,0.05622132752719185,-1.265992162636336,0.04917636358061039
2.93,2.7684501649710085,-0.5984554350059726,-1.2481693327577437,0.055002912526978975,-1.2680068091796104,0.046275750802962784
2.94,2.7687789642043246,-0.5987097105648986,-1.248152472647225,0.056423155598937964,-1.268237036259068,0.049650727872142406
2.95,2.7695544026631707,-0.5985693904233267,-1.2481832813306712,0.057182000486570225,-1.2664441292926303,0.0474584760905698
2.96,2.7689432504155556,-0.5984811987802602,-1.2480059163531545,0.056972614035473934,-1.2667047188318887,0.047282960272187424
2.97,2.7680967316073533,-0.599543331307581,-1.2464114129955266,0.05675693941246875,-1.26643668936618,0.045810567989055084
2.98,2.770540127268484,-0.5978093590831737,-1.2484506332720167,0.055692653806748135,-1.267162407494958,0.04693749201353153
2.99,2.7686807837383394,-0.5989836664334703,-1.2472860639571586,0.05557072600117419,-1.2678918953949183,0.04681339375427559
3.0,2.7702653497319663,-0.5983138855176334,-1.2472656624671519,0.0553425138711356,-1.2673194058977475,0.04552368462195668
3.0100000000000002,2.770716291680889,-0.5987004913949402,-1.2469653608634574,0.056538398845219565,-1.2691041530341711,0.04547750500417899
3.02,2.770538938930276,-0.598706210627719,-1.2468514926015162,0.055296718048781474,-1.2668202420493397,0.04801388092710927
3.0300000000000002,2.7707223542275408,-0.598927615769103,-1.2488393059711609,0.0563712852277902,-1.2663338406104252,0.04776248332552732
3.04,2.76953236717011,-0.598112003467451,-1.2462490461642426,0.057060323797883894,-1.2681645501393588,0.047002381094673445
3.0500000000000003,2.7709521178850296,-0.5986499002614799,-1.2479750522739606,0.05606182096530516,-1.266895022461748,0.04727676210802832
3.06,2.7704916239983524,-0.5989257634889379,-1.245709958265444,0.05491399779236181,-1.2679125340537778,0.047209586669053887
3.0700000000000003,2.7710670320878523,-0.6000067045974588,-1.2481434496230794,0.053921746413913924,-1.2673714680334824,0.046224094072277
3.08,2.7699644167220643,-0.5981228386492755,-1.2475598516384934,0.055901831639877206,-1.267661221603315,0.04778653038741097
3.09,2.770714627457193,-0.5993038260601871,-1.2471471764193052,0.05661083794180877,-1.267056713920644,0.04598092062834038
3.1,2.7708721346901495,-0.5996465013231809,-1.2457673498100865,0.056593694831053996,-1.2671470271995757,0.047337211540511716
3.11,2.770117584944473,-0.5981078761497214,-1.2473235649925816,0.055905573493058164,-1.2666390937221472,0.04670973130281148
3.12,2.7697622703930143,-0.5997422805055403,-1.2479289277108825,0.05410442408936593,-1.2667631042327918,0.048778575732327495
3.13,2.7715438341493766,-0.600119026412107,-1.2463674449691442,0.05694102190598423,-1.2677986419109932,0.0472885295841266
3.14,2.7685477827617775,-0.5984672287817328,-1.2479281309535128,0.05587421441824169,-1.2687624065641978,0.04767373316943323
3.15,2.7711940559707307,-0.5993834533611122,-1.2479921521192945,0.05381851495793185,-1.2676324896670743,0.046692463546857924
3.16,2.768946480224609,-0.5983046665564532,-1.2473926732349998,0.05476124328197716,-1.2678839557209567,0.048134889574794074
3.17,2.770826161742522,-0.5988134691443274,-1.2464597289506085,0.05468691320176413,-1.2673717517581555,0.04732856298643501
3.18,2.7698899902990313,-0.5983199909141144,-1.247681056668813,0.056144902497277056,-1.2669184123715385,0.04465429776373756
3.19,2.7713387376815763,-0.6013595611328203,-1.247537604192483,0.056594784958832474,-1.2676768849014264,0.04592051135796593
3.2,2.769345534356098,-0.5978038556809527,-1.2486768290325032,0.05668523059687514,-1.2674480856526524,0.04615943877491869
3.21,2.7697911361035157,-0.5995876956991827,-1.2462440759090636,0.05633916384067661,-1.2689002511079228,0.04684779943483692
3.22,2.7695467284068043,-0.5975711996071508,-1.248178183741979,0.05709995399165371,-1.2674290551414082,0.04618602094582308
3.23,2.769708966777514,-0.5993995444058715,-1.2481123143910842,0.055782752046081095,-1.2684715584648008,0.04529727153791463
3.24,2.7699686697745673,-0.6002732888283737,-1.247656384182622,0.05490665806772401,-1.2681602794476572,0.048946169716683294
3.25,2.770349228379166,-0.5984858734002045,-1.2485501999548996,0.0551293095065688,-1.267212113010966,0.046305929859389486
3.2600000000000002,2.7710924343217207,-0.5997495507663234,-1.2472499015968532,0.0551885734647857,-1.2672566031732369,0.04664106697098939
3.27,2.770063600714247,-0.5989060623782281,-1.2476408742176408,0.05612332425932555,-1.2671919668980305,0.047122669744607514
3.2800000000000002,2.7699243542394223,-0.598004884201516,-1.2472058042021756,0.05543235612602503,-1.2673086407142222,0.048680551183166526
3.29,2.7691303185510243,-0.5980281731223506,-1.2486521035033706,0.0558896065993648,-1.2660254809333304,0.04762644373514085
3.3000000000000003,2.7704488984703497,-0.5991890844260833,-1.2469729062063974,0.055480033697468234,-1.268085893982603,0.046947035804435926
3.31,2.770473120221343,-0.599369523196168,-1.2477036136234962,0.05451296366926853,-1.2670590280912404,0.047675884320452035
3.3200000000000003,2.770502161874928,-0.5978577298529395,-1.2469233210213497,0.056042094078043087,-1.2671348518265921,0.04712011626319063
3.33,2.7698367705678844,-0.5967677873356393,-1.2473944016328031,0.055118912076265236,-1.26702125497974,0.04741978443912915
3.34,2.769074088109501,-0.597720278400866,-1.2470822002738695,0.05473052973128495,-1.266362590155456,0.04774600493868252
3.35,2.769196478935539,-0.5971491154013779,-1.246425090840927,0.05569110221057144,-1.2660122723007385,0.04733901354094787
3.36,2.770275492893768,-0.5992762205537943,-1.246492239703996,0.05611591455022892,-1.2673871891612136,0.04651060685395926
3.37,2.770413385187592,-0.5987609109312722,-1.248163675867635,0.05441560142489367,-1.26690681063805,0.044929424106659024
3.38,2.7704792545006867,-0.5991172061727903,-1.2458583394640952,0.05526936774981724,-1.266824491454819,0.046853627331183124
3.39,2.77039926398982,-0.5980569888243236,-1.2474036560111894,0.05656965819556645,-1.2682671649862793,0.04745708075277265
3.4,2.771105155048617,-0.5981240086290827,-1.2453275863483997,0.05503377351368756,-1.2686035347656224,0.04633227892442925
3.41,2.77087634486533,-0.5982654802687905,-1.2469107642303532,0.05472003510673005,-1.2667307820402776,0.04613124346325465
3.42,2.771311374303855,-0.5962064145671607,-1.246680211047231,0.056208857843119665,-1.2678301012858924,0.04562029086917869
3.43,2.7697740281324803,-0.5996537310168275,-1.2482627497074934,0.05720304259461413,-1.2671618825327584,0.04753133992053227
3.44,2.7700303271132514,-0.5988508584785063,-1.2461582707396284,0.055671780540408014,-1.2669368821730547,0.04702895398272724
3.45,2.770001415275576,-0.5999277642241351,-1.248725911645827,0.055471744181430784,-1.2673506973354118,0.0460776398125318
3.46,2.7702699150047985,-0.5986530920397215,-1.2488814719202548,0.054901403081294535,-1.2670445952064913,0.04753777246132707
3.47,2.769293228710558,-0.5985617279912707,-1.2461077813810642,0.0563781240831303,-1.2674831525356876,0.046791613625557324
3.48,2.769750793330955,-0.5982917502241131,-1.2468297396642467,0.05624925861158629,-1.2672849183881938,0.04791450633650991
3.49,2.770382547557396,-0.5980152299150128,-1.2462400637727884,0.054997918069130104,-1.2689779033484117,0.048546951615923234
3.5,2.7705239769952463,-0.6001961711927706,-1.24762292502457,0.056373587390667744,-1.2676440640772408,0.0467531421130223
3.5100000000000002,2.7715225000446964,-0.5996139304459107,-1.2476965202014336,0.055884469499188856,-1.2670592637927505,0.047633141008429254
3.52,2.7710952052073585,-0.5985267074622519,-1.2465729319479575,0.0554737972486648,-1.2673452854086553,0.047293841275018414
3.5300000000000002,2.7704877085342474,-0.5980258318377478,-1.2465155440010918,0.055738586614298605,-1.2681060956250332,0.04725905431310805
3.54,2.770275549870223,-0.5985314172689028,-1.2450744434180911,0.055242922024106814,-1.2670314833110623,0.0481324090503039
3.5500000000000003,2.7703855228037146,-0.5966598452634383,-1.2473299015171313,0.055982821199985634,-1.2680970895166115,0.04689323679847743
3.56,2.7705172358178145,-0.5979614603819864,-1.2467215372260092,0.056798784989082175,-1.2674828728672511,0.04691012827414002
3.5700000000000003,2.772659672152346,-0.5983559627490956,-1.2476278660942333,0.0550941405735744,-1.2682226434150496,0.04801731094664917
3.58,2.7699820208259758,-0.5985888552728151,-1.2470554217736263,0.05633834754859554,-1.268138923617132,0.04626138611318009
3.59,2.770495736325684,-0.5981755640905778,-1.2467098108133587,0.05499361836423527,-1.2668087829436576,0.04655085888226218
3.6,2.769844871673605,-0.5995237548496103,-1.2458645251363105,0.05625276457219918,-1.2668720436820826,0.048288397288370664
3.61,2.7727544995042757,-0.6001915811587134,-1.2476443551227963,0.05516228580062007,-1.2681424801875578,0.046259631218249095
3.62,2.7700385033709276,-0.5997616870261898,-1.24670762037764,0.055745115296334184,-1.2669802233001701,0.04764307665935701
3.63,2.7708262227502196,-0.5990258607701974,-1.2451489531858544,0.055904579742586946,-1.2690253245600749,0.0463252621447123
3.64,2.768781124610033,-0.5986848726823348,-1.2471062951102931,0.05529122146353511,-1.2656451359162142,0.04767907793448518
3.65,2.770933640355029,-0.5995125148971309,-1.2478719184029106,0.05573211885710408,-1.2672490227891806,0.04558006256054985
3.66,2.7701426524393407,-0.5986877197910622,-1.2471877530662814,0.054990182960019805,-1.2678708332677435,0.04704566123798663
3.67,2.7703792379686445,-0.5981722197798073,-1.24605677502415,0.055443133153934974,-1.2677980713762793,0.047581926624660355
3.68,2.770833062750522,-0.5990789113586977,-1.2463102515720328,0.05655484947537218,-1.2662727909135405,0.04875187774896559
3.69,2.769543909284399,-0.5986878715243509,-1.2469901583530982,0.05561441466599637,-1.2679665887829155,0.04590360259005476
3.7,2.7703808780741066,-0.5993705168042722,-1.2469249565312852,0.0550070662896579,-1.268359632939101,0.047404463891030056
3.71,2.7704317038777457,-0.5981944811151503,-1.2450924740137985,0.05594198076504704,-1.266976686301167,0.046259650345954986
3.72,2.7691769613997117,-0.5973187207328142,-1.2478058881367715,0.05478898693730986,-1.2674341202454604,0.04712129227131224
3.73,2.769512414497095,-0.5989661393398474,-1.245927167299147,0.05499663788879269,-1.268616208677332,0.04802256810964983
3.74,2.770729610100536,-0.5992415046500127,-1.2483807011873935,0.055050193537144784,-1.2674477386269236,0.048217240798353794
3.75,2.7693954115785853,-0.5987737575107885,-1.246410825137879,0.05362195222723324,-1.2664978513803946,0.04616811721364533
3.7600000000000002,2.7705897207231307,-0.5984847283415051,-1.2460535198223317,0.05618077221880518,-1.2694745773178522,0.04651515091179028
3.77,2.770420606727518,-0.5988701520493978,-1.2465832060111446,0.05638885227007817,-1.2668690256929913,0.04701300983739514
3.7800000000000002,2.768688767002726,-0.5990974823736807,-1.2466366502457273,0.0547484052561834,-1.266849108873737,0.047992722697018105
3.79,2.7704107123224206,-0.6013736523111731,-1.2481153425030374,0.057346010556611246,-1.2678769441987465,0.045468508396263325
3.8000000000000003,2.771377956700134,-0.5986883450477006,-1.2460357575214547,0.055941692038726974,-1.2669998316628999,0.0475167853293903
3.81,2.77090867337686,-0.5967125670093762,-1.2461526371189895,0.05432089378024371,-1.267010214295822,0.04819612988757975
3.8200000000000003,2.7713495544495226,-0.5990722830779898,-1.2459833941914324,0.05650960797412606,-1.2651550550329957,0.04654550001533947
3.83,2.769857209465765,-0.598967139264935,-1.2474277995292191,0.054923310375277826,-1.2698108891869104,0.046820653146342234
3.84,2.770622325713027,-0.5991304172573421,-1.2453110613033138,0.055711672598601096,-1.2662733646124062,0.04742813234670302
3.85,2.7710211764260095,-0.5984563157737737,-1.2458055100711294,0.05574881629206182,-1.2669670530078263,0.047519685792534155
3.86,2.770048423478503,-0.5983465862561201,-1.2450501301621288,0.0554640341536555,-1.2670339478261594,0.04829761919774759
3.87,2.7712950587029574,-0.5986897754967129,-1.2490798990110723,0.05615090827198754,-1.2693368566738117,0.04848276222387864
3.88,2.7704478938524213,-0.5978276198453293,-1.2477872404790087,0.054345181646454806,-1.2671724488728864,0.04717067546663845
3.89,2.7698710497087795,-0.5986261190951129,-1.2445849565923086,0.056428260924679896,-1.2664841396916298,0.04793647387183262
3.9,2.771591074278442,-0.5988658688253446,-1.248793117508076,0.055535427552772056,-1.2666916269602275,0.046353689500905
3.91,2.770146091673778,-0.5993036829840532,-1.2456892322047035,0.05635402462605072,-1.2668314235479639,0.04774244947743406
3.92,2.770267493894953,-0.5985275996205948,-1.248034268658708,0.053791969428349136,-1.2672690295065183,0.047482734835816456
3.93,2.771355282412337,-0.5973287508177425,-1.2456299178592725,0.05482906011422185,-1.2677074092349765,0.047619170748668935
3.94,2.7725095036486627,-0.5974083697819523,-1.2460231416942824,0.055361591168804375,-1.2681707370758029,0.04788845200299885
3.95,2.7693394918494976,-0.5989080749690524,-1.2471001626559386,0.05709007803250072,-1.2677095317892295,0.04507135312644131
3.96,2.7707402109997887,-0.5993100116440028,-1.2469627974130033,0.05562433587466741,-1.2676388517951442,0.04788970226821353
3.97,2.7689623230442284,-0.599151180025255,-1.2464030643103816,0.05516410993919355,-1.268803948705247,0.04778342459858154
3.98,2.771280084955634,-0.5987392657260494,-1.2487111605908268,0.05631607482496823,-1.2688485254372364,0.0474694782054389
3.99,2.769525541713296,-0.5997121507165306,-1.2473856392397793,0.05554004270647421,-1.267962177751888,0.047713740526106926
4.0,2.7699107310326787,-0.5978446220995667,-1.2467546301245633,0.055091266501194,-1.2681556751048606,0.045762288258360054
4.01,2.7705508124310985,-0.5990088772233604,-1.249070567209568,0.05523244413162295,-1.26818647433834,0.04857503288595997
4.0200000000000005,2.7687910185769367,-0.5999533791463406,-1.246034831242431,0.05688355101107502,-1.2680515003266573,0.04664835968932035
4.03,2.7707606372961697,-0.6007159166443243,-1.2486357956968068,0.05545351261099482,-1.2660520879536656,0.04681961518581301
4.04,2.770206641325689,-0.5976756225208184,-1.2451886793710147,0.05519307306932299,-1.26742556726314,0.048789717137639334
4.05,2.768619940445072,-0.5977355040212584,-1.2479415308435857,0.05578257857046,-1.2676328029958064,0.046363345278054365
4.0600000000000005,2.7688389907419033,-0.5983425816538782,-1.2462219135682235,0.05557504499586621,-1.2673749599381368,0.047697359820579155
4.07,2.768501737931027,-0.597871383801178,-1.2464278926109629,0.05795359428332603,-1.2677851712842414,0.04679854068169493
4.08,2.7695633129332813,-0.5977139594010237,-1.2476786299921774,0.05532077343812083,-1.267012144496891,0.046475267207598134
4.09,2.76795279970822,-0.5982385937148673,-1.2464299525395968,0.05513367460011766,-1.2691269875234055,0.04552387962708736
4.1,2.7664937217671675,-0.5993243355156745,-1.2475420042773464,0.054609811657905294,-1.2681755227066802,0.04651961850569246
4.11,2.766340201022034,-0.5968570057989568,-1.2469599646358744,0.05564448285007751,-1.2680166057241262,0.04681550924234706
4.12,2.7659803198840627,-0.597302808687844,-1.2484845940499099,0.05564218838015419,-1.269448956741616,0.04737648001476168
4.13,2.765155107225998,-0.5978249582366456,-1.2462884176559155,0.05481788629707578,-1.2675584593181646,0.04715829811090056
4.14,2.7630128195876322,-0.5974125625483051,-1.2479891301003445,0.056299846593625774,-1.2666291971040686,0.04718510056758138
4.15,2.762225910963941,-0.5976196333303261,-1.247652647956863,0.05486403071161213,-1.2669747685395494,0.04911336290307817
4.16,2.7596152120634834,-0.5985751776810679,-1.2490689130325094,0.05656911448693978,-1.267551338490583,0.04739821199713335
4.17,2.7585925735762946,-0.5958518923507602,-1.2478301136294538,0.05625733725497346,-1.2668264851419522,0.04749049222600755
4.18,2.7562666131315954,-0.5961119066906081,-1.2497538332832714,0.05690090753189029,-1.268099739070938,0.047875757424500676
4.19,2.7531134428292274,-0.5958795842275965,-1.2495909593628118,0.056616513187052554,-1.2679519799173635,0.045675384561738384
4.2,2.750102307776804,-0.5932892312539723,-1.2501954129584856,0.05373930593586193,-1.2669472592024085,0.047759547804359044
4.21,2.74726130522292,-0.5945968859093017,-1.2495105627408316,0.05477978493664181,-1.2677750796461278,0.04763187046265523
4.22,2.7443079058104343,-0.5935238139145848,-1.2510931723472207,0.05610241627713005,-1.2697257424109956,0.04573751929727931
4.23,2.741134836761352,-0.5924263933463872,-1.2510470421370268,0.05547769067162178,-1.2694598239294594,0.04783384342706558
4.24,2.7367883842644347,-0.592675854573687,-1.2523052695841612,0.05681183087340723,-1.2709201300316724,0.047576008022473124
4.25,2.73131096925792,-0.5915645197650831,-1.2530207758691074,0.05315009236401872,-1.2693094203343798,0.04680093479299861
4.26,2.726604893212098,-0.5899012935657454,-1.2520426028390819,0.05618553632795951,-1.2695957498865498,0.04716497707991552
4.2700000000000005,2.7249629262220294,-0.5882731474606003,-1.2530022969117476,0.053973334205765985,-1.2700109570906108,0.04750000995462654
4.28,2.7172929230951817,-0.5883814729577542,-1.2527495439198872,0.055257436259590606,-1.2691964457697844,0.04726722197807714
4.29,2.7135725064130147,-0.5874495483141666,-1.2562323293027076,0.05375602408925863,-1.2696909752683112,0.04829578630376893
4.3,2.7072271775777845,-0.5858692731852583,-1.256429960957089,0.05478569861006832,-1.2707267071606407,0.04795596460437581
4.3100000000000005,2.702307030275362,-0.5843548627520794,-1.2569648006879093,0.05491985559180356,-1.272206525750397,0.04896149170196589
4.32,2.696470755876333,-0.5837736533502342,-1.259566605947875,0.05353703412192256,-1.2707691429530146,0.04731697299892672
4.33,2.6878961525632747,-0.5822384431360617,-1.2596143057967624,0.055360171579052916,-1.2723152888866673,0.047233584760771476
4.34,2.6837769127624744,-0.582614034972066,-1.261031420404531,0.053824376508354255,-1.2719254279226035,0.04588128469045991
4.3500000000000005,2.674147778303487,-0.5797353847134002,-1.2617655246307302,0.05351450523508167,-1.2746958483819102,0.046437336032299964
4.36,2.6681231164338355,-0.5782023058585215,-1.263036155575775,0.05515764950569932,-1.2741207862728952,0.04642031911708794
4.37,2.661666424232741,-0.577325862310859,-1.2640184681749749,0.05342401916734539,-1.2728103917461147,0.04828190933798588
4.38,2.6514741075122554,-0.5759794402512424,-1.2646817428798025,0.052540341465112626,-1.2745274984425845,0.04699242953254532
4.39,2.644709435351325,-0.5732562871511943,-1.2663216978377156,0.05304937719152242,-1.2744069830109845,0.046461888574783
4.4,2.6354198934378625,-0.5726895448819227,-1.2682048398472847,0.05222964244781452,-1.2742517950642323,0.04682023250840549
4.41,2.627192892017025,-0.5712990794004104,-1.2684798391264693,0.05497464631770921,-1.2769854134276304,0.04528414983277921
4.42,2.617402246837172,-0.5697454319644889,-1.2701778108873885,0.05219077177171134,-1.2763969361421112,0.046093769771739485
4.43,2.606303162508816,-0.5667394219976478,-1.2725161634714646,0.05190001653073061,-1.2775226034508282,0.0456587499379607
4.44,2.5959348437200647,-0.5650713563102557,-1.273512145616479,0.052076442380691305,-1.2778455399501185,0.04631513400396642
4.45,2.5864131450118326,-0.5619000467336547,-1.2751466100697915,0.05253242825312885,-1.278666188710252,0.04718747214679597
4.46,2.576346699410912,-0.5606226434378122,-1.2779174091489482,0.052294403589021,-1.2780302708001199,0.046655687106826195
4.47,2.5646840667339013,-0.5595175248589993,-1.2793450612414956,0.0518040890514876,-1.2813081226274086,0.046619766088782
4.48,2.5534390364444084,-0.5583662535821262,-1.2808943593944708,0.05055645353155905,-1.280519746535133,0.04648919696555316
4.49,2.541705322578582,-0.5535871557170171,-1.281124689837381,0.05135386077856013,-1.280830444765016,0.046034865353800546
4.5,2.5290699321525874,-0.5530470041833228,-1.2826567382355498,0.05202514366549087,-1.281718524983383,0.04661145947180513
4.51,2.5161800374600887,-0.5521669558360329,-1.2850002436943702,0.05064798573517297,-1.282695357256129,0.047359357231981564
4.5200000000000005,2.502947897724466,-0.5481951896998788,-1.287314759707251,0.05055637291644944,-1.2833190750675958,0.04686106311657352
4.53,2.490778809255667,-0.5456158880211585,-1.289014073302874,0.05136730691460419,-1.285720712365462,0.046852921847795805
4.54,2.475898622126589,-0.5423977791713395,-1.291981296262692,0.04983163375199572,-1.283407020865291,0.04556853893612382
4.55,2.461608565443375,-0.5405553047603696,-1.2917563484306311,0.049307903362938256,-1.2858620872951498,0.046295709040185234
4.5600000000000005,2.447710289659955,-0.5369086291627606,-1.2932379867743904,0.050651835203213515,-1.2874287883558426,0.04718699416509377
4.57,2.4334030125472728,-0.5354779390023222,-1.2966596879291894,0.05016899575557254,-1.2866349935873602,0.046185961257906985
4.58,2.419270089415022,-0.5304386215777713,-1.2994201008560884,0.04852672996063209,-1.289842552674306,0.04666893578822629
4.59,2.405341009833102,-0.5292447370537936,-1.301462282195872,0.04886728609336444,-1.288674989950922,0.04730352322416973
4.6000000000000005,2.3884781567493865,-0.5266598312701974,-1.3047882036173424,0.04905576995801355,-1.2907204956337597,0.04590939694235994
4.61,2.3718850396272244,-0.5207116713378579,-1.3059492503648906,0.04864788694582773,-1.2903385500320301,0.04699029076730696
4.62,2.3573616682644145,-0.5193205841344355,-1.3094337285172166,0.04996579505775105,-1.2916508388531789,0.04605370853079073
4.63,2.341796535203641,-0.5169414397629982,-1.310181318628009,0.04677463526056481,-1.2926686783738035,0.04735961268119489
4.64,2.325261590391805,-0.5128045322362409,-1.3139605535114591,0.04698180105769415,-1.2945959932850732,0.0460075414222281
4.65,2.3094778449613007,-0.5097564508143441,-1.317172748687609,0.04625468276284098,-1.2941357067185804,0.04695929223250793
4.66,2.2916672700866774,-0.5066093557964129,-1.3185441715131059,0.045812566567688624,-1.2963418843021481,0.04718546910992009
4.67,2.274669298478882,-0.5039136108823646,-1.3223882581600674,0.046132851968183126,-1.2956441576138507,0.04463647632937422
4.68,2.2566195340651736,-0.5008799995175433,-1.3248311335408234,0.045378762335647235,-1.2985680674576943,0.045810801577478494
4.69,2.2386014540349772,-0.4967202052790614,-1.3282275736409814,0.04603124480568561,-1.2986098018282983,0.0469804865645476
4.7,2.219223524507057,-0.49251885820217134,-1.3290721324771153,0.044099899870117656,-1.300339224268306,0.04611082683645429
4.71,2.20390925437616,-0.4875807735389324,-1.3338611395956335,0.04682061076420847,-1.302240679199624,0.0470352680216034
4.72,2.184649377686942,-0.48656475719717607,-1.334759945563573,0.044190331700477994,-1.3020669683283885,0.04634753087496489
4.73,2.1661210527433754,-0.48202211350549495,-1.3381526010593139,0.04487619008279408,-1.3031664963748208,0.046751214763481
4.74,2.1455522634302904,-0.47934985807451774,-1.3413502278381122,0.043009174936554,-1.3041223243196818,0.046930255414589055
4.75,2.1268395256276547,-0.4734978207927304,-1.3425412282835358,0.04339046348567692,-1.3066738093617518,0.04741890389255308
4.76,2.1075588901261058,-0.4709056884557228,-1.3469433426238577,0.04202468457128597,-1.308398676861261,0.046561620855522574
4.7700000000000005,2.0873674715259845,-0.4645768997409557,-1.3505361087861918,0.04132315623535685,-1.3078442229575145,0.04730877126216666
4.78,2.068355520799379,-0.46294173470464745,-1.3541671904616648,0.04144472883267012,-1.3104101090216727,0.044284965370627746
4.79,2.0484657696590034,-0.46155725506053374,-1.3567098803075877,0.04117914703982491,-1.3113934341328128,0.046248818175274375
4.8,2.0285189250238793,-0.4549450374516616,-1.357923581331286,0.04225202696616084,-1.3118750181198264,0.046131576829503695
4.8100000000000005,2.008418908332547,-0.45169398336720606,-1.3619761974464404,0.0405716362695642,-1.313802228578849,0.04619824521098362
4.82,1.9874502240487089,-0.44845797767483053,-1.3652810566934745,0.03940761738461198,-1.3134596256280988,0.04586219666265873
4.83,1.9661864042759185,-0.44320589017285766,-1.3682887382934492,0.03883565703436671,-1.3146568427085619,0.04528788464521483
4.84,1.9458448713144532,-0.43987989487726353,-1.3699208320320255,0.03967690040133986,-1.3178373286203342,0.046193952797742015
4.8500000000000005,1.9249041750299136,-0.43424632595534896,-1.3740577301984196,0.037302672362432725,-1.3177301063845264,0.04737880713087893
4.86,1.9056998387151243,-0.4302492968840642,-1.378104811544483,0.03964030446058748,-1.3199307927985713,0.0458398187784973
4.87,1.882090596217051,-0.42833957381841803,-1.3809812804558086,0.03921728947932405,-1.31986795271936,0.045847707899888866
4.88,1.8607878333048342,-0.4239576260963137,-1.3842353395031377,0.038778757553754595,-1.3208112441055009,0.04648985392786244
4.89,1.8399684145931392,-0.4219648772232647,-1.388334870279736,0.03884507815926998,-1.3234684711182054,0.044874512989541065
4.9,1.8206268745306113,-0.41434028416934365,-1.38999456790273,0.03693123031377023,-1.3245182048679733,0.045689369813495265
4.91,1.7990688237800008,-0.41092911279203703,-1.3926183706631041,0.03778876260109951,-1.32671347531813,0.04611120729618412
4.92,1.775816344489323,-0.40933185599875227,-1.3983569423158158,0.035459492730522915,-1.3265236662024593,0.04551296743560633
4.93,1.7545655039543748,-0.4012585680704548,-1.400865544157974,0.035902257658203304,-1.3280202571759552,0.04473220644467556
4.94,1.7326994845704828,-0.400170480855563,-1.4017951509695108,0.034908418225341784,-1.327815537008373,0.04530734441862406
4.95,1.711789657948904,-0.3946238544188577,-1.4063277068966782,0.03456959873886806,-1.330789794364248,0.04557405333282217
4.96,1.6883821462235529,-0.3904811144860795,-1.4101152149499692,0.036661266358829554,-1.3322801561788453,0.04660580151837907
4.97,1.6670348509625394,-0.38593363039940937,-1.4140231001443666,0.03383877545863343,-1.3333283248894257,0.046602103584110904
4.98,1.645512029920218,-0.3807352244587547,-1.4156019906597794,0.03522307310855122,-1.3348753494704226,0.047264591810360884
4.99,1.6229899509479535,-0.3783910826383262,-1.42051087749842,0.03541073683654851,-1.3354215471503903,0.04484779703024552
5.0,1.6025899779246293,-0.372899875356473,-1.4210342301055294,0.03159926103991089,-1.3376815703796767,0.044696373949465844
5.01,1.5778640979015253,-0.3683524714479614,-1.4262810583283316,0.03316891592552232,-1.3367040604476164,0.04475236435070665
5.0200000000000005,1.557314161287341,-0.36495369770646835,-1.4284773318688422,0.03160255206241998,-1.34062679245024,0.0459438426766034
5.03,1.5361248614932344,-0.3626244604727658,-1.4336993636154058,0.032981155538830915,-1.341037200356,0.044316804428768564
5.04,1.5137847486382827,-0.3566164561762,-1.4352751482711175,0.03006026070891991,-1.3434320152555006,0.045180866751091626
5.05,1.4920203659244005,-0.35192361982963627,-1.4402720697712807,0.031132393084195548,-1.3430536639855357,0.04532828220428276
5.0600000000000005,1.4704466330722705,-0.3483094125598524,-1.4432030188176967,0.0303339302413562,-1.3442124311896095,0.0447604444204448
5.07,1.4478188858836136,-0.3444684791865005,-1.4455666705065808,0.02964784977137358,-1.346190565704379,0.04528154130637775
5.08,1.4277023799532054,-0.33862156127979104,-1.4481311852803498,0.02873675466129337,-1.348701236627337,0.04472021833235393
5.09,1.4049337561079456,-0.33669559229864093,-1.4526334982866838,0.028717527409574395,-1.3497935573083877,0.044471955661061956
5.1000000000000005,1.3848350093705482,-0.33138178750924857,-1.4533270362196078,0.02886152364988227,-1.3507502053276277,0.04471247374549629
5.11,1.3625963636111096,-0.32704598569255644,-1.4568948223517622,0.02755784414844822,-1.3510320307662718,0.04485165278980136
5.12,1.339662660269515,-0.3226417690493269,-1.460809559717806,0.02713215018938398,-1.3530683919210427,0.04312636077271244
5.13,1.3187000273594671,-0.31830824159122967,-1.4655158813012021,0.02649923479473053,-1.3541330460846681,0.044137972036585225
5.14,1.298264541768187,-0.31450771040663456,-1.469298900703483,0.02626561847418418,-1.3554648061376977,0.04540188027884127
5.15,1.278753090290174,-0.3116865254155894,-1.470625231223104,0.025962597979443208,-1.3552643655489922,0.04352877270635442
5.16,1.2579576133784847,-0.30765706097855927,-1.4728251818066866,0.02675661011628842,-1.3589957401627228,0.044024930377208706
5.17,1.236742369871983,-0.30216991326062853,-1.477762056552945,0.02587591132405154,-1.3586901848587507,0.04455842563627566
5.18,1.2143389363002612,-0.2998302042713983,-1.4805916800768448,0.026496818970699113,-1.3591759634611407,0.04508667794695131
5.19,1.1952781800653614,-0.2945289344541924,-1.4844522698588012,0.024904533651915688,-1.3625304154427713,0.04327995137886378
5.2,1.1750388204234905,-0.2911130850996916,-1.48631975000179,0.025120092476658373,-1.3628149089277148,0.04481898767437729
5.21,1.154599066824965,-0.28703966555206595,-1.4905776338742434,0.024574692222161198,-1.3636486951409743,0.043712706209080375
5.22,1.134746076348724,-0.2841030854285969,-1.4934010719253,0.022882344752756578,-1.364322200445393,0.045191280905907794
5.23,1.1154178815997076,-0.27803208994056877,-1.4960768172356018,0.026125282371472904,-1.3668091539031793,0.04444850472385588
5.24,1.095040735475581,-0.27565929629470065,-1.4981238070802787,0.022999416079861376,-1.3662324722570334,0.044399358064392144
5.25,1.0762611406845577,-0.2730467169299901,-1.5013993475463931,0.02260498132415083,-1.3694742158095907,0.04347826983304809
5.26,1.059199328680469,-0.26879223305566635,-1.5059166628310094,0.02173974303207929,-1.37013658881893,0.044598508323203244
5.2700000000000005,1.038407101705327,-0.26432163039561485,-1.5080566434810088,0.022277396733518227,-1.371991518702175,0.04354667238655006
5.28,1.0183966894115533,-0.2623412113575771,-1.5093808991060231,0.02221675447729201,-1.3714969861656237,0.04408807580557889
5.29,1.001376217939332,-0.2592768018062701,-1.5123380994077404,0.02141031732371739,-1.372910749547356,0.04435216376215071
5.3,0.9815705628827273,-0.25552757282032046,-1.5164593491701217,0.021393189890481355,-1.3739505521957722,0.042793956539122845
5.3100000000000005,0.9635486645990915,-0.2513780355191842,-1.5188604686725944,0.01936070623915795,-1.3768741675361806,0.04323813523778798
5.32,0.9466986279171695,-0.24835108773971523,-1.5213234823051187,0.021126975472596628,-1.3778349124262406,0.04374321567792796
5.33,0.9299879216766057,-0.24430827513455808,-1.5243589507582096,0.02087735019498788,-1.3780167194457122,0.04485573145088799
5.34,0.912196052288694,-0.24091456224512672,-1.5260368663838217,0.01980546535905143,-1.377893783354243,0.04338232320664181
5.3500000000000005,0.8948493002956064,-0.23739194782315998,-1.5283985027452514,0.018300124969590915,-1.3789165588174426,0.04423723440090156
5.36,0.8769249495790716,-0.2330586189169757,-1.5295804058884028,0.019743209859948086,-1.3795619919578845,0.04387471087343708
5.37,0.8601597507953136,-0.23255000846694673,-1.5337831505026929,0.018031874159338438,-1.382592160460417,0.04371587147688816
5.38,0.8459623140915603,-0.22909009712744957,-1.5368311113997206,0.01955106073228926,-1.383702402514105,0.04450055905162415
5.39,0.8291025249690936,-0.22428256023213394,-1.5378725796503647,0.018570864418672624,-1.3829235588310105,0.042708027279196537
5.4,0.8148876594314703,-0.2224953471179729,-1.540950887082217,0.01784550231219111,-1.3842291427036013,0.043978986171691305
5.41,0.7978642405908488,-0.2199783374230519,-1.5427190272526776,0.017484209878109776,-1.3845673616844576,0.043618382099888435
5.42,0.7823581340701665,-0.21506397734902197,-1.5460614637304602,0.017328210861960076,-1.3870353689700625,0.04506536300246758
5.43,0.768106399828851,-0.21336669720903223,-1.5478568542751938,0.015790267352577554,-1.387063720915406,0.04501066121407383
5.44,0.7540375369240531,-0.20995175132793434,-1.5525161259916604,0.016429003710218538,-1.388488721235289,0.042863846943272964
5.45,0.7413145008508634,-0.20786554880478325,-1.5523910730612256,0.01585946625185278,-1.3907330244116987,0.042564952011792626
5.46,0.7274292510495333,-0.20676700595981193,-1.5549770335366684,0.015571583782674321,-1.3883645833678795,0.0441987707331969
5.47,0.7126419883335855,-0.20119345295828403,-1.5569788210858015,0.016538974806222528,-1.3918788658313523,0.04444044360007557
5.48,0.6996324356167299,-0.20069736775899744,-1.5584981309514931,0.015644608819668025,-1.3919123756275273,0.043963653816649226
5.49,0.6866605406968818,-0.19678881297906559,-1.559850074700066,0.015099928845945531,-1.3926340028377597,0.04358945299100105
5.5,0.6751583119768683,-0.19312417831350015,-1.5612944588414575,0.015761672842033034,-1.3903022255980846,0.04388502433615867
5.51,0.6629385854972111,-0.19196564920377573,-1.5648235918998479,0.014285848389715727,-1.39416811353253,0.04397806294570459
5.5200000000000005,0.6505319492982381,-0.19017970625586383,-1.5647732290190197,0.015196169551770363,-1.394576638665195,0.04280697391184282
5.53,0.6401755026409146,-0.18740936710366424,-1.568853039739146,0.013945825792557492,-1.3949802529844166,0.04405065137373316
5.54,0.6288139143787816,-0.1856857126479859,-1.5686194621682308,0.014057752257559996,-1.3963818991538637,0.04312293756226561
5.55,0.617206493780536,-0.1838770893078722,-1.5724041110449312,0.013444117434261818,-1.396393868019846,0.04308593409171553
5.5600000000000005,0.606481007862722,-0.18139912134458677,-1.573278094381303,0.012166002103854656,-1.397375662994384,0.04397943748453626
5.57,0.5980124779837441,-0.17918550443138356,-1.5751450538705367,0.013186266231327152,-1.3974565895135473,0.04344935086114179
5.58,0.587191146864552,-0.1787763712701241,-1.5752835852888916,0.013564718997344643,-1.3975485138512784,0.04257360916199372
5.59,0.5769373807863654,-0.17850867883949037,-1.577308364271105,0.012555719693473674,-1.3997270859139281,0.0434042184515971
5.6000000000000005,0.5680449704004671,-0.17635870403352363,-1.57795305381857,0.012025244369600827,-1.398961564426077,0.042124637760316865
5.61,0.5593117707718918,-0.17293714235855331,-1.5792010852657092,0.012772732371373802,-1.4001359853450526,0.04188678766193102
5.62,0.5495239988384876,-0.1715671277110878,-1.5807468060077123,0.01196820521034397,-1.3998754955974917,0.042968549320445554
5.63,0.5418330408517579,-0.16973228869187645,-1.5817661643891223,0.012624117038398372,-1.3992696337836914,0.042613860478218656
5.64,0.534806157625345,-0.16761392300164044,-1.5831573100967307,0.011751812259263429,-1.4027285834882879,0.042737783581937576
5.65,0.5264596047918232,-0.168052531745502,-1.5849550339916711,0.01112945309315948,-1.4013150745058367,0.04369469432176833
5.66,0.5194631357117301,-0.16539626771624388,-1.5869566245214446,0.011472753283358336,-1.401904550244424,0.043877199924550976
5.67,0.5128115085953282,-0.16293756144291963,-1.5876829249446363,0.010682674183867159,-1.4020420653963892,0.04460338390474381
5.68,0.5073698443559852,-0.16263934439189687,-1.5892524601247537,0.009880104921038791,-1.4029376686163242,0.042820918105895125
5.69,0.4998001317276819,-0.16135735079255412,-1.5881647146002367,0.012349006263589837,-1.4033014250571887,0.04419426996828579
5.7,0.4949148951068074,-0.16038663727010807,-1.5882171383415442,0.010556989567858322,-1.4013156075783066,0.04343924380183701
5.71,0.4896959347631667,-0.15875949694906563,-1.5883415031537433,0.011994516581435388,-1.40550464111453,0.04432656727202998
5.72,0.48383039980343334,-0.15811542215619662,-1.591883256207584,0.011660211282545008,-1.404986190055786,0.043179815736155834
5.73,0.4789481859265497,-0.1555788053204482,-1.5897786293366603,0.011145609633011243,-1.404657505292798,0.04275764977049057
5.74,0.4755283762368028,-0.15665308179594717,-1.5925728041664977,0.011868825849273646,-1.4054607561041093,0.04304226874534346
5.75,0.46884377648701764,-0.15491540963646727,-1.5911639095764556,0.011559765067479622,-1.4039754198984349,0.042329056029371155
5.76,0.46637809061110813,-0.15557229450233495,-1.59366566986585,0.011525391553674503,-1.4054050669748275,0.04182737752698345
5.7700000000000005,0.4612537840161337,-0.15522804019985073,-1.5936049951066327,0.012579207206615855,-1.404530931205982,0.04139880565792729
5.78,0.4601457421525673,-0.15253203694254186,-1.5959080446681186,0.010445483541851559,-1.4049733880124406,0.0435274278724762
5.79,0.4545351960875434,-0.15219426413547643,-1.5969102281754066,0.010452796291432087,-1.4051298229720537,0.0430573361648308
5.8,0.4522744508495681,-0.15137932298407003,-1.5946405285718472,0.011732705298617203,-1.4055377362916863,0.043979629530113924
5.8100000000000005,0.45063412407633513,-0.15140052977428198,-1.5958213449175385,0.010329579831366521,-1.4075214726339107,0.042197406792866224
5.82,0.44727727066303835,-0.15094540548320468,-1.5950136941039303,0.01045205325046834,-1.4057358884939841,0.04396851396713322
5.83,0.44508568018416467,-0.15020637715897509,-1.596819738982724,0.01159879248946401,-1.4061907027126002,0.04198372336382293
5.84,0.4434192064962381,-0.14889992828101997,-1.5970675247417823,0.010796604435691156,-1.406389641810145,0.042114381960760415
5.8500000000000005,0.4419312632927441,-0.15120912449102691,-1.5977248898412808,0.011309751621339249,-1.4066621225205802,0.042750078179184685
5.86,0.4402892649260487,-0.14973964274259277,-1.5974064263146495,0.01091331930006826,-1.4077032493159447,0.04304813587790745
5.87,0.4382374880499298,-0.1508031477227598,-1.598429612670659,0.011681606375391368,-1.4068160536957035,0.04185539020993207
5.88,0.4359614800912589,-0.14928528909418065,-1.5964450593795134,0.010126669866939065,-1.4060833935129902,0.04331539265001336
5.89,0.43668662695487476,-0.15015452749188352,-1.5971442340286934,0.009977309379029988,-1.4065325253493606,0.042295926600563215
5.9,0.43556173770262985,-0.14851443897385244,-1.5982273384891006,0.010605726967123518,-1.4075702219914894,0.04243845263836242
5.91,0.4360899903584619,-0.14776783778549327,-1.5988649067486687,0.01073477481195759,-1.4080289057890691,0.04196974117924758
5.92,0.43500990531097017,-0.15005834482823738,-1.5974794872692255,0.010006858932817284,-1.4076002389998181,0.043360104695304436
5.93,0.4341575563797064,-0.1492042331719672,-1.5977307619017502,0.010317432745074209,-1.4085391561245997,0.04285346408149667
5.94,0.43450848431758876,-0.14695309633575981,-1.5977833098528316,0.009172968153989354,-1.4070357194993766,0.043743599794801885
5.95,0.43368498977959374,-0.14768276048736184,-1.5981301102604195,0.01014365375286994,-1.4080098228577351,0.041344370697298904
5.96,0.4331778359972438,-0.14817259795245885,-1.597986140136856,0.009036304606737721,-1.406926242302137,0.04479325482723155
5.97,0.4328455901897233,-0.14836867417235713,-1.5982187467682851,0.011975049910315888,-1.4083886785662236,0.04317747008229147
5.98,0.432025194017206,-0.14878178838037512,-1.5985398132215807,0.011376209535040009,-1.4059269591419654,0.04339111916955423
5.99,0.43237425923571116,-0.14612523375518147,-1.5988726755852647,0.009701646340192356,-1.409048756193974,0.044218324937836506
6.0,0.4335449536777401,-0.14619006663609105,-1.5997125878764777,0.011472494082348742,-1.4074387952140959,0.04370345514421012
6.01,0.4312620431774314,-0.14701885692529054,-1.5978136346533585,0.010166044589045749,-1.4069370329776962,0.04233197932941338
6.0200000000000005,0.43219434313442806,-0.1487044317204198,-1.6001168100664964,0.010952026154043861,-1.4064601384043387,0.04238796176985103
6.03,0.43300386445468053,-0.1485317277789794,-1.5982135269256559,0.009652335541514245,-1.4082709338834336,0.04391810853693291
6.04,0.4326442623997201,-0.14653537704867792,-1.598459586931893,0.009391844453273351,-1.4064292920989443,0.04355047698932343
6.05,0.4333343162357451,-0.14726100490386373,-1.5990696722336213,0.010088950538707453,-1.4076496182030724,0.04187361115610539
6.0600000000000005,0.4324699742001956,-0.14713378892020162,-1.598292883432418,0.009025339894766907,-1.4088577260182922,0.04445279117667659
6.07,0.4326211817946952,-0.14886497198502532,-1.5987391029210403,0.008910805781095954,-1.4062581152035931,0.042656996605224394
6.08,0.4338932829427918,-0.1482549253759297,-1.5972524980140623,0.010424008209002964,-1.4067554140373688,0.04362752706412184
6.09,0.4332439240652181,-0.14799636988959783,-1.5987032005830921,0.011871532098743426,-1.4082914518249017,0.04300375912709432
6.1000000000000005,0.4327129903767207,-0.14794880419049744,-1.5988747855859056,0.010474667967051328,-1.4076473429514684,0.04161948599802478
6.11,0.4327083359423137,-0.1492604244347342,-1.6000135371027222,0.010319444505208393,-1.4070742414658062,0.04345963074992663
6.12,0.43319494981291784,-0.14998650207516534,-1.5996877113283683,0.01192222234655439,-1.4084138620409536,0.04353305935998062
6.13,0.43210053383730557,-0.1482304724187849,-1.5990526185415883,0.010690037101678169,-1.4073806420660657,0.0426087933723444
6.140000000000001,0.43178355193994616,-0.1480663229300935,-1.5995582967972062,0.01057304758374326,-1.405207959529168,0.04417824564281713
6.15,0.43332687679005233,-0.14837470646046588,-1.600191880836145,0.009046087436860627,-1.4063805520519972,0.04231080780570892
6.16,0.4320897874292779,-0.14844455731040904,-1.599426810201268,0.009129442321077482,-1.4075440469378464,0.04222199378187317
6.17,0.43205333929822026,-0.1489817177746649,-1.5980441547193585,0.009997432121119537,-1.4076558334395757,0.0435209335682156
6.18,0.4325760470584046,-0.14854282222078297,-1.5980894546164062,0.010783112621240333,-1.4076283458404428,0.04307034355436434
6.19,0.4320177593215615,-0.14905108764596525,-1.5978287921828596,0.01058828519860091,-1.407102677158522,0.043245091655190235
6.2,0.43274031996440887,-0.14769226597775514,-1.5976839636627953,0.01099519644634784,-1.4075879453223277,0.044210379491906676
6.21,0.43289936955537894,-0.14774814766642505,-1.5982538318762463,0.010415554016005468,-1.4081420647353984,0.04361204406703698
6.22,0.4351829877689839,-0.14862707040376724,-1.5984380454232159,0.00981061244987043,-1.4079258777048758,0.04434778642619394
6.23,0.4321127219985079,-0.1487137132589828,-1.5998853488312947,0.009538859047751274,-1.4089908601536376,0.04355135361154103
6.24,0.4351431967289999,-0.14861998761232212,-1.5999545206882209,0.010985397870557148,-1.4081343616974127,0.044133894103192066
6.25,0.43245388322649003,-0.14885136320201256,-1.5986552972638282,0.010861284973671722,-1.4076984619396824,0.04256652592301297
6.26,0.43252648669355,-0.149409903028905,-1.5981535245652752,0.008640786905223144,-1.4078875690828712,0.04366268860925206
6.2700000000000005,0.43296445951648455,-0.1477848481179564,-1.5985567630576558,0.011220796113541338,-1.406693047721291,0.04338933147261379
6.28,0.43350943638885453,-0.14764513190955691,-1.5988835042625142,0.009027226958850887,-1.4071331648426681,0.043476552754384584
6.29,0.4336516163323073,-0.14911709445530058,-1.5992910103213362,0.010601338693893467,-1.4075621049137108,0.041354362549391135
6.3,0.433027343625431,-0.1499165439502974,-1.599324891955312,0.011379564519714301,-1.4059074926344353,0.04193913968986634
6.3100000000000005,0.4324125516571971,-0.14826280483183846,-1.596945586269426,0.009769890703981203,-1.4079161598176044,0.04435151801024824
6.32,0.4323729347642153,-0.14766976011575025,-1.5997890504131942,0.010050571241418203,-1.408948271454224,0.042078960274277516
6.33,0.43343234133673025,-0.1483435506694479,-1.5987784722917333,0.009546592689423176,-1.4076925587496292,0.043262770809350745
6.34,0.43355775620369846,-0.15059087264926502,-1.5992258485540571,0.010338837662687424,-1.407586274344116,0.043352012177820726
6.3500000000000005,0.4329334729437318,-0.1485660473996377,-1.5989597661472317,0.009985759534278223,-1.4064975331869247,0.04236120257100388
6.36,0.4326451907944375,-0.14814000373539157,-1.5971383369393568,0.009937931606142349,-1.4066632833481285,0.04407510484518648
6.37,0.43264436390818617,-0.1484838869990665,-1.598787153499651,0.009976752200234775,-1.4067545350915578,0.04320159423540329
6.38,0.43290532900605366,-0.14928194275384882,-1.5993442943665286,0.012070510221688814,-1.4076551822200516,0.04232388388624553
6.390000000000001,0.4339488696181038,-0.14805407564826026,-1.597995464655706,0.01007953120067944,-1.4077780947334035,0.042852007971670436
6.4,0.4314933333117643,-0.1483767311398563,-1.5982416624055398,0.011814833805883765,-1.407424951658101,0.04096304626444837
6.41,0.4326179822374498,-0.14590933165026335,-1.5977439528335702,0.009492365903126042,-1.40698416225466,0.042352471132083715
6.42,0.43151858006728244,-0.14860400962007553,-1.5984201281141328,0.008566236118660427,-1.408502830662489,0.043009019480378996
6.43,0.4323438017080335,-0.14795546216972583,-1.5995599980815614,0.0108231818073007,-1.4085330246897068,0.04443355611521311
6.44,0.4312027184384614,-0.14925343346374573,-1.5981357752642702,0.011652317487990232,-1.4072250730867146,0.043491186196405504
6.45,0.43271530383373963,-0.1491957016230845,-1.5989277263983532,0.00914240925747021,-1.4086158849557888,0.043350592070422925
6.46,0.4317198423063329,-0.14802113652223686,-1.5996360546651816,0.010458642977402099,-1.4079264559912754,0.04422750361859504
6.47,0.4329824980289387,-0.14722157598387156,-1.5991594261591753,0.010248994307016408,-1.4083561600579082,0.04263906133552997
6.48,0.43247127091648624,-0.1489334307926829,-1.5995607263477132,0.008966473433414146,-1.4095418154143213,0.04207816380850332
6.49,0.4332475917266546,-0.14969495312359637,-1.5996939124119438,0.01176285383186383,-1.4080554475872895,0.04328016549551571
6.5,0.4332605274524224,-0.14772183688274107,-1.5998284697787037,0.009998362390857487,-1.4089121696949327,0.04513481505941616
6.51,0.43130820877421566,-0.1492144130927048,-1.5994080955558025,0.00889391734483589,-1.4063196391416162,0.04511398459159664
6.5200000000000005,0.43228483057272654,-0.14945228657159895,-1.6004520857537292,0.009986974956448263,-1.4077760809136817,0.04243163690947652
6.53,0.43289318635321616,-0.1479551463771208,-1.5982180566695456,0.009924129006835218,-1.4084613464018958,0.043581048991274025
6.54,0.4327109203151854,-0.14752476181283838,-1.5978105290161104,0.008959278535758045,-1.408751594986268,0.04234066634125466
6.55,0.43177823454252023,-0.1476409184913841,-1.598193424472995,0.011159218988838728,-1.4071539999797713,0.04318208110932999
6.5600000000000005,0.43374696174006167,-0.14789008556674946,-1.5984405706982117,0.01149193899316149,-1.4073994857176815,0.042734412719833546
6.57,0.43196886127922707,-0.14768649455071564,-1.5974204697515635,0.010155854164247928,-1.4063586283013383,0.04128083756891573
6.58,0.43265160780141293,-0.148334989411476,-1.599134422272099,0.012280311201139666,-1.407557763969049,0.04264418777869028
6.59,0.43272265621800954,-0.1500477847020726,-1.5991631098588783,0.011058038740201538,-1.4080488583629351,0.04227666996605656
6.6000000000000005,0.4338427766998225,-0.1471304073944523,-1.5980488407029674,0.00980283520190632,-1.407708977927477,0.04229824677453655
6.61,0.4318318966881308,-0.14921142532415493,-1.5990393542177432,0.009297035593652681,-1.4088645901424433,0.04319146494874357
6.62,0.43290472326486096,-0.14681577832356746,-1.59908323525226,0.010458396510301133,-1.4072271067939626,0.04277848493965635
6.63,0.43334955359284333,-0.14762348491159483,-1.5982142799190622,0.00997691227240444,-1.4078120038784645,0.0418064095554501
6.640000000000001,0.4319967040631381,-0.1488428039632131,-1.5994808503976918,0.01058390608385668,-1.4064557451882527,0.0422075660371094
6.65,0.43294734931451617,-0.1492024322108172,-1.5987660947922608,0.009597573795972047,-1.4069747469589196,0.042407645572142716
6.66,0.4335828402565634,-0.14851443182704765,-1.59906688617828,0.00910628483197528,-1.4072790373807222,0.043781225432164485
6.67,0.4329385177921128,-0.14634625080115785,-1.5972522750675344,0.009931631398219481,-1.4077775312915801,0.04340988771204178
6.68,0.43196869030533536,-0.14728222145117495,-1.598184444015845,0.010423802619528003,-1.4069005198344373,0.04450345269582699
6.69,0.4328491866884789,-0.14839864633296904,-1.5971833937541786,0.011044347021904306,-1.407780107752361,0.04300452603027927
6.7,0.4328705020139347,-0.14798425864201534,-1.5996838567015477,0.00885392824662647,-1.4082743938816644,0.04215810688744442
6.71,0.4321381575576387,-0.1477461104749041,-1.5986474184990243,0.010371386624529078,-1.4085684062774315,0.042597141179643486
6.72,0.4332124789877505,-0.14778080603559904,-1.5991323099487829,0.010341077045947724,-1.4055811432603162,0.0429846429096478
6.73,0.43209508027289845,-0.1484516362905251,-1.5984195602989346,0.010068080701602086,-1.407527362138139,0.041740355040804304
6.74,0.4318599464364856,-0.14843031957880717,-1.598644223511249,0.009705906648210692,-1.4076544734948897,0.0430532455059803
6.75,0.4334761596613948,-0.14838657857181556,-1.598151716750614,0.009727364575509217,-1.4070007522993313,0.04332788653964169
6.76,0.4334555678712619,-0.14767738829237712,-1.5979862312478472,0.01011411460888205,-1.4072862502010393,0.043928086621291794
6.7700000000000005,0.4321309575897698,-0.1488483892391702,-1.5983416712369636,0.01056239989558972,-1.408219168589962,0.042934757355560335
6.78,0.4326179705948434,-0.15023319659356205,-1.5986916319065076,0.01006271429223461,-1.4076398819809985,0.044235618300868015
6.79,0.4316390158325437,-0.1490196189476891,-1.6007795708693717,0.00978032103737734,-1.4078452641341894,0.042554960958147175
6.8,0.4336666308311861,-0.1475489695317432,-1.598432057190836,0.00987657909824297,-1.4066044805770794,0.04298275801463584
6.8100000000000005,0.4319859246825225,-0.14979770951025517,-1.5988851195477627,0.010858550789941083,-1.4055133452159219,0.04305376516971499
6.82,0.4320321013156426,-0.14933407722030698,-1.598018328486848,0.00866008199261749,-1.407019733297913,0.043713587993052964
6.83,0.4330807256458857,-0.14849169097078815,-1.598006996275862,0.010349171869709243,-1.4081790411514368,0.044614789377245945
6.84,0.4323931018457213,-0.14762302840886143,-1.60061063912844,0.011313930985518292,-1.4062182618360928,0.04302603489068494
6.8500000000000005,0.43318761971604747,-0.1478126035579287,-1.5990609344833977,0.010677454282050929,-1.4082056632065612,0.04246875936690386
6.86,0.43368344341659143,-0.14744945071086984,-1.5991164289133675,0.009559833874558298,-1.4080633893176286,0.04363934863326033
6.87,0.4318273486552512,-0.14798870949826723,-1.5978482532073206,0.010122991317124021,-1.4066185531417421,0.04273443927975505
6.88,0.4325133757819412,-0.1491528082167978,-1.5976123453103663,0.009531084720818005,-1.4071947665075093,0.042937764990953954
6.890000000000001,0.4317812734619735,-0.14883154276719826,-1.5972932163147158,0.010375979404022627,-1.4083806498052238,0.0432664491956855
6.9,0.4325724914532656,-0.1452857758882087,-1.5982511825096322,0.009867842160189603,-1.4062607918682188,0.04139339286162213
6.91,0.4327823098639923,-0.14655953280361103,-1.598601403005027,0.00868740949213169,-1.4078455036023378,0.044269306442219644
6.92,0.43302818263362214,-0.14903204005307316,-1.5990979871580442,0.009711569372206538,-1.407184795383601,0.044167796427861755
6.93,0.43361841233485515,-0.14790205429964956,-1.5996620792764966,0.009041160269326439,-1.4070346498243453,0.04182585496753239
6.94,0.43250315563992187,-0.14803457866463204,-1.5994927380384998,0.00930616249306374,-1.4075821361236096,0.04343951778979554
6.95,0.4336263498807721,-0.14777024594138566,-1.598435722495079,0.00954882223446609,-1.4084345426530063,0.04255417563678272
6.96,0.43305773628394995,-0.14800624039895427,-1.6003325101810035,0.009514367449972376,-1.4064488688679668,0.04306912817006534
6.97,0.4314634264468123,-0.14624415818964442,-1.5985252564260062,0.010535394650862246,-1.4071513488781893,0.04267921244000506
6.98,0.4320650721850679,-0.14644848929266988,-1.5976245377249918,0.01091727552019866,-1.406997092808043,0.04212444040478357
6.99,0.43381485540697506,-0.1490357720456698,-1.598252785632242,0.008769362421284236,-1.4092809853256132,0.04327776147332146
7.0,0.43199392769059874,-0.1500358761746518,-1.5980282292103003,0.012050119493152819,-1.4062873799166458,0.042775447783892244
7.01,0.43271061911509046,-0.1475258889373733,-1.5975203224849717,0.00990026497970493,-1.4074700005023002,0.04326234111861813
7.0200000000000005,0.43320637503444476,-0.14842056781373678,-1.5986013316595757,0.01140457906628391,-1.4064431139995068,0.04341666069203469
7.03,0.4342773352093299,-0.1486520985761965,-1.5970720906762392,0.010674935317377513,-1.4046408685875376,0.04195950178511724
7.04,0.4322798754252108,-0.14796948963756493,-1.5981260647449238,0.011905348980867585,-1.4080723924931073,0.0437900163813139
7.05,0.43406613043696635,-0.14775284109116044,-1.5992857446129196,0.011435346750734496,-1.4064061336830376,0.0435238680874353
7.0600000000000005,0.4334814179801116,-0.14821888484629964,-1.5984780244169872,0.010770929328427126,-1.4074366845036193,0.04226060585209463
7.07,0.4327352959002528,-0.14913938814864477,-1.5981632487013118,0.010194974881988205,-1.4072551186277182,0.04343874944005673
7.08,0.4335602956002445,-0.14729220758311196,-1.598521943407161,0.009849164357628566,-1.4069946683571721,0.04139987181158438
7.09,0.43399907035276464,-0.14782707431935857,-1.5997171136584212,0.01121398104320638,-1.4060620807975832,0.04268116295652913
7.1000000000000005,0.4356618876795473,-0.14784503178764022,-1.5985002694747035,0.011009971687569476,-1.407923434499791,0.042588077498313004
7.11,0.435577830693644,-0.1486898753632607,-1.5969518584883922,0.01010892387702461,-1.408395089775276,0.04206158399925575
7.12,0.43765004582302897,-0.14757811246605004,-1.5974638617623276,0.009952016151126333,-1.4065553441445635,0.04279927312826885
7.13,0.43817987732945857,-0.1502558611038901,-1.596397260008484,0.008097211155127734,-1.406455524622528,0.04260574509724758
7.140000000000001,0.43954156434497643,-0.1482103787908971,-1.5980406000711878,0.009746664712147591,-1.4071822916583188,0.04337408569779974
7.15,0.44109999462025073,-0.1513662248743634,-1.5979343939936987,0.01148918097086349,-1.4069081960565102,0.04340943310713172
7.16,0.4430501166060946,-0.15091369777469701,-1.5954454153122402,0.010241670989850809,-1.407252924172016,0.04397557076353512
7.17,0.4446572772849038,-0.1512443397848898,-1.5965982787565967,0.010445246974223717,-1.406519027061758,0.044847942047970886
7.18,0.4478168066755852,-0.15323135581376499,-1.595986290745467,0.01052158474392404,-1.4065736694568098,0.04324126289024922
7.19,0.4499695141769821,-0.15167815994606412,-1.5953644742593012,0.010063573259252893,-1.40729049405253,0.04566982046387113
7.2,0.4520851525315554,-0.15206803282275178,-1.596796369793449,0.010691117865861334,-1.4071151369261632,0.042649821514813925
7.21,0.45658958799752797,-0.15231533115698925,-1.5945488761319833,0.00910157751424352,-1.4045198841542483,0.04200117152513265
7.22,0.4602395404018796,-0.15245773526649353,-1.5940556982079146,0.00996396189323532,-1.4057971245727054,0.04263612756182554
7.23,0.46242670520549695,-0.15424080197565698,-1.5958128916725,0.01175706080012789,-1.4057906796663553,0.04263029671332135
7.24,0.4656828810148467,-0.1544364172075348,-1.5942468564718904,0.008883497978306303,-1.4051386344446308,0.04351314220020599
7.25,0.47004951883713053,-0.15653166587388373,-1.5927800245975188,0.009652331605810506,-1.4061475081267367,0.0424123118995975
7.26,0.47529967944374385,-0.1566824828097655,-1.5925959552060298,0.012720633486800812,-1.4046834199721328,0.0433710447460586
7.2700000000000005,0.4788734843162617,-0.15777912835540858,-1.593416477338371,0.011950404828701246,-1.4043221123566572,0.04292718841259226
7.28,0.48400813530100534,-0.157566525540454,-1.5921236370028584,0.010686244823616893,-1.4054093700674255,0.0446383347219318
7.29,0.4901277521528771,-0.1611399415806681,-1.591300619977695,0.011187430009885273,-1.4045162473998822,0.04194606680932003
7.3,0.49660504421077256,-0.16001324597285518,-1.5887315705286913,0.010806943345643822,-1.4031413732139855,0.042779779661920564
7.3100000000000005,0.500517891408618,-0.1608813389609406,-1.5896867542228668,0.012918517662908292,-1.4032614684215514,0.044240128355144855
7.32,0.5060007629348604,-0.1634097525659337,-1.5883507501439285,0.011863448849704026,-1.4029930184479493,0.04272811096498196
7.33,0.5125488172472455,-0.16496079173139908,-1.586402544405693,0.011365133717711716,-1.403259667172518,0.04449514579062293
7.34,0.5201800764867499,-0.16406085385374428,-1.585800352200263,0.01211775387525413,-1.4023011395925582,0.041675850871819915
7.3500000000000005,0.5286430472200836,-0.16666372694380818,-1.5836093004364171,0.01138694413422084,-1.4019683782336458,0.04241367134781398
7.36,0.535948892007774,-0.16771403037459495,-1.582816555080218,0.013373923267168651,-1.4003675034085366,0.04385145818941709
7.37,0.5414344821567377,-0.1700966984530121,-1.5828393219434647,0.012975494555401422,-1.4007599068934702,0.0419841429844001
7.38,0.5506483955753834,-0.17236144921640775,-1.5807859682326808,0.011054416650622033,-1.3999596068863285,0.04354205015316893
7.390000000000001,0.5609505842855389,-0.1719501267109829,-1.5798346538696644,0.01337781430019623,-1.401133004423624,0.042387522371572374
7.4,0.5683845137031572,-0.17627059613475046,-1.578173548902486,0.011945012315764848,-1.3992970009166037,0.04230276160418114
7.41,0.5776088133170324,-0.17613228643599882,-1.5755439865964824,0.013019235009598685,-1.3995080979663528,0.043044246033414245
7.42,0.5855474473059056,-0.17762167347875893,-1.5748255173795052,0.015352698168174219,-1.3988117019571122,0.04304303605303968
7.43,0.5960373660442961,-0.1796829359549684,-1.5735306641981475,0.013342466562721006,-1.396732547059773,0.04275595718761917
7.44,0.6075570014645911,-0.18135504612363212,-1.5723470246967493,0.013311902887780872,-1.3949541604219873,0.04259964732400371
7.45,0.6174499165882014,-0.1845015155974738,-1.569200390208716,0.014564889046624126,-1.397034888648392,0.04377879924869943
7.46,0.6282445829383088,-0.18638430752700952,-1.5684685638932283,0.01434151538242681,-1.3956056199849387,0.043314351905226804
7.47,0.6395609545493784,-0.18788453606379024,-1.5673997475721901,0.013659712242950851,-1.3936466025901528,0.042454329902924026
7.48,0.651057128278452,-0.1905797917173696,-1.5641867175385817,0.013654491184758597,-1.3950771487058935,0.04254532901501832
7.49,0.6627979307563813,-0.19377823099561267,-1.5643606978722786,0.012794932129430416,-1.3935165903076387,0.042976393323848984
7.5,0.6733795505180942,-0.19397606457637462,-1.563255412457308,0.015605425504699275,-1.393609234465974,0.044832400312498875
7.51,0.6878234050770476,-0.19820987774041846,-1.5610362917528737,0.0156815146674458,-1.392477792220523,0.04330942948358603
7.5200000000000005,0.7010970919330479,-0.20045318278590774,-1.5582289685560486,0.0162356502713141,-1.3907745379630503,0.04334094985871366
7.53,0.7128760934007276,-0.20384925866116396,-1.557254346765745,0.01593618993879472,-1.390813346636608,0.0435692356666928
7.54,0.7274974586244876,-0.20596186154458762,-1.5545144034338159,0.016085086718406815,-1.3905006759611456,0.04477723685588897
7.55,0.7411636488426654,-0.2073276583930017,-1.5506704321316682,0.014880596242269468,-1.389067029458071,0.04387248584914002
7.5600000000000005,0.7536674460642163,-0.21003415554515284,-1.5510824663868763,0.01706560079028142,-1.387292405323624,0.04381577657300219
7.57,0.7672544758309784,-0.2139159207054299,-1.5474578185133958,0.016761875540878,-1.3897031144030096,0.04468857807223004
7.58,0.7837036266003602,-0.21662186203108338,-1.5448699918464657,0.01643849134073849,-1.387071141839786,0.043943160747652255
7.59,0.800154852971091,-0.21738350878511542,-1.5431663875865578,0.01772554622406894,-1.3848796690759568,0.04256049376022051
7.6000000000000005,0.8144779334677282,-0.22239183194853207,-1.5408994554569506,0.017421637047827596,-1.384215105222672,0.04378800071611883
7.61,0.8268438075458663,-0.22460274267075592,-1.5382697943830832,0.018313119938052447,-1.3838064733816287,0.04514603863804407
7.62,0.8456968389018308,-0.22744038499941807,-1.5355279006510212,0.018549872081769427,-1.383547704708862,0.041613698423269105
7.63,0.8611933208311747,-0.2302766595403877,-1.5343138862571009,0.019247633148788627,-1.3816642522765297,0.04489467798385123
7.640000000000001,0.8778165583286134,-0.23370495622594276,-1.5310885518905595,0.02017933963017636,-1.382296593092725,0.04340017360317306
7.65,0.8955538112085119,-0.2359892160922687,-1.5288034860031294,0.018939330017717946,-1.3791433282948558,0.044588371872527545
7.66,0.9115078453417806,-0.2403271263372745,-1.5254252709593679,0.02117555709422883,-1.3781366266004051,0.043899363414110604
7.67,0.9290464632315371,-0.24345684684799948,-1.523959273109811,0.02002750111050016,-1.378672678917725,0.045023773646074135
7.68,0.9456283583669547,-0.2476979134695846,-1.521137258491919,0.021940677696103274,-1.3770677557874516,0.04334216514728205
7.69,0.9639241568725128,-0.24929923244346386,-1.5210028969230713,0.019674265825708352,-1.373249694223664,0.044470963713030755
7.7,0.9814667770578267,-0.2542568668402372,-1.5157790994738305,0.02163859013376498,-1.3729475022351858,0.04432678668262409
7.71,1.0002272711817632,-0.2570529260964031,-1.5137006257824377,0.020353994034043258,-1.3749938161295643,0.04265469868699201
7.72,1.0184152455936635,-0.26233196190937386,-1.51003624664459,0.020569151859046942,-1.3750926538631563,0.04314278380517385
7.73,1.0375111751831887,-0.2654404423312791,-1.506167861266734,0.02144488951318023,-1.3704582618530308,0.0440708474553228
7.74,1.0568308574523135,-0.26929131260701306,-1.504696500734357,0.021681383875669195,-1.3699432131849707,0.04391528464434448
7.75,1.0752007542742248,-0.2713878756938915,-1.5013920682969073,0.02233093364035836,-1.3688164598781958,0.0440827226326546
7.76,1.0946307462692941,-0.275922692074987,-1.4993949536595488,0.02227421655414651,-1.3691990844632673,0.04387771699130437
7.7700000000000005,1.115443657324908,-0.280359360228177,-1.4937119359024944,0.02425247709707406,-1.3654723542636231,0.04491978695869695
7.78,1.1363177740298187,-0.2842456783693262,-1.4951762730888327,0.023474712770538985,-1.3649396598426051,0.04439351865296268
7.79,1.154876710056193,-0.2862472698335992,-1.4896105452103254,0.024949245989994893,-1.365051922779034,0.043341202177926884
7.8,1.1761563241229527,-0.29118692279956826,-1.4874637100622827,0.024101251006692002,-1.3635931227861706,0.043714564541051715
7.8100000000000005,1.1939077138835728,-0.29649176165308744,-1.4840405933997654,0.024520827457673446,-1.3608450469713098,0.04462544251021542
7.82,1.215699265588616,-0.29976924549076944,-1.4809024781512916,0.025751143355385104,-1.3599611754716028,0.044324474120847154
7.83,1.2370023738169789,-0.3030815468203649,-1.4770084559233865,0.025409462927594544,-1.3609337544733553,0.04467759720717341
