alpha8332/-/real_like.csv
timestamp,robot_state,joint_position_1,joint_position_2,joint_position_3,joint_position_4,joint_position_5,joint_position_6,joint_velocity_1,joint_velocity_2,joint_velocity_3,joint_velocity_4,joint_velocity_5,joint_velocity_6,joint_torque_1,joint_torque_2,joint_torque_3,joint_torque_4,joint_torque_5,joint_torque_6
0.0,1,0.4352082875086342,-0.1547857288476494,-1.590070630583469,0.009009380584201273,-1.4060818961722719,0.03959692813299384,-0.013803511344664454,0.027157615139609466,-0.08726207756275238,-0.14027497039406428,0.22055817267806607,0.21085067621206544,,,,,,
0.01,2,0.4303600408595958,-0.1459674653480079,-1.5916268849634811,-0.004075907054523065,-1.4021979463528706,0.041655352252089745,-0.02244026406101164,0.10261172065888369,-0.018640335292200168,-0.09043203986599668,0.09203605085706622,0.020668823258359448,,,,,,
0.02,2,0.43655589992890187,-0.14450266852049942,-1.5885412126135077,-0.0029503249997664613,-1.405456750823112,0.04466529048259858,0.020762534249450036,-0.017285896972807614,-0.02438781648139573,-0.009552008332244424,0.014242244055186424,-0.06624974609012968,,,,,,
0.03,2,0.4379284911559101,-0.1480305180036883,-1.587981909981899,0.0036491564521526285,-1.4042442918513194,0.03813347390869743,-0.025983386193873564,-0.05135368679649346,-0.01856887607811161,0.01919033248634181,-0.00020775252730465877,0.06073584916264022,,,,,,
0.04,2,0.4266945243148522,-0.15148679958259925,-1.5894777972785927,0.0007095724699634886,-1.4045606816862255,0.03830272494927442,0.035737481999240955,-0.04295914175317354,0.039030483674316156,-0.01013497157623807,-0.02582837568085539,0.042357292216039975,,,,,,
0.05,2,0.43120218455972265,-0.15192426545356358,-1.5889881775815318,0.001944897868148398,-1.4026471872503703,0.039922261047254305,-0.007675319251419297,-0.013761759320213262,-0.024744257358833698,0.019909703199308487,-0.0281081546454353,0.04431802239552235,,,,,,
0.06,2,0.4342255177013915,-0.14530292340447964,-1.593486923204689,0.0017579982940168128,-1.4024436628234638,0.04116216361653859,-0.13029331463001897,0.04432356490673106,0.05103800830534681,0.07844189170634078,0.01474580750699395,-0.050957694409724856,,,,,,
0.07,2,0.4321940467523439,-0.1532234906342203,-1.5815881352926733,0.0012754306056285032,-1.394026421152374,0.03518118209137834,0.05462441264789384,0.03514086429115503,0.05865742772607267,-0.011684668337639882,-0.059228651486383704,-0.033946641115587074,,,,,,
0.08,2,0.4344125251737233,-0.1443762505566439,-1.5955466786421417,0.0010711924436350596,-1.4000023618608437,0.042879240025742865,-0.03300729435942134,-0.04145257494433697,-0.026674821264190025,0.07839858975997976,-0.09085254290702208,0.05653133976200622,,,,,,
0.09,2,0.43049054580994167,-0.1492851072345134,-1.5936268237740154,0.0035134061858497264,-1.4115652719578162,0.04087798119450994,-0.1081223192627794,0.012036703522709493,-0.02752160282747,0.016723101909119766,0.07319542708013156,0.03255474467234121,,,,,,
0.1,2,0.43547980552593624,-0.14877769511694625,-1.588256137825366,0.004333589397067754,-1.4044795223647928,0.044278592459822325,0.011040010227235712,-0.007893011989586328,0.046860665354011725,-0.08573747517502343,-0.04958331730943186,-0.1041468246840657,,,,,,
0.11,2,0.4362893944254293,-0.1545167562150321,-1.5881682834445856,0.0070507256538721984,-1.4071307423833546,0.03222039959362589,0.054187331546562356,0.027068010385280825,-0.015331757496495199,0.004834214518581786,-0.06072153456038245,-0.0053682615385000805,,,,,,
0.12,2,0.43330682555712047,-0.1482292103442126,-1.5897189031439438,0.0014779338002822474,-1.4005050022103198,0.04373800074094567,0.07840187580821534,0.019457037056692064,-0.003441621307747547,-0.018883274527631236,0.032580585726336084,0.05688368403135311,,,,,,
0.13,2,0.43835945313876834,-0.14627906556934692,-1.5887885832617907,-0.0003694224572788115,-1.4060196448485534,0.04493984326451523,-0.017389410782544905,0.00802253701424495,-0.023110420150938223,-0.056534977593441754,0.044606464662542325,-0.007896473892062262,,,,,,
0.14,2,0.4344670569305957,-0.15239091486650894,-1.5992271189879914,-0.00023055793893766129,-1.4025604477668927,0.042526821403850945,0.04121139177749182,0.004272846521925095,-0.020906000071190613,0.021129865369164075,-0.03975002749483572,-0.06619471821234069,,,,,,
0.15,2,0.4314598699307291,-0.146496304554437,-1.586366200129763,0.006643220010565585,-1.4142310134153777,0.03944827088776724,0.003295453665249282,-0.09266297967917918,0.04134245396292746,-0.0557882773968614,-0.05637135108003466,0.0457509068965528,,,,,,
0.16,2,0.4340116183242282,-0.1487104779359197,-1.5919073465534714,0.003201782692108303,-1.4102141249162738,0.04476024854704242,-0.0281376601071064,0.059401967803710126,-0.05596386931620222,-0.01014468612413309,0.021493889626118118,0.06168311755404137,,,,,,
0.17,2,0.4302206777564669,-0.14975445454653857,-1.5880102456712006,-0.005225881508280562,-1.3981262219513189,0.044748588407164766,0.07956657230619257,-0.054678332886044206,-0.001871662627004783,0.047110692353250314,-0.04212555964850491,-0.12855717901587202,,,,,,
0.18,2,0.43767838562752626,-0.14667492683993916,-1.5982637423696064,-0.004993033594320151,-1.4049437599015437,0.04116976325029482,0.027527707453473816,-0.014245199715474222,0.06481880868448137,0.008600688001818173,0.11577635728117593,0.008938198452987049,,,,,,
0.19,2,0.43376737899055884,-0.15630032316187278,-1.5904458603425715,-0.0012961052407954275,-1.406688119483243,0.042483612797550994,-0.06482019883366334,0.05775409031507589,-0.003294991036389811,0.03921306293368731,0.056500058310812076,0.06162914098366752,,,,,,
0.2,2,0.4323402469884554,-0.14678433567764693,-1.5933195123688395,0.0035717478291267066,-1.4030241009734667,0.04670157570899617,0.046356540422517196,-0.0509003078291272,-0.05157053748880235,-0.06184006634591252,-0.08268306223120975,-0.04082829266077343,-45.47697721930867,7.921433702394966,-5.4123577935931415,-0.9513545970469477,-1.001880601767531,0.33272895781554884
0.21,2,0.43277878859193597,-0.14353542364636104,-1.5901057141297015,0.0006568508872188527,-1.4086166947057042,0.0420618825187063,0.02783425989313526,-0.012172765399989651,-0.0849876165428795,-0.13612994097405298,0.0039107015563568034,0.022973415206924325,-45.46786233949974,8.035633887575578,-5.299490775306987,-0.7862891778366002,-1.2686956237071716,0.01112748251093151
0.22,1,0.4387004565102137,-0.14331850340943775,-1.5917212376236967,0.00249292995126847,-1.405316220107946,0.038544300776845196,0.02584727022264714,0.18632614624770014,0.029012706236625968,0.0156793773608681,-0.07137611043143212,0.040612704383955825,-45.34548831290625,7.818416807413463,-5.264547605441734,-0.56106519152006,-1.463841954191214,-0.13147576775402864
0.23,2,0.4350817751925547,-0.14424742044328265,-1.5899051133597577,0.00010632570382325054,-1.4115318068214044,0.0452613653655243,-0.06666159367743409,-0.027790697551897066,0.0038856275255298653,0.03881943186438853,0.06554468114443951,-0.03478311913149357,-45.45978416237164,7.552130036127302,-5.2690769356581955,-0.45189983858503147,-1.4730792224997586,0.08817783423334566
0.24,1,0.43167413733461474,-0.14956645944114882,-1.595775060703543,0.0063373222523858495,-1.406423565475299,0.040311510672831063,-0.06770005875373733,-0.1329429956139744,-0.09090593852058826,0.0397353107694314,0.11199962536146695,0.055737953933209745,-128.3817090405383,7.689243739002571,-5.289737650304698,-0.5781940761877795,-1.547759403877621,0.08865764127885067
0.25,2,0.4325110954431541,-0.1512740752820908,-1.5932047979817188,0.003853067201429885,-1.406100875623729,0.04226531822980172,0.02984035220796789,0.06771360009221622,0.020504460799457544,-0.04269216320675082,-0.09606647532580183,-0.027429469878075458,-45.31166054399219,7.658773670562671,-5.442719812155219,-0.5687725165315488,-1.4481294800102622,-0.007345260142223059
0.26,2,0.4358505039783011,-0.14835073577708255,-1.5926091209148183,0.000819008695267914,-1.4015308969549063,0.040346532656485516,0.08726276334355067,0.004536774765850617,0.10588789706086985,-0.020084814778363342,0.02272188687500429,-0.08281734813062777,-45.784606414146275,7.790230483790353,-5.232031368007419,-0.45327477624226453,-1.4461285304221372,-0.11020525664272701
0.27,2,0.43701178910044647,-0.14696947699109697,-1.5890838235934859,0.004792309975656361,-1.4021678753307227,0.04432424866829913,-0.03671667864863112,-0.03540443689373316,-0.03229383000859859,0.0659084318026944,0.018977014454291025,0.0005250667912018413,-45.34956966242809,7.851284673892535,-5.160810392179436,-0.572905794325059,-1.6688352545427023,-0.1075084834393161
0.28,2,0.43518272467460417,-0.15100431175529158,-1.5886626137593234,-0.003784223342634798,-1.4027688309211968,0.045641434194838335,-0.16232894923783406,0.07072898496670356,0.054294669829858824,0.03852803015617352,-0.02669031574120981,-0.0036118870205083075,-45.38269122977643,7.610016029220177,-5.315066512721704,-0.41880753799387604,-1.6679505983313292,0.0367950489265087
0.29,2,0.434267346508945,-0.14535640802407615,-1.5896412245325686,0.0014249260130594042,-1.4047941542650073,0.040941005991767504,0.11774678374195957,0.043111412321531366,0.03800870299243575,0.03025738436825983,0.009958976329314868,0.15155260418119182,-45.73673819096481,7.654804417879095,-5.285870224262581,-0.5507202196395301,-1.295916969034109,0.08752603451552154
0.3,2,0.44249417035844363,-0.14051334503530363,-1.59635778497929,0.003027701284875001,-1.4013542065088156,0.0479897734516363,0.031292172438003175,-0.05861990238006709,-0.1394902579146381,0.05841151006895835,0.07095088822798779,-0.049845913417401536,-45.455525426645046,7.727840562497515,-5.137625441939803,-0.745220463826002,-1.5025501462093502,-0.2129358116656135
0.31,2,0.4326199546049764,-0.14943549133691106,-1.5923629249195153,0.005124483995476553,-1.4061456276529123,0.04102419024247196,-0.0985492796863088,0.02878546854792991,-0.052288675207354626,-0.06356102935240344,-0.007779182600886421,-0.07806482688967183,-45.345004824378655,7.80470845464301,-5.235078465079219,-0.5694903824547023,-1.6076289286428425,-0.09963630779675262
0.32,2,0.43175624996781403,-0.15156839970244163,-1.583396205834887,-0.005185581652215702,-1.406596869989645,0.045156460240780794,-0.009344315109414303,0.024005033578620768,0.0675899415828761,0.0171970412256991,-0.07833277915229948,0.03861410593541246,-45.32649562880612,7.732185931183693,-5.290271636790085,-0.6122485725363194,-1.4071908687369896,0.043333027769444664
0.33,2,0.4310336360603617,-0.15298760280668405,-1.5855042698104298,0.0019015418087992668,-1.4030988408049196,0.041860933410783965,-0.033272263295357735,-0.09154303704023584,0.017843187774067324,0.01233180181896807,-0.056904779080116825,0.006023014108078241,-45.438219192126226,7.683684331173574,-5.301838849961298,-0.6707065571715298,-1.4007820411513199,0.0019996783775482196
0.34,2,0.4342397695663591,-0.14548271696536075,-1.602662972026519,0.0019165306014388064,-1.4063413930062718,0.038595868184566576,0.05737569029039953,-0.06504588708210682,-0.021614417687715166,-0.050534302456205105,-0.013515955290862603,0.021768520291123222,-45.45574925171291,7.7198079270220115,-5.363487946728967,-0.5148268308070557,-1.6024031043026166,-0.11387582288020684
0.35,2,0.4386188409103687,-0.1495169767989685,-1.5912966613319213,0.0028253662575077314,-1.404934932135226,0.04819079145495459,0.1385662315363854,0.06855791269268527,-0.003640337911101476,6.923379303131263e-05,0.03189640142408573,0.03004014932831914,-45.40733783093896,7.485981407176241,-5.163597329476866,-0.684221524594771,-1.6030186166959863,0.04291963943239753
0.36,2,0.43395055107094543,-0.143923110043201,-1.5884256223632947,0.005115323479654587,-1.405368946162919,0.03876584201539255,-0.042306480451176944,0.014077071729933954,0.021907519295135035,0.05565723445388743,0.10148936391163257,-0.005363129018619184,-45.581649325817935,7.768851783669476,-5.289503882755761,-0.6255779785756581,-1.4324551745641718,0.10209644665250046
0.37,2,0.43110009839926566,-0.15095996932768688,-1.5921019757755506,0.004439595615437874,-1.3980283744002135,0.03995846973952076,-0.08806592218451773,-0.045168750190662424,-0.047535723412214397,0.0063144753890563106,0.03719323004332061,0.07114745196344893,-45.15000276917513,7.61794025248048,-5.273217316884784,-0.4722040600003777,-1.5363078182285272,-0.2804960353202539
0.38,1,0.4302561307701085,-0.14550229343023885,-1.594427616020274,0.0008543918655879289,-1.3997679955192688,0.037274226776046276,-0.048794542495234544,-0.020737903477504625,-0.06474685333027211,-0.015138438998115704,-0.13014591181200585,-0.12013948197233335,-45.326240660975046,7.476985531672534,-5.121314375429869,-0.5590199975287704,-1.2770772696190524,-0.030345830952282347
0.39,2,0.4355134599993089,-0.14927434610079365,-1.5943502457557506,0.0037964238226991364,-1.4077135146009503,0.044567903798822535,-0.003469707222040367,0.00815476249225687,-0.012876452883121782,-0.04922541369940351,0.0819465589362874,-0.1290134662321132,-45.63599681590049,7.916319438324275,-5.281255166467497,-0.4574977888193679,-1.3394584804915255,0.14185716995375922
0.4,1,0.4357079495367451,-0.15079010839292292,-1.5911509041361664,-0.0004008564165559926,-1.408885636555512,0.044730861671638616,-0.016275655425164567,0.11852654916967273,0.23982335320409487,-0.051385816955682256,0.011689272622462114,0.03840535054081456,-45.26112783231824,7.602486825965293,-5.359785830184404,-0.6587869415571337,-1.6736543549407525,-0.13080610588615665
0.41,2,0.43481754851545606,-0.14794766657928424,-1.5930182687979502,0.0010722267530779393,-1.407405602834347,0.04220686101689178,0.10394945024650622,-0.09445968534729046,0.06739336086694317,0.054831475465734955,-0.06042386512025088,0.04717174025473899,-45.1480241183401,7.60015611030893,-5.47234329906775,-0.8601730324644309,-1.5571524356391617,-0.0017105361383031566
0.42,2,0.433064214590523,-0.15319063051510187,-1.5876092408194236,0.005035012348296421,-1.4073522288781384,0.03684370548958704,0.054616300868170764,-0.14266164169254242,-0.13375427639873652,0.050458467132357625,0.052878763097165826,-0.06767255283989149,-45.32996720390655,8.203786449405348,-5.190603703339102,-0.6102181022116325,-1.6568309254468705,0.13844392437358288
0.43,2,0.43457232175582083,-0.14240657536209006,-1.5919477998839069,0.0011916772223586856,-1.4014946964196655,0.040098051870171666,-0.06984841005780386,0.13481033012570753,0.00839250577331737,-0.024039279213703493,-0.010039922765345845,-0.014475752119737789,-45.51826323688668,7.737306293344994,-5.164243494084922,-0.4931912399836516,-1.470011578798932,-0.09090652382677761
0.44,2,0.434697513726832,-0.14760360201307648,-1.5946727144278288,0.0031528214884685973,-1.4013411231518365,0.039550061551758324,-0.043770427196812775,0.09383275317292766,0.04220716421936553,0.09122187406980205,0.04379287473300841,0.06773309522249549,-45.71632889281578,7.13592668127042,-5.510479573853079,-0.5200715790139386,-1.284224554209651,0.1043590584106587
0.45,2,0.43401239746486053,-0.14562495535525546,-1.587704677790736,0.0067645083307142605,-1.4068267689862881,0.03734602938193527,-0.07239902573434699,-0.07971828790910869,0.04100054990086558,0.023075665227760354,-0.002679865268543309,-0.07594839404971923,-45.309672850677124,7.799410398192156,-5.307689730530781,-0.6982340058495805,-1.691460836743563,-0.09372653838556569
0.46,2,0.4362546756662926,-0.15099571623168567,-1.5958985576841014,0.004297490042351632,-1.4068153665767564,0.03737733674555417,0.08382453377479876,7.46459683406463e-05,-0.013051816280403528,-0.11170887024520658,-0.04568622107154615,-0.008958629869253752,-45.12686237531906,7.704191832064482,-5.007438753664855,-0.6519929506402811,-1.4380123697937628,-0.17604472782887376
0.47,2,0.43546854688586867,-0.15142629152923062,-1.5944515840945737,0.005476419764098236,-1.4095332382422645,0.042417465086895846,0.021578311226827233,0.04628584640801439,-0.07130715845444116,-0.023154200709113087,0.011382060286030761,-0.05389883968505688,-45.396847820176966,7.478058009907366,-5.256499534315728,-0.421012559965664,-1.442897657929572,-0.07498862370976406
0.48,2,0.43599359637026375,-0.1490576348314476,-1.5937599158427331,0.009843227520589205,-1.4028474637603947,0.03625405897458599,-0.029666026507091443,0.01869411738647664,0.03288529246832658,0.0036149630106338125,-0.11637328519534137,0.04317427967348246,-45.85342519755691,7.762806901143273,-5.182270126153809,-0.4501319537800085,-1.614234269552368,-0.058201719483880116
0.49,2,0.43390791303254733,-0.14415300405899806,-1.5838024290269948,0.0037113978714234854,-1.4062904691551739,0.04191090213220788,0.11584258770097833,-0.06711758538335695,0.059133345617944845,0.013581644779374551,-0.06010116112136275,0.08300501975164275,-45.28461881671168,7.6790580296430315,-5.18615450991971,-0.4832919137878971,-1.4256024527917723,0.22538888171670918
0.5,2,0.436395322942755,-0.15130717073154215,-1.5931818430910245,-0.00031463334767787426,-1.4018996130931438,0.03348696723855337,-0.028629522326048512,0.07099863028176528,0.0005648167738277962,0.09597542985900341,0.1625745310372354,-0.006640023026228547,-45.19551647105765,7.461680654696799,-5.594664542775202,-0.3752332598302571,-1.339549713244668,-0.059370355209836245
0.51,2,0.4357904519698699,-0.15005515418993715,-1.5985582867239683,0.004880600294332139,-1.401837851001861,0.04685095176754438,0.0011803313250321461,0.09137207261876538,0.004605606833862317,0.01751624637834066,0.02932494017699635,0.04659076266124473,-45.62548393486637,7.760628764969392,-5.384391992751406,-0.7624865217009734,-1.4691195214186161,-0.2235757001029558
0.52,2,0.4303141450432659,-0.14722516089898888,-1.5928528635573276,0.0029599517727777313,-1.402412569918968,0.03863142746089349,0.0514928510722417,-0.07068467370413067,0.012197353187763146,-0.10287763604437672,0.0073396492660045345,0.027235379081928968,-45.46622365934835,7.81567701505297,-5.106555168922846,-0.6173548873906496,-1.6611474533741553,0.031246206580446852
0.53,2,0.43362642027075804,-0.14743727369204657,-1.5892716015069361,0.003557455646473152,-1.4089611489151277,0.044299327188615324,-0.027287802460617478,0.03391853763630758,-0.10048747280475623,0.0202678307984502,-0.0966820467991169,0.024055458487056564,-45.64975534048068,7.44996255367776,-5.2364063681707265,-0.5752333814747326,-1.6597433982288357,-0.028938448741301075
0.54,2,0.4338256116189252,-0.14177858413244762,-1.5901793942014382,0.006742437272110701,-1.4078097118128448,0.0408126792058134,0.010750119771705974,0.08395201317791529,-0.029409703446370825,-0.036044086889123014,-0.09885490710083136,-0.06458935481741337,-45.38871843591872,7.48531094681111,-5.33257925274345,-0.7980096366352142,-1.5695599207659787,-0.015553609921229911
0.55,2,0.43296739962798114,-0.14635975196607928,-1.5842078108905342,-0.005181019686274836,-1.40125976806952,0.04094966318507556,-0.07514566552183569,-0.0151898048378553,0.1290385695976427,0.030182160156306388,-0.04955241876083261,0.029812909218753396,-45.082581951228,7.78485813448287,-5.212863764188858,-0.5225546149153553,-1.4624316814491278,0.023084725716871368
0.56,2,0.4323326004082231,-0.1456306891377275,-1.5856253027537623,0.0073978098212534055,-1.4084801648985816,0.036920567844243773,-0.07761803123038867,-0.014723340693164822,0.100713502477613,-0.055739141233440696,0.00700692980066011,0.10911962459478117,-45.51451488336164,7.72222310182573,-5.285155171856383,-0.4938749566263037,-1.2670073989494597,0.035077148633524124
0.5700000000000001,2,0.4391598991787085,-0.1452789956527948,-1.5894781190521514,0.006240932077917172,-1.41079776399854,0.038467140075204284,-0.05869881588106263,0.07023014148001466,-0.04143079456225676,0.004765932064155267,0.055557011499600115,0.05852081323468738,-45.61197778354652,7.4010096272900086,-5.425733762817746,-0.5445963973624567,-1.4342623625155462,0.06735445905087784
0.58,2,0.42947618619434874,-0.15088770171051027,-1.5943346768668851,0.004303998349668811,-1.4022784789272866,0.03874087720769305,0.040344577431447544,-0.01999828359253361,-0.04987981164600606,0.06551786500912733,0.00577831941051604,0.004075342851264124,-45.584026980088424,7.691359609234001,-5.563643112897204,-0.6189640691792231,-1.8587422646375162,-0.249322842503555
0.59,2,0.43819105482991866,-0.15131036615995141,-1.5856710231387605,0.0038851340992571027,-1.407369098125015,0.04056606486365836,0.07868215372850271,-0.044732209631315904,0.03781474810366768,-0.1143309458422305,0.026965294755393755,-0.017304175462318827,-45.4607862550169,7.653479287437666,-5.37021054410901,-0.662721639618145,-1.3805158593586906,-0.28132811727728296
0.6,2,0.4278712837283051,-0.15159986482385593,-1.591958519908778,-0.00018497273481231022,-1.4010004403887863,0.046528298822089566,-0.08655166507798184,-0.047004745940184896,-0.009392464963876026,-0.006741311273363488,0.026041368583640596,0.06622556260258987,-45.51846642541098,7.978337999859355,-4.785841621753339,-0.7134940754051633,-1.4227222144575988,0.014150718853638708
0.61,1,0.432060836005069,-0.15351854170082013,-1.5936653583663871,0.0023412137359621766,-1.4046549606759504,0.04327841030377064,0.0421951713588634,-0.006076751230474017,0.0010215194495033428,0.12064494006125298,-0.011916518161891456,-0.1542741579505169,-45.147557049545966,7.603800985498913,-5.045227828442033,-0.3501486710099407,-1.696152573010573,0.04361644708407056
0.62,2,0.435194517597552,-0.14463962191572016,-1.5925168060149573,0.006049846922649302,-1.4057473680428696,0.03571514490786749,0.06370599386163552,0.019223066686076335,-0.008045995337612662,0.0139622987772084,-0.1059885984635045,-0.12036911675931455,-45.26295032550231,7.206372121717952,-5.633856713173137,-0.4656956436653305,-1.462284582141863,-0.1356036457326932
0.63,2,0.43732498642502493,-0.1475378795700341,-1.5958216688129994,0.004936587366851155,-1.4012404536350416,0.03981891355141575,-0.09044711463260789,-0.10074257759300916,0.006324001754025177,-0.08144604203292169,0.029900066758422918,0.025376981369980265,-45.61762294633322,7.869350686379481,-5.246853426716468,-0.6316311576050948,-1.5642950609040558,-0.02368033375374701
0.64,1,0.4349639789233433,-0.1485664483262099,-1.5927840726914715,0.004555465496421053,-1.4089066834998862,0.039091992722908475,-0.16263805232517578,0.013354044985877864,-0.05225533068274893,-0.05579570890375808,0.0906406715525329,0.0617235901806101,-45.503557416733905,7.909638907165758,-5.271082837363285,-0.31332180207772287,-1.3943045288668732,0.04462193612936841
0.65,2,0.43463206714806274,-0.15715378278800224,-1.5927699055004032,0.004170649451989786,-1.3989817058325793,0.03950221687536055,0.12207341907261775,0.060404137838739894,0.022144459990491798,-0.03405999386267361,-0.00370056590311086,0.10102717579131741,-45.64283444428462,7.415529974839468,-5.1766926239500375,-0.5616922926487338,-1.4515279867060948,-0.20460886518499782
0.66,2,0.43332476954209953,-0.1407759348519924,-1.5885314602574228,0.004103302934422574,-1.4069891662587573,0.04072423442780057,0.09959703497211761,-0.016738487306078763,0.02909658739688456,-0.03662245717230421,-0.039952906789239975,0.05586105580614367,-45.29053010218071,7.658544436057646,-5.359510020113829,-0.8773465897338734,-1.6385112081337274,-0.10796888347687243
0.67,2,0.4329808423846611,-0.1516161294553245,-1.592444381288978,0.004096207520291328,-1.4041364494463395,0.04399607815334772,-0.12039239965448263,-0.06430510214526412,-0.07312651858755516,-0.056079634787734894,-0.0272840185295277,0.03134859370853678,-45.3755865288847,7.834306563847253,-5.472477758896299,-0.6203295317920078,-1.4303927036418846,-0.12647005432080521
0.68,2,0.4351343359492717,-0.14212013518053215,-1.5972622198165647,-0.004029841857211152,-1.4045927840462287,0.03874731589485449,-0.033100615758620194,0.009717037736645485,0.051379253129902616,0.03751288507811246,-0.04008246763377744,0.03200543945438355,-45.6385932155342,7.653848764936768,-5.149312515758129,-0.5809871068864058,-1.6919985007623826,-0.06160924393959499
0.6900000000000001,2,0.4329623221106998,-0.15303712997723273,-1.5961922010028744,0.005646062006402743,-1.4061519159628435,0.04058016786663697,0.0681299897711972,0.039848444552567565,0.047591039032211235,0.047188489587962956,-0.00466529888977108,-0.04854047941989671,-45.21372555452847,7.499186646179083,-5.160414468413469,-0.6455675993959524,-1.7105342036981808,0.09401918495699021
0.7000000000000001,2,0.42950611878938516,-0.1517175101069205,-1.5913316774097381,0.006777953096657071,-1.4080359704284717,0.04372214854932347,0.04585008817115469,0.053979111121585245,-0.08327944230872814,-0.022013465926811856,-0.02873400048797361,0.00035337987938616894,-45.430703151487215,7.792407980303538,-5.248865697049152,-0.3579130549427399,-1.259598392151449,-0.053547107232529506
0.71,2,0.43062404999581005,-0.1543386672552696,-1.592497170532219,0.0018321354982006374,-1.4067996211449263,0.042657568965995624,-0.017621929034742974,-0.02257939646354478,0.047920462141386636,0.04987487320554299,0.03977126294851441,-0.023133724379379095,-45.4702432410423,7.981348905305534,-5.298121373462313,-0.5425939883949332,-3.3721091598516386,-0.0105457739007968
0.72,2,0.430554819802301,-0.14848463940731604,-1.5926693261023683,0.006288483471891166,-1.4086080600004038,0.044137736157802455,-0.06829336307672053,-0.03446253719704725,0.053460219912216216,-0.011995935666069726,0.04134919259821951,0.07221149852767081,-45.223882338053116,7.389722909168958,-5.270882510816563,-0.8038729101205646,-1.5255248647328248,-0.0259799536103615
0.73,2,0.4350431569345738,-0.15162163392159134,-1.5933413793811306,-0.001332879175326965,-1.3974362812864562,0.04677088445282943,0.013542282482678967,-0.015812514088967576,-0.007172471804345448,0.006570552881162025,0.07606206885859967,0.08335276529154736,-45.42395074032213,7.69044601049538,-5.560702426747799,-0.5535255353755616,-1.6198025090918147,-0.014788741577340303
0.74,2,0.4340767306851005,-0.15318520597342106,-1.5892570992033868,0.0011891046177070139,-1.405307450804128,0.036191703929838996,-0.007534020921609649,-0.011647260380164745,0.07596290474857294,0.08071515309445085,-0.004147235849361811,-0.035075081306662724,-45.33829075598453,7.955636865128124,-5.515573596277842,-0.6728686408940763,-1.6595322286941534,-0.2311935498987077
0.75,2,0.4361745179157472,-0.15263754132523824,-1.5849879999183356,0.0011567170422502257,-1.4004946167368606,0.04175247050416946,0.06573283394529165,0.01956748283151846,-0.06744042315830312,0.013583301943733583,-0.0615318249838874,-0.08163038078548669,-45.74587741717917,7.66794342477252,-5.02466467863552,-0.530944775709065,-1.6292980972307696,0.01607730716124732
0.76,1,0.43332651205765227,-0.14617542469486353,-1.5939770612648956,0.006374094561795081,-1.400741205673682,0.038105974116977914,-0.057715809619968216,-0.10317508908350323,-0.13646465899945434,-0.088125874884332,-0.027197591459662385,0.1061400715267887,-45.69349112816618,7.678834293231141,-5.012798186862042,-0.6808452681630424,-1.6284819619176427,0.12946702992813286
0.77,2,0.43304495702527096,-0.14747646995559238,-1.5922092738178575,0.006908347499932429,-1.4035896464352209,0.03811256291511964,0.019971901834609177,-0.024043498940983125,0.019506145126880457,-0.035583618497470895,-0.04928164493544724,0.014409595592960275,-45.60479604519052,7.8543202365023745,-5.345085353690191,-0.5963975208326938,-1.3736075633801774,0.013071402957925379
0.78,2,0.43702759214566117,-0.14266531865915547,-1.5878960740685881,0.0008807712036543285,-1.4053224157249997,0.03801325125699934,0.08381164313644233,0.05561649463698447,0.12474600555572042,-0.010065689607736988,-0.009315797866272789,0.02523281926581757,-45.43796775449818,7.708015215400947,-5.430585915879179,-0.3076017698169965,-1.5567688295457698,-0.0939786688180171
0.79,2,0.4333392140281096,-0.15084055381239259,-1.593325266017278,0.004673520528421958,-1.4039186941606376,0.0418233470910979,-0.018732374561021444,0.09570928771792714,-0.03256646350233543,0.0504212176683971,0.0025066337584209227,-0.04260458027987596,-45.29881149974847,7.5477553052171675,-5.223912013775182,-0.7865654310090382,-1.497525748470836,0.026249385945281
0.8,2,0.43566782859399683,-0.14613638798658474,-1.591519201621643,0.007850871262961455,-1.4026529557098595,0.039429548913587034,-0.05997840451834928,0.020123031367976166,-0.08424089224272205,0.08304645886332081,0.03311713138060442,-0.07491769984997279,-45.75356909015047,7.544337907213632,-5.2736673222508355,-0.5310150291269599,-1.4489282073311935,0.12556072630201556
0.81,2,0.43088792429703526,-0.1522760473831701,-1.5924202377278198,0.002048197960508062,-1.4033028596243544,0.038807746548825434,-0.02009558125402504,-0.04622671844088167,-0.031210129705257487,0.011753374566506491,-0.0725912100703322,-0.014360179701603836,-45.41552657296257,7.694368657299943,-5.337551362617215,-0.17920440659623127,-1.5258402318844362,-0.3295530894915273
0.8200000000000001,2,0.43236161228551123,-0.1489242743977439,-1.5963911535900823,0.002851611210149034,-1.4116678412818893,0.04026583858570303,-0.05003671916548738,-0.0653257644702474,0.08362599566085782,0.03191634983380887,-0.06738438247577881,-0.07461430545541842,-45.20359758960692,7.7518012823628935,-5.278133372111848,-0.4716917301642223,-1.6692799664257472,-0.29027068147343077
0.8300000000000001,2,0.4308088805953044,-0.1512667257916607,-1.5897661355965116,0.004924270756812772,-1.4115756210962118,0.04783555345634924,-0.10934131249611732,-0.07518967847567198,0.1077585541816638,-0.03978588319619224,0.06476816567356365,-0.00826489363969668,-45.792846206400405,7.452426316702003,-5.287857618120424,-0.7446666819132506,-1.5003859988496793,0.013375216606025525
0.84,2,0.42711740114862495,-0.14700398039670043,-1.5893221794080172,-0.0009792304893414625,-1.3998216086524093,0.03499003880312061,0.029456909764564863,0.05322119815808268,-0.05436616408176394,-0.0630152442687822,0.07770138311798176,0.09195714554490761,-46.08327857533409,7.723019275936194,-5.316916283746344,-0.658029695443255,-1.2904189547389369,0.08474030331086449
0.85,2,0.4342163699203896,-0.14486031505014102,-1.5895200816419972,0.0018914498745617667,-1.413107430251968,0.04487658469040206,0.13289225833840984,-0.01850483405823331,-0.07526235374118073,0.05517422750217931,-0.02422065534361396,-0.04301173571821694,-45.29986752939166,7.810684769465434,-5.274265601206529,-0.687553584154236,-1.5376087687771542,0.12710558370326197
0.86,2,0.4328234096304555,-0.14529217005419673,-1.5949040252885127,0.010483527447349204,-1.4047641974106688,0.039767529665436056,0.13688536030058537,0.00488457023460288,0.029447378094774518,-0.029602476374082105,0.018057128289946114,-0.029655923197763338,-45.07120827383714,7.637554710428616,-5.143201334341882,-0.6524516013849181,-1.5894018754494752,0.048744412554677326
0.87,2,0.4350880128664944,-0.1512598762402163,-1.5902846331898897,-0.0005492879474028461,-1.4041511134894695,0.039192586215561015,-0.007284775654414752,0.08874415634007504,-0.03667458942611902,-0.10485003481640291,-0.0013042931300759723,0.053948872424410745,-45.805617321857376,7.488339393886674,-5.462241970523781,-0.7560077801445291,-1.5655379258141773,0.04560803698917214
0.88,1,0.43578217799914065,-0.14330014273694427,-1.587037044208909,0.003741405626869719,-1.4044307965181608,0.033956182388887014,-0.10227265857464621,0.009731622601558965,-0.08708364428748563,0.103933372263669,-0.14996576970537936,-0.01407796335397294,-45.699898002190714,7.730608618780717,-5.229614959527719,-0.43778002293211615,-1.531198571705615,0.03668332952573421
0.89,2,0.43407101371821893,-0.14774851513824652,-1.5847628258851514,0.004412351711305988,-1.4106692731616215,0.04258246683157494,-0.1098999352875692,-0.08817828039352965,0.036440407708148465,0.0367896493870918,0.028149456432105778,-0.02310135162579336,-45.2404132065766,7.752276793259883,-5.1339712531171,-0.4419165591811211,-1.5391450224238188,-0.1083168639107222
0.9,2,0.43472961951705036,-0.15000500542963144,-1.58685987828016,0.000854218162732668,-1.4035976705745803,0.03543748826120131,0.08682857293681308,-0.013185646094576849,0.06322173231782892,-0.019080886550871805,0.15481112467046004,0.07789790835097679,-45.349688947876196,7.849450047568197,-5.546059945264629,-0.7000094604345187,-1.627551760471892,-0.10737553190672802
0.91,2,0.4337124189553505,-0.1515042126608329,-1.5950364136535533,0.0029342811469009224,-1.4035455102827785,0.04398189066250268,0.07972750327489703,0.12250552039736602,-0.003207963800175361,0.02613313056703401,-0.01574324794633705,-0.07214942829594695,-45.47878507601798,7.596174990508231,-5.126915859885545,-0.45301679160664626,-1.5114752142151795,-0.08334754742073822
0.92,2,0.4326597920775936,-0.14832953544601898,-1.5900460347919496,0.007432090742652478,-1.3956204800173893,0.04578390100472111,-0.06200302091364205,-0.00946873058801082,-0.029226382321725843,-0.006969721173489582,-0.023641135310108655,-0.06806798584559699,-45.64946638923525,7.457046395439821,-5.09680791250121,-0.5699851455190762,-1.400536067457194,0.03981454419032292
0.93,2,0.4325144328685259,-0.1428447266174437,-1.593292681639445,0.0038064198814509505,-1.404102306468429,0.03546044329305967,0.0016462911950627448,-0.07239296300196348,-0.01986691912845479,0.005655976833355994,0.031337427120779554,0.07833908201437954,-45.525632521553284,7.735329776332839,-5.248284051673727,-0.510032330998682,-1.362299739639875,0.13108438580219314
0.94,2,0.42877435936136044,-0.14643260199693675,-1.5906928210808553,0.0034902313510620075,-1.3994158303011097,0.04484871442798841,-0.009108581640180202,0.05448169097816919,0.04523408577751277,-0.05468423634732079,-0.02048811127840508,-0.04534565160904898,-45.410996495003374,7.616271427789073,-5.006070119825383,-0.3621237238352419,-1.5304268732823962,-0.12271342816227922
0.95,2,0.4275636035351145,-0.14760074092063444,-1.5940113770970648,0.006385205534440963,-1.409666382572953,0.03942555673086165,0.025188772903414796,0.005885967348102081,0.008738402817786413,0.042997000054053366,-0.17141707167343917,-0.07472920111468291,-45.30226041473836,7.758370319387785,-5.286485100346748,-0.4711187308033629,-1.6034729685655957,-0.13164229310810843
0.96,2,0.4304276581195823,-0.1479772997062691,-1.5977460152563219,0.000889214501423527,-1.403142901542706,0.032287071810263364,0.03190743012650496,-0.01901718165925945,0.0015646386024940687,0.10188809050451778,-0.040029429819310264,0.02741200510543586,-45.629514364316016,7.341325328143998,-5.575781978591189,-0.8316256493779334,-1.5634696153459235,0.12739561177182754
0.97,2,0.4301412898356167,-0.14054846380791997,-1.5921236651597739,-0.00032917864229043553,-1.4048375995034343,0.03566989982717689,-0.01712971078837358,-0.017712753834016458,-0.057617861490883535,0.003978226221331124,0.1915305680040026,-0.03701537561410312,-45.52010763857365,7.5988304660379065,-5.268522226679888,-0.5923328064822323,-1.595847817940314,0.09820797240849191
0.98,2,0.4354796511929005,-0.14218961725449322,-1.5900888652444185,0.007972295635670429,-1.4020697035768215,0.03978702528244107,-0.07632263046016087,0.03341810824769129,-0.013992007662714162,-0.048058511743111064,0.1120827839374805,-0.013220687929930086,-45.15920433676259,7.877004864739006,-4.980909020408742,-0.63434704218325,-1.5120104489196664,0.03683610590588534
0.99,2,0.4296000464813952,-0.15103757539007134,-1.5909934919670758,0.0027679530810159753,-1.403399923451843,0.04045777582205047,0.022516168149409772,-0.07811527857405204,0.0969338762091434,-0.021348935905046555,-0.10730751290289521,0.12047010303419517,-45.57317301572149,7.985259049315555,-5.227240165377023,-0.4676969979823776,-1.5144312513554006,-0.021965544353114798
1.0,2,0.43300845251777476,-0.1496100217610049,-1.589025783292265,0.004153855724655809,-1.3991999600781229,0.035560901757181525,0.03871213096736399,0.0540383420208058,-0.06402368877014175,-0.004653433402743943,-0.0560540852651795,0.09331224425664258,-45.63223858719614,7.83125820164283,-5.445768410415558,-0.3350224923821543,-1.4279425019812453,-0.24119209477753453
1.01,2,0.43908254981493144,-0.14850830014570474,-1.5922598216415949,-0.0006091770213598104,-1.4046125999507637,0.04092232272137152,-0.0857869093000964,0.05720386108228313,-0.10151046674904812,-0.03403348068396455,0.0715902344674983,0.029311000809721755,-45.53658190793283,7.5720693589983386,-5.294957155707359,-0.4805477413024474,-1.6713260183945604,-0.04588774471766222
1.02,2,0.43141569665016277,-0.1472566851851421,-1.5908328622451542,0.0018196247270470776,-1.4067134489362159,0.04369199733111382,-0.05024078605633969,0.051223241549528786,0.06594404674266748,-0.01112585756142478,0.06928132807796589,-0.03979644765797756,-45.60451709383893,7.463437562443791,-4.997556189578368,-0.47729715621672025,-1.7259561646446036,-0.21266332962090445
1.03,2,0.4359944571172652,-0.1493471363428437,-1.5900691009197006,-0.002217223481060746,-1.4065113877651287,0.04355139288380839,0.09540502111061272,-0.022823876874672064,0.007829368995211267,0.14791464378103264,-0.08830077692712897,-0.0964100258408205,-45.86755096802752,7.5297362389295985,-4.885587460201896,-0.5577175072301023,-1.4253419661316273,0.017364077561921834
1.04,2,0.4312123545514329,-0.14711965333809046,-1.5928352597896354,0.0029974294774983996,-1.4026455474416646,0.03706003729160814,0.1186007938345929,0.0238835817177339,0.006336518666719871,-0.08195703906110141,-0.024616900222641146,-0.0032903690545660943,-45.5212453783869,7.841031251456857,-5.300072113045745,-0.6169891458517995,-1.400462797523381,0.14407154160473562
1.05,2,0.4349190938920377,-0.14092523750352284,-1.5915559402785153,-0.0023627694204788217,-1.4032886085355787,0.041887728729807026,-0.013166062822883575,-0.0416824565197339,0.09392809061267714,-0.06202865694161804,-0.0025882751847095854,0.13969155737163427,-45.0641563818978,7.669903226254999,-5.382351044202954,-0.38319835289876125,-1.554364792531173,-0.16006793826043
1.06,2,0.4309998570258759,-0.15382417008363522,-1.5848629339678342,-0.0010118599656613499,-1.4112109829017656,0.04496108225442365,0.05916767539226957,-0.13546005610346543,-0.02396593936616109,0.059888483456705555,0.07406982886596891,-0.05001687274220423,-45.07689548859528,7.684591540517229,-5.062273823846072,-0.5193911465059713,-1.489372749415335,-0.07469311265717052
1.07,2,0.43543693004478407,-0.15212195130134776,-1.5912001872389252,0.0004187531420210555,-1.4022103421517005,0.04207337307392873,0.07756498937238188,0.05196202530926317,0.05464205867514856,-0.023795924198955556,0.1337055979118296,-0.06581826460215344,-45.47187607862526,7.988266137314031,-5.317862231993686,-0.8050930079589158,-1.4463648112013379,0.07912103701842318
1.08,2,0.4383631315051975,-0.1504494502483546,-1.5895717171537682,-0.00654776341857293,-1.4068388630847641,0.042757365449673575,0.015501725231663828,0.005880375221947238,-0.014373696214898812,-0.0019943519867072646,0.03370153370613106,0.04174229553981319,-45.83532529736621,7.865283473571313,-5.450906010663052,-0.36095666398314935,-1.8882871518396187,-0.12075026865031147
1.09,2,0.43035064480594165,-0.14978012395730297,-1.5916446807820144,-0.0022730286588997636,-1.4018935171317597,0.04072355354329313,-0.04316443407059398,0.017264515991539508,-0.13117782285632165,-0.016157422276423646,-0.07134250778053317,-0.05298558266643541,-45.775412280518324,7.439161142449862,-5.177681231035507,-0.41529499929813196,-1.5469473809229,-0.11273427506809841
1.1,2,0.4366258500596782,-0.14171191134313427,-1.5926855776676248,0.004067360249165484,-1.4073215117915483,0.03879280134520483,-0.02160971703901958,-0.011293373055127561,0.03613349885269017,-0.12242776831904063,-0.01954156526538761,0.02945027873650263,-45.296024107924495,7.494050211263955,-5.089301751658448,-0.5788104304929008,-1.2638482657972974,0.07595731069083486
1.11,1,0.43687401769832956,-0.14492251125744465,-1.5929827159011487,0.0006272894581413665,-1.4046840188743304,0.04180029567024964,0.10881833431983162,-0.054693559422638746,0.11767875756462119,0.041064974338353766,0.1246566927977185,0.10159050021179822,-45.205911854131216,8.07527940057773,-5.254937259477054,-0.5216080357432992,-1.5570236234866854,-0.1178220183964184
1.12,1,0.4357874533911758,-0.14689117920729458,-1.5893941478607456,-0.0017728330254331813,-1.404147145624302,0.03831523178377091,0.1562390438131276,-0.08061497609788058,0.049946904677052,0.17826482836851604,0.07253897175083905,-0.07364818535026765,-45.64793867128599,7.7938133684399356,-5.324556542496456,-0.5600947218745215,-1.5624768433965293,-0.1832664636388325
1.13,2,0.4349793425537167,-0.1503388574891549,-1.5917233728260893,0.004153291121182514,-1.397858097753491,0.04404377139091835,0.1291232233165259,0.0036603412606350614,0.0,0.025802829700220683,-0.10349762830194921,0.006929487174768698,-45.437723388720194,7.5291287885006515,-5.253432914189342,-0.5465819475138327,-1.391189521853637,0.05740553178864516
1.14,1,0.44095017739231696,-0.15095564836769215,-1.5902797430365507,-3.5552791298824535e-05,-1.4031668541075508,0.03490645975267727,0.15031871782732933,-0.0338962757900083,0.032454825232651974,-0.09923028756769736,-0.10354877820690724,-0.004718717240818939,-45.462332278208166,7.8600339499276375,-5.214230966783819,-0.6721615524814464,-1.4965065495285181,-0.10777703798294237
1.15,2,0.44109010081309896,-0.15512557636106267,-1.592152024822235,0.0023083629375954245,-1.40039342482837,0.038178951770967015,0.07481732306992576,-0.06183089653285998,-0.03928362888844468,-0.054922926656273845,0.046755981720632764,-0.03184250732282143,-45.46374334621228,7.808623236314436,-5.2488287748564675,-0.42146989757834497,-1.782628795829013,-0.1975029137586514
1.16,2,0.44324425865663186,-0.14830124975837433,-1.590375464544399,0.001209019693782067,-1.3928892189313733,0.04028496775350716,0.14042485982117092,-0.03367425575861153,0.08873135498104774,0.07112660429687044,0.005745664398705858,0.06273482956731373,-45.27426947784064,7.631858435669707,-5.209677843779628,-0.1824537965440835,-1.6809208088473568,-0.015494111608936535
1.17,1,0.44564308775167866,-0.1489118678374212,-1.5866969205894996,-0.00015929360039660181,-1.4044774780158131,0.0427558617960825,0.316947935057213,0.038618188862348336,0.055039316383289696,0.03942437667396134,-0.0551561371693688,-0.02161834072594207,-45.61782835728029,7.724405350091776,-5.340358035442936,-0.4747775062447379,-1.130312901027705,-0.12032576973339411
1.18,1,0.4541000195287998,-0.14595302490552975,-1.5900671734412917,0.0021652470058444954,-1.3993725802831603,0.04291762374468776,0.2710645552692125,-0.09592165406481691,-0.06551974439306221,0.09276908265731224,0.032879035398613844,-0.08442816739652119,-45.599386444110294,7.847935696127974,-5.414728076597222,-0.6394011213720786,-1.3325461232159947,-0.17130501885836333
1.19,1,0.45015387865150813,-0.15328017405025968,-1.5973189130939918,0.011451770454930779,-1.4063119585960653,0.044942836422020245,0.23170467274421397,-0.004015562755403972,-0.06098469155798989,-0.09282092814807963,0.022653495614899457,0.0725490036441564,-45.49211293778598,7.423391858787016,-4.996884911256922,-0.5979647475741574,-1.7307898102994448,0.11614101136669552
1.2,1,0.4502319522439893,-0.15151687171445405,-1.5884651954581233,-0.0019830268588606516,-1.399826415694313,0.04218880590245829,0.2976423253888776,-0.012118349554049099,0.05348642027194339,-0.06853693175129083,0.09145243119226851,0.02566670934914916,-45.19540111135182,7.801226189481183,-5.3482904799879885,-0.5671089238456312,-1.6414810728262739,0.13087996234210747
1.21,1,0.4577286991417492,-0.15131498301378915,-1.5886648660365186,0.0018433786619517223,-1.4056514763148809,0.03819222343429919,0.32668775239509545,-0.0924847754724554,0.1537720509227572,0.036694576285419486,0.10682578594109979,-0.04535486944899031,-45.694040249695696,7.856021025887637,-5.53343755124391,-0.5840107423828355,-1.4065117347534328,-0.08413375868672615
1.22,1,0.4613311261288895,-0.15025059172706626,-1.5908283233555625,0.004957826890608847,-1.402415614804295,0.04085138661476394,0.2535765125777216,-0.22158766873177554,0.15357473134851868,0.11344876827637829,-0.04039836372112754,-0.05914918792125109,-45.66754386447923,7.850138090049152,-5.134919325318723,-0.5951218955804951,-1.3851649502292491,-0.13262749917923963
1.23,1,0.4669109265050096,-0.16096680701781613,-1.583504959947259,-0.00016257570748508428,-1.401837157655647,0.037921773223389875,0.3301251499258624,0.004870248859409121,0.11857571710312936,0.050212960557068254,-0.05650609518964393,-0.07060414673960003,-45.22785906943709,7.6152265102268295,-5.213307905493887,-0.22725870624963995,-1.677315753442885,-0.3140052091631908
1.24,1,0.4703520795537232,-0.15121852929071894,-1.5898241362687202,-0.002880671375753527,-1.4004956343757016,0.04170197475816762,0.4082221100584008,0.0008342394450342704,-0.02359028774310139,0.01750835462635289,0.16073664877883484,0.12436751943668015,-45.12319233418626,7.811854340923604,-5.259393280454285,-0.707170773673776,-1.5971484691291062,-0.06119017453740272
1.25,1,0.47265814702980063,-0.1557135596562556,-1.583138790039859,0.002002299197300059,-1.4052359225062343,0.03794060852435753,0.39202198364336055,-0.07559015512848678,0.012132014141456796,-0.012696247880981202,0.10632004750876534,0.06666772501268423,-45.417167035992435,7.676991535311007,-5.13791773470837,-0.6615203910472907,-1.57177434516954,0.22136275281508952
1.26,1,0.4800462092096633,-0.15916616840983147,-1.5848916876386583,0.005434336827626776,-1.4040275925927452,0.04062364561718029,0.5085810342392221,-0.06563313305017265,0.10181411521552053,-0.15702014364387754,-0.0328981400328769,-0.038856401397575575,-45.31303981118,7.322516010026922,-5.205974185717921,-0.3221057816840273,-1.4679756438688563,-0.19118891817973166
1.27,1,0.47687103588720753,-0.1638304643978542,-1.5921754160133412,-0.000263018601206446,-1.3996066520934447,0.04586865887932406,0.45169485583256475,-0.08025275268696655,0.1379660484577789,0.0465401091348166,-0.0406194194458567,0.045806373315530675,-45.204431559187576,7.739950829933396,-5.1007613660194,-0.6139400303674396,-1.2196189226570266,-0.25282650214487523
1.28,1,0.4819565705570126,-0.15706858113596897,-1.5816800774256663,0.0029627190080539767,-1.4025792682705802,0.042505175088786894,0.45075375993772016,-0.10945492150747205,0.033609589386880766,0.09242246732892492,0.02732351678877999,-0.0580008125579935,-45.4696708507729,7.656114942011512,-5.215223812100678,-0.4989912899700468,-1.429688775660413,0.05238940592108593
1.29,1,0.4873184651669935,-0.15383821127095515,-1.5853962280524732,0.006210823254827143,-1.4060295876193096,0.03589592978958855,0.5832684270091353,-0.23376788690447975,0.10756083154524469,0.01549827686313154,0.031711010764672115,-0.020728781867697527,-45.44284279221323,7.7100427393972515,-5.522234716288257,-0.5599819399874199,-1.6569887406563808,-0.11978559546764062
1.3,1,0.4946812566136807,-0.1543607406829116,-1.5825655302803097,0.0007587940854946237,-1.4011100961131222,0.039749134412616516,0.5737260557537265,-0.1518239416050592,0.10451343722316613,0.026736979627972786,-0.030353408978157727,-0.004986711932127682,-45.49792975990807,7.67059022839398,-5.1898863694733235,-0.8640891929954886,-1.5538804529406258,-0.03224148318872898
1.31,1,0.497176904769882,-0.16020204490880316,-1.584829431970284,0.0024654895916569088,-1.4015876677816392,0.03184293416307952,0.567110847245086,-0.0775765276622407,-0.07859402344169127,-0.027275207226082846,0.08776762448920876,0.031096044158081055,-45.006737293411085,7.48203820612271,-5.009649311048051,-0.5363515156213764,-1.270042859129636,0.13842626356887242
1.32,1,0.510781172388408,-0.15526493172109646,-1.5823845659160451,-0.002364067962377943,-1.3986647888684727,0.04145860208500107,0.6513759742057691,-0.12348920657702124,0.08286110376006314,-0.04134571542462997,0.10396951623418779,0.04999215726897813,-44.74986120627061,7.488690430694257,-5.004916459775134,-0.19643114895458483,-1.4191215741395964,-0.12937554497106915
1.33,1,0.5147319759640535,-0.16382233973497934,-1.5818358050519241,0.0033275236761113134,-1.3976138892635561,0.04683386146255174,0.7635814608519148,-0.11676452046275851,0.19634208871870623,-0.030866393755707808,-0.031157171518654977,-0.040979968870954835,-44.83390667445013,7.682357990696503,-5.134419326754108,-0.4200842077019499,-1.7463269069191674,-0.14672177999971697
1.34,1,0.5174199534437777,-0.16073253220243314,-1.5849759664115206,0.0030017763954051386,-1.3980064230867884,0.03681117876600246,0.6677839721765066,-0.11613579003677259,0.1267025620611386,0.012117363766243217,0.020618324435878313,0.0023753139310634403,-44.80766760731754,7.541996981456197,-5.101848451839797,-0.8458447893365693,-1.7003584247187358,-0.0846873426536596
1.35,1,0.5248539046766421,-0.16847611114353797,-1.5726441366641981,0.005762646209226414,-1.402154697660537,0.035965702932544856,0.6997049248107703,-0.12481675077360788,0.12293023813367211,0.014283699071872092,0.03699949930637909,0.05645117745135979,-44.9047881413501,7.472608751564313,-5.2895610237687505,-0.7993167986160414,-1.3725817300323933,-0.055427826204102484
1.36,1,0.5367925533536484,-0.1694199811318457,-1.5767959250222388,-0.0014210796712748209,-1.4003312778358383,0.039764288990074406,0.7883177062005264,-0.21076965858344773,0.06416257354954871,0.05228228026453985,0.07432842152418044,0.017468930257262594,-44.80403533800182,7.530287027547473,-5.135571245499196,-0.42007509169530655,-1.4913177207262356,0.06202049417107703
1.37,1,0.5457653896950303,-0.17355261360415822,-1.579187467540635,0.0030784646024391103,-1.394743907187945,0.04391728859827162,0.9558538032972332,-0.26902234150665943,0.14212026137347633,0.14258931125533864,0.03965043152221967,-0.0989563199108623,-44.1748332349166,7.716492282347541,-4.985521790999642,-0.47453923531517317,-1.711885083343773,-0.02413903135847299
1.38,1,0.5600213005800924,-0.18043360847301826,-1.5773775063530937,0.0007811838869407426,-1.4004019954763958,0.046437408227373765,0.8567967082822832,-0.08257098282588901,0.21654236330477092,0.0822541863977345,0.1158924776727135,-0.011753782240417654,-44.151562396396955,7.35343953374609,-5.38294526827934,-0.3519569842400889,-1.4498222988079223,-0.19709644662840772
1.39,1,0.5699785702066674,-0.1688286276396135,-1.5701044480938813,0.0044328287431710505,-1.3967896739826824,0.04210516015920753,0.9841134554162754,-0.050471075735512946,0.15583615121370165,-0.06640942952721644,0.07608112752652742,-0.007326216922126212,-44.09473853851873,7.4713225494019895,-5.378024845179518,-0.7685943907357891,-1.4669567630984495,0.07542768089196424
1.4,1,0.5723815408980468,-0.1764467686834779,-1.574187620140911,0.00930863147611896,-1.4016225804170854,0.03667985765658464,1.021200589477578,-0.10630343117601279,0.1011615171117428,8.067115601378613e-05,-0.046453613326748175,-0.016391010047340837,-43.84610073559851,7.720309685334038,-5.087898835201925,-0.7656535183902394,-1.40546041237577,0.07103421856407635
1.41,1,0.5777372289047648,-0.17805474236548285,-1.5699600388875152,0.004121603609330476,-1.396353855051494,0.04036105620158651,1.0360112205634278,-0.19102585112234646,0.0894592552011818,0.016203859983240865,0.06789313570982829,0.025284829262916114,-43.61946382320968,7.231287925556877,-4.80369502531798,-0.3745797296098563,-1.2918976551295032,-0.10818370321912323
1.42,1,0.5812498820701786,-0.18191877327264866,-1.5701789764996494,-0.00017556334888170835,-1.3938707545012043,0.04750018560274124,0.7810116465324792,-0.2160856551853855,0.10238125108824,-0.07179409817266404,0.07889345155332303,0.058022287530968664,-43.73572282128766,6.947905001123129,-4.789679833374349,-0.2799245619916488,-1.578370731967606,-0.21083552566104508
1.43,1,0.5969626853368776,-0.1798506219814465,-1.5695992879117628,0.001139448888369858,-1.4017279431771044,0.03988874116338888,0.9549708642973685,-0.1434945644090799,0.09020782678043875,0.009309298868047235,0.02496978451904967,0.01272017603476841,-43.415623273002964,7.374549418148388,-4.836539886494193,-0.4706250459319438,-1.5743783589519418,-0.22941229408799993
1.44,1,0.60443221263904,-0.1747949399021903,-1.5704044465323066,-0.0010093974168814517,-1.3984187573867546,0.041368637070521026,1.1822070286488027,-0.25926574237612104,0.18491020383783505,0.12064627985100619,-0.03309299795934718,-0.10681119506888156,-42.86777377112349,7.545155323821054,-5.181184989157102,-0.4358172891784486,-1.1912933351930386,0.21264509443125532
1.45,1,0.617162113914416,-0.17726863881230537,-1.5653364073720313,0.000705140160308473,-1.4001573695734404,0.04006832240702967,1.012982825446549,-0.24585750693499925,0.19856996758574083,0.04371627416907206,0.11073850395091567,0.037412940629256125,-42.95413248006651,7.204948096513616,-5.132678447146447,-0.49801711959879796,-1.2540564247890063,0.11469353097397274
1.46,1,0.6270510379164609,-0.1917747441044131,-1.5622341786817435,0.007701823093954669,-1.3899457983776466,0.036388163078258075,0.9806411333498279,-0.20877537533187196,0.055155672572524655,0.011023091545898946,0.20737135612840266,0.05361519423737442,-42.5005806202195,7.318432683754747,-4.7894246552037725,-0.9326854397554302,-1.5604066773680556,-0.18670762341971348
1.47,1,0.6389024221204938,-0.19019563691113725,-1.5606285283351569,0.0008050243918361847,-1.3978142884584248,0.04408439945527321,1.0284824463938746,-0.32176762636664286,0.15123284438577553,-0.025293461129336673,0.07214573481749764,-0.04369559020879894,-42.316073699678775,7.253213561561513,-4.789492901415072,-0.4515584866685197,-1.5089783386154927,0.022326655335496496
1.48,1,0.653400481702702,-0.1952488602766039,-1.562235910624065,0.0064287243748241026,-1.3921672101218219,0.04401184274095745,1.2157998301494746,-0.1371304146563644,0.1776293398040829,-0.023255431896231898,0.05488843778400092,-0.019125720162945503,-42.14074365534104,7.084031741857208,-4.998152066043804,-0.23329844948776968,-1.4069029947101284,-0.08575704572733751
1.49,1,0.6639705155974092,-0.18806527444170104,-1.5578949619868394,0.005392843916806087,-1.3879033404286991,0.032720372597016635,1.4596501085223725,-0.17999983537394804,0.20725282082346413,0.06149916301934811,0.0695721748176648,0.10951423145981187,-41.54644939837394,6.819751805841009,-4.8731413218974495,-0.5487919157353244,-1.4207147416335586,-0.15269574301408975
1.5,1,0.6756431635497794,-0.19368447004757677,-1.5521861363130112,0.00582288347039471,-1.389985470416862,0.038194193285878135,1.1539167328344944,-0.3565773373432939,0.21860294924675705,0.0058603315401645414,0.015681289504953653,0.07224550521483658,-41.395926944470034,6.937831695871153,-4.7634440072380295,-0.5418339942648359,-1.4598797405366482,-0.026091896639552987
1.51,1,0.6845361676319524,-0.20051757052288186,-1.5590231400867949,0.006389768027426688,-1.3915412525814796,0.03802512234324502,1.3593202624165668,-0.2893867158559281,0.245475598980785,-0.005715615415759651,0.1513220357032005,-0.07125261681608316,-40.99399935839536,6.999959597907167,-5.1841124427671135,-0.6135629458316351,-1.2970604592736155,0.02396179986127172
1.52,1,0.6958046530821856,-0.1999403716791121,-1.5505133483760343,0.004521914078753419,-1.3861184659061208,0.04416079891681505,1.3171709001354566,-0.25890090243878205,0.1891118436985779,0.01829902003505547,0.11088652136620705,-0.04815054028127447,-40.57856654010484,6.926215173672545,-4.745382488140944,-0.6047123071612971,-1.23608322927647,0.13268201821982428
1.53,1,0.7137992009383725,-0.20549059482973625,-1.5529733886581585,0.009219138704611137,-1.3840699101550142,0.03798961891731704,1.2888302527477007,-0.18656910561750478,0.1629125565278256,-0.0032316288530661436,0.0127983586393287,-0.028454076417187932,-40.22890722448435,6.9293902573458395,-4.537519446698335,-0.6431082200688282,-1.4547239675989891,-0.10308002573339423
1.54,1,0.7274365105989783,-0.1974993646592731,-1.5511754683288448,0.005226113512608672,-1.3875651613925706,0.042601418067420356,1.2938266644840315,-0.17542199034997882,0.2617399426152974,0.10785359024519531,0.10637849950006166,0.05195881080074008,-40.10958642966038,6.726391863116909,-4.525370545932073,-0.4611426242507715,-1.415779637712153,-0.03496856479675196
1.55,1,0.7477259558391662,-0.20513128933493666,-1.5433526716842267,0.007659850492949488,-1.3937061100934696,0.041039087530651816,1.3277145154735877,-0.35255786103142456,0.2438810548300693,0.015197635544067223,0.0719821740449331,0.05418792933333518,-39.84039480189006,6.578403208022426,-4.538150616529489,-0.48662634917602826,-1.3306377072988396,0.08464932142207962
1.56,1,0.7550946794482706,-0.20788606787882913,-1.5442440219805793,0.006836942020557828,-1.381125185034936,0.04220641050132768,1.4990864810864477,-0.2334627306256973,0.18181645367155178,-0.049962772597021504,0.08172285917506145,-0.09314424153289581,-39.37646958343187,6.463949206380941,-4.773300340843161,-0.45112075477361896,-1.2297461612033918,-0.049112269370995026
1.57,1,0.7739087381476644,-0.2211849948473984,-1.5449900533069987,0.0102219614185923,-1.3827625418978502,0.04038404785582113,1.4755206521705044,-0.43032177804092453,0.07911601836340476,0.0026544140658614143,0.11701893260290192,-0.08448598327370367,-38.69364540196931,6.1421523653184495,-4.535187776515797,-0.1859190098189369,-1.3261466110287272,-0.19726556758410269
1.58,1,0.7833543401387775,-0.21917498911543115,-1.535664141234719,0.010706740557189063,-1.3832697416529045,0.04117298272156644,1.3186329878073837,-0.2914647201118409,0.17837257938705334,0.15425588946615848,0.06860014624539741,0.17141962958304127,-38.349855578470915,6.592081865011809,-4.279507316606968,-0.2889258971811224,-1.1024416407058868,-0.04953615589457463
1.59,1,0.7950216518395702,-0.2101834824798184,-1.5337354744433869,0.0015101661225144607,-1.3895855117051135,0.041553602064038256,1.5197619042435355,-0.1296058470245568,0.28892260620961596,0.008473046219085753,0.053710263880851004,-0.02594904664277234,-37.95568151136441,6.746437826922647,-4.270217262221036,-0.6186010050429381,-1.0911018997629756,0.035938074493919656
1.6,1,0.8131366124852619,-0.21685875284128936,-1.5418416120239673,0.00979413376268093,-1.3828255139807897,0.0412420290344869,1.622373719363251,-0.3861936366264246,0.2852002921641846,-0.05389169493356573,0.09895916853448805,-0.018013986619538312,-37.01624488302591,6.560435236301487,-4.346894371721153,-0.5078488346255579,-1.4262919153971405,-0.03452098180244578
1.61,1,0.8279494686559296,-0.2317050261826408,-1.5362147509861654,0.00324667455723634,-1.3841203804286104,0.041984025146880814,1.4205601568040385,-0.2754524746691166,0.26923044709104205,-0.005518306234884886,0.15175092760748918,0.039664095763076834,-37.159815076121525,6.288461181056242,-4.474479380323988,-0.42031019942215814,-1.192802198823277,-0.029918582397991195
1.62,1,0.8542282946777517,-0.2282290449079326,-1.5282847509745499,0.0075153295388630855,-1.3831462897486289,0.04025617034775768,1.6253359364905011,-0.2668531090577656,0.23083302943653095,-0.02518486626414268,0.13297309831267234,0.04845922938808424,-37.285872060308115,6.152904021941381,-4.259524695697322,-0.7131393615990188,-1.1521097770059003,0.03607223413825882
1.63,1,0.8586847874193995,-0.2345984315588534,-1.5276402840785437,0.008217347258458388,-1.3791707321733369,0.04051357881453557,1.7674517597047352,-0.24023891362559008,0.20402528067373477,0.11587871270292846,0.047719910604896665,0.00966702441812559,-36.45656025716788,6.221106248258456,-4.378406194093165,-0.512528411085438,-1.251987688939947,-0.06456545695344812
1.64,1,0.8825064852147418,-0.2274395753319952,-1.5205619838853617,0.009311190534512263,-1.3800428863005691,0.04754920882531823,1.881735082148605,-0.27195874567705214,0.3142368367137503,0.16527728633692418,0.08204814527301937,0.0005144848424944067,-35.445229256430366,5.83261104708092,-3.955996799409458,-0.2770809744041344,-1.3275423679761964,-0.21124053257619638
1.65,1,0.8935999422978224,-0.23504558995100205,-1.518340186426503,0.013472611544593926,-1.3786414065231825,0.040199089306915896,1.7190540020938119,-0.3674612721604519,0.2563132107908716,0.06199803736946542,0.12383273639537902,-0.009993312102014658,-35.107460093769774,5.758850650324205,-3.8877542596584935,-0.3838054508609677,-1.0890346723379396,0.04382241649792685
1.66,1,0.916921400246608,-0.24304066552076464,-1.518340531852734,0.01414049577222813,-1.3733552747697622,0.04560246346671956,1.4724356698443501,-0.3960613278816162,0.20339460141466278,-0.007604838365053348,0.13833370404199372,-0.03555528738726338,-34.87189462239071,5.82752375563811,-4.180592067810781,-0.39534648250037124,-0.8089071984691912,0.1351018711834146
1.67,1,0.9312543975317226,-0.24312176951366266,-1.5204671927378386,0.00884126658099907,-1.3733732904959646,0.038779543661586126,1.7739919126762866,-0.326231236228872,0.22215257075413533,0.017688257350375255,0.07847731173381854,-0.06145590884567939,-34.51951292166508,5.526913892512459,-4.027459459855619,-0.47088408053870906,-1.1272673980877854,-0.10516164930608957
1.68,1,0.9479152472832479,-0.2559425722262988,-1.5136290538046588,0.010017411213779559,-1.3759662028428072,0.0429134017062015,1.8155965533307319,-0.3978814564001433,0.26572554190044456,0.0049049513105069685,0.06208961496267498,0.04972860759966052,-33.603039451321116,5.896541063499656,-3.8324325922505498,-0.5438136179445588,-1.1474535628372877,-0.11178287918877941
1.69,1,0.9645292830016345,-0.2552760799998317,-1.5160008893439922,0.011567056501386523,-1.375200307196433,0.0483289333637917,1.6693200329409257,-0.33867821614816546,0.34679831531928557,0.02570605135425131,0.017590696516685236,0.05635439387641855,-32.699987128231044,5.838096389570058,-3.7356145376713585,-0.18108077548248788,-1.0605584980962093,0.14888057636051297
1.7,1,0.9816215963940431,-0.25366819738804214,-1.503968660629794,0.007431517737884601,-1.3750807151027618,0.040097887831278975,1.7371821018058085,-0.25227068668844416,0.29907812587440485,0.09952170444958201,0.1651047966561276,0.011917667988623131,-32.48140410196752,5.1796375674645745,-3.6471551717158928,-0.37181434519089607,-1.1536940259726758,0.18997371729392676
1.71,1,1.0015315272887433,-0.25460728199400506,-1.5046662883992976,0.011885456680429398,-1.3703859949835018,0.039474176095680255,1.8435246832393912,-0.3332917411781395,0.2293720568930448,-0.0007280449752359985,0.24162142639347164,-0.008029085675955876,-31.908328376914344,5.248583026831589,-3.5401460862615237,-0.4536558190624857,-0.8332034940276483,-0.15427358243733882
1.72,1,1.018351410629704,-0.26750815543173606,-1.506693995666306,0.017702565200978147,-1.3665506537509222,0.039675056050854904,2.187351794105823,-0.379207053266063,0.2577262476285213,0.04198339587137885,0.04589128116940051,-0.011910516253064123,-31.121911917418803,5.174048231653515,-3.611472505369866,-0.3411537801404614,-0.8794096260348461,-0.10268738245633387
1.73,1,1.0355265748991869,-0.2655023540708449,-1.498562757309285,0.00895448223953845,-1.3713572721300107,0.041715082932314865,1.833791258175506,-0.4196556086608586,0.31798056008007647,0.04071837000566451,0.038560427914723076,0.05670861391593249,-30.786295641955075,5.427904523738238,-3.6483318802728046,-0.486260129667954,-1.123888428759223,-0.07466853606923832
1.74,1,1.052920387339606,-0.2656385636553658,-1.490334506059184,0.013017599403512244,-1.3629352667003005,0.043233124445076265,1.8992466277739222,-0.4021247739706017,0.3239584960084357,0.11851379504245003,0.028262451300925452,0.03461727089361777,-30.29678166780568,5.413884715302418,-3.2837446958703165,-0.08721967059259872,-0.9384510004527603,0.08418582980744807
1.75,1,1.076722615441184,-0.27734900540800617,-1.4954729998181564,0.014170474613327154,-1.3652047741299056,0.042907158809001554,2.0341692265509086,-0.3069186628747245,0.3236655677597649,0.02477517348835918,0.18315456505011699,0.051356323570473844,-29.61639424186311,4.712196014126957,-3.215729624516439,-0.2822118734290271,-0.8818714186766546,0.05491779068452672
1.76,1,1.1022094011134442,-0.2746763247274044,-1.4898729378199864,0.02186890339248966,-1.374574892285245,0.04159986514258683,1.9640806940510989,-0.27118237035748494,0.26848062161382175,-0.07121913049409281,0.10045369763511423,-0.050893799623266824,-28.848612649067807,4.923873732859942,-3.3753484057142864,-0.5611253603155839,-0.9045324855428679,-0.3366068097988848
1.77,1,1.1162877203788837,-0.27838572734992756,-1.4910258559596652,0.012931774868022631,-1.3643487880883813,0.04905185649105257,2.1784055068189425,-0.42059470847736014,0.25293739722375347,-0.04934070877461059,0.0937308737069157,-0.16032046210675477,-28.012108303583528,4.297440325584293,-3.520683496293035,-0.40401371116988466,-0.852198888656977,-0.2557274380230136
1.78,1,1.1367265371566655,-0.2774930066215162,-1.4858599895663245,0.0125987618258882,-1.3590946891087565,0.039777985169895155,1.8904079144377737,-0.4238147639791146,0.4105265336465532,0.16492838598503737,0.1642840862942087,0.047029795277556165,-27.685380900699236,4.5126473728760015,-3.298703934624158,-0.05020140318168696,-0.8778042420659239,0.26845482089843054
1.79,1,1.156016108397615,-0.28785632725285437,-1.4870986399863044,0.01448778728422889,-1.360487704368874,0.04099141574695255,1.9977195644152421,-0.42976640567742624,0.3588784013034455,0.04525460546476767,0.11468910118678986,0.008950534509603966,-26.729010346976143,5.005899352270534,-3.026347815551704,-0.3327815415644753,-0.8830546180833295,-0.03904023926577745
1.8,1,1.1806979726794988,-0.29185689084543626,-1.4795886801454625,0.016112365318645093,-1.3614703113215327,0.04448226967891301,2.0204397918458565,-0.47158895579708526,0.24065374819745616,-0.10920036007338735,0.10730476479549488,-0.04831871784681635,-26.041212813504387,4.101068877744189,-2.8870246242058344,-0.5581953281573278,-0.8353044874573827,-0.09478565766861434
1.81,1,1.195751888557911,-0.2933960197073792,-1.4761927443688285,0.017122121198705466,-1.3596453142404346,0.04493805447931054,1.8915686587882736,-0.3921004531012168,0.2538608543756304,0.0743280877840961,0.18288768965930804,0.04425380368797587,-25.646552934816718,4.287547180710628,-2.9113854890917716,-0.40900310110350935,-0.6870080638719708,0.057408483262509635
1.82,1,1.2159057432853535,-0.30344411090908374,-1.4681341916516817,0.014796432122385983,-1.3556862730776391,0.047374839066429524,2.2880035642456833,-0.27055975135825605,0.30807139620125146,0.061979779910413896,0.21049600430640142,0.015434655676192347,-24.90518219027675,4.296223899501261,-2.9284429031989787,-0.4767062346857878,-0.6880435629575307,0.04015642732858537
1.83,1,1.2419507268917416,-0.30262665938119504,-1.476024392410359,0.02120640966382157,-1.353244098925287,0.04923274195216399,2.0369884578270225,-0.3653773175336232,0.3024332161314876,-0.1154004013041609,0.11029824681848378,0.03783456726086813,-24.085376255853966,4.020450230662922,-2.790925580252313,-0.159799471733114,-0.8696663568423603,-0.023196614949059974
1.84,1,1.258516039877065,-0.3079143801349902,-1.4697902115684636,0.017875630763570988,-1.3590117885098245,0.04402894592677268,2.0961161678626525,-0.5567351875944938,0.2217891724894558,-0.010777719255513593,0.10459872858144571,-0.00360535222583578,-23.02924783319426,4.037425559261287,-2.56060921600897,0.05405429544016239,-0.7517412680462503,-0.06692824219885993
1.85,1,1.28551009960588,-0.31167905118922995,-1.4609968980969958,0.020793033371779762,-1.3559815594902038,0.04118723681526604,2.1631504929929926,-0.4399571091935528,0.4370476978087155,0.03815621377327201,0.09602616708604,-0.05713768160020981,-22.525509019179005,3.7360148442294747,-2.356137642256308,-0.17800022493119688,-0.6649559171088284,-0.039162709984909984
1.86,1,1.3014830512980267,-0.31235759209707636,-1.4618663324635224,0.016429823417249738,-1.3465872259487601,0.03552489208944314,2.014774836240128,-0.40830737620141727,0.3375095967749676,0.02394497315063219,0.1850445360899948,0.007339274092440338,-21.995502833140723,3.5233219081256006,-2.6870904443549377,-0.3486900300775385,-0.5924833088493697,-0.09911096553731827
1.87,1,1.316048712839383,-0.31734515865861934,-1.4589121762236437,0.019462240316594784,-1.349773145968527,0.03884056222891764,2.146376815716316,-0.479478185180844,0.26088662684198743,0.08371488543797642,0.06676922110593954,0.0742996580159429,-21.11967897987896,3.5441263314213507,-2.554158075867643,-0.1676315146492135,-0.6649802683200201,-0.32130319205165836
1.88,1,1.337223794068453,-0.32760902342262965,-1.4586492374540736,0.018289029512311566,-1.3454263827209016,0.044172130370891335,2.19157538054558,-0.33718693613744877,0.3131117159167199,0.07260160670910774,0.024972703326859906,-0.000604153311423437,-20.41671784557375,3.1601694477163504,-2.345410571486278,-0.2692046792420398,-0.7167899261522089,0.05464734566052722
1.89,1,1.3691701308251472,-0.3256751937551208,-1.4549531559843951,0.02479855508932871,-1.3385381459539405,0.03815773306325321,2.141337885133406,-0.4183877286196229,0.22139865428011543,0.03795557751178267,0.15320858680757035,-0.03213207454696711,-19.677078391114645,3.1934505304013494,-2.0432132942090115,-0.32827773894396683,-0.7468828049254322,0.11087543955468367
1.9,1,1.3925019854312286,-0.3282282023187086,-1.4566487083757962,0.020026833377863963,-1.3493025749900383,0.03738430682782525,2.1422343277666376,-0.44069581683587833,0.41831056615118417,0.09262196684667191,0.16433915842638744,0.0818545359180625,-18.947539851334785,3.2529605072893775,-2.1337852221640725,-0.04893177625401465,-0.45775848178457335,-0.059194015202959915
1.91,1,1.4062923955030266,-0.33879047367982906,-1.4465996433239707,0.021443463952324285,-1.350326590679662,0.04342372260262186,2.096976051810207,-0.2989371879483588,0.45799040682575515,0.08053155928683178,0.12021818820476807,0.04445399578314077,-18.19995602032033,3.004825318287209,-2.1479011719442425,-0.2428600292850774,-0.21698702372214818,-0.027168270161882065
1.92,1,1.4270056560006992,-0.3396980372796696,-1.444889278197435,0.01943126763395534,-1.3459391141627801,0.046389465787284576,1.9147358506992302,-0.4250706956560733,0.24590724094422584,-0.006889796577398142,0.11225936139205853,-0.12860787413971062,-16.859473401848867,2.9368714992873217,-2.0739742168649995,-0.18718212768825337,-0.5315756769473862,-0.030258962111890976
1.93,1,1.4527367083130316,-0.3458012606369593,-1.439410328237357,0.019238018433098435,-1.3401007042685034,0.040255842307810104,2.14729169621918,-0.3888417143585843,0.4041474841362511,0.10362563355510165,0.11589814829417859,-0.0736669748845062,-16.42407521460076,2.5579537660147547,-1.8861794411575956,-0.07876323766259341,-0.6400319817436896,0.08348195349194022
1.94,1,1.466779912614216,-0.3490478206937839,-1.4361239490516486,0.024181157671820677,-1.3384471409563488,0.04528373809927673,2.1462021534244755,-0.48635378686400244,0.40295420412704736,-0.0034029024131894004,0.11399674763392731,-0.030666109949186907,-15.90572321035839,2.4232209578050945,-1.6549552887918557,0.01454900265472058,-0.651823698969607,0.1179959191566996
1.95,1,1.4891601403038222,-0.3596308152053326,-1.434019709382822,0.02419312308922489,-1.3332502512130822,0.04326561912252909,2.0689083204665906,-0.3496252275540606,0.20962169582752752,-0.033935027054506434,0.10232087585483149,0.06681513849445411,-14.752805823868352,2.5830342149479733,-1.6031493982472709,-0.10153439128094816,-0.37312737598237533,0.09992858816507161
1.96,1,1.5166928535355644,-0.35142474167561605,-1.4302206148580034,0.020602597351872712,-1.3410796205029607,0.0473064316757895,2.529940444876437,-0.3231296982917348,0.3225376191698607,0.038208188659632415,0.10134164298283728,0.07947474392091113,-13.896655072817238,2.4796149745503677,-1.6640923745487177,-0.3943725698342314,-0.3725820148821257,-0.08886708589976018
1.97,1,1.5348973966069894,-0.3628417510667679,-1.4258519214089962,0.02229407421406105,-1.3370608971645523,0.05049384602284007,2.443902813140845,-0.41211924972125225,0.4405162667586589,0.05143420019549892,0.15579461602727104,-0.009887294787640371,-13.027569808029083,2.1355236179155264,-1.5272602304794007,-0.2897787288881615,-0.402425670771483,-0.28390704504204345
1.98,1,1.5593774295407583,-0.3614495473185804,-1.4228915308371541,0.025001468043529096,-1.3398853446260972,0.052406878806986086,2.3146414272607596,-0.35558909843340464,0.27094422475383995,0.05468469132318745,0.19240617104484037,-0.08254736303251708,-12.346579380012061,1.9071339094156545,-1.1635061047023567,0.1928654305929787,-0.30654492085007085,0.05689604948732849
1.99,1,1.5818821992074665,-0.3695868767580481,-1.4238675591901333,0.024348111682357662,-1.343319194463935,0.044297445908401775,2.1788023927210545,-0.4232945327866934,0.30767410291831987,-0.013979034375408733,0.12871067282877344,-0.06704969428427916,-11.699118346592707,1.889873622424423,-1.1680981467490537,0.1000695931332509,-0.3025972871309192,0.1187687072597055
2.0,1,1.6027029310324856,-0.3759586348380008,-1.4151284033188833,0.018282628941313606,-1.3352567901732941,0.04051278737424145,2.2064718648079937,-0.6390727520853904,0.48129688707366297,0.09724984835446515,0.11880162957617887,0.03404411509680771,-10.733516754969111,1.5185562304434812,-1.2415821018745843,-0.4105646324435681,-0.29406398305307196,-0.14191509120379805
2.01,1,1.6288836546407754,-0.3741060637453239,-1.4067820891827434,0.02179050914953371,-1.3364908211871938,0.04253474844837808,2.183034660204404,-0.4105266498412557,0.15213946264932565,-0.000377798200340701,0.08525304894282315,-0.07773410238600933,-9.820813540927572,1.5981228808985064,-1.189624399215222,0.05839318308455296,-0.13718787648047742,0.08060159651070573
2.02,1,1.6466509449904623,-0.3789470571317557,-1.411071254402698,0.019214934548486037,-1.3312588002850205,0.046313445495833744,2.2014090036654554,-0.37114379521983415,0.22219344115226752,0.09066282706749829,0.09611841640763316,0.046697050359341394,-8.681218607100423,1.83133453714703,-0.9539347851881651,0.08180587170693425,-0.09170357008387331,0.04864268218630971
2.03,1,1.6695888950096927,-0.38412620549136156,-1.4080819469013564,0.026852211301998462,-1.3368213549746473,0.0403893509788936,2.138517698236919,-0.384172251818289,0.47061642446550966,0.043274831730774094,0.25678111150608635,0.1269461857624508,-8.390410835940237,1.4037622554764833,-0.9376052055057332,-0.23982519316474976,-0.22156187842345537,0.03721874870484955
2.04,1,1.6823026176897866,-0.3871087698310494,-1.402421243832903,0.022388494585192625,-1.3313949711526405,0.04841104334307074,2.33217970744135,-0.5390555297798706,0.29140273689698043,-0.0036944925159206133,0.12052764060811173,-0.06581249043682742,-7.310500916606854,0.9831801369504168,-1.0845865025975558,-0.12926777513423748,-0.19607004077236273,-0.023312851715681995
2.05,1,1.7114215859586075,-0.39641530568725364,-1.4075367851381526,0.024804816285514987,-1.3267746552586954,0.04161811971484027,2.3572049101709203,-0.4103028982054597,0.2784223932497987,0.13829826383762736,0.12998367199042385,-0.0652551507098869,-6.16184747203412,0.861124453649128,-0.5486303667290117,-0.04188362560585275,-0.21861712013096427,-0.06965195366264354
2.06,1,1.7309332444216472,-0.3981565099962636,-1.3960171621457131,0.024070958312258632,-1.3242747551953928,0.04286103984864738,2.443717629769155,-0.38152525165360734,0.40870608919011164,0.048282274475404674,0.11511470281976927,-0.05453740837507769,-5.876627328889696,0.8526285195544036,-0.4719294360783964,-0.020316062414742722,0.055315492624247384,-0.0031233727313052136
2.07,1,1.7527980680329909,-0.40558488394622444,-1.3932882330549095,0.02596024001266073,-1.325911841971996,0.03858418010443595,2.188483441716699,-0.5440040931815887,0.3418098993961619,0.03141507754376115,0.04640472731537426,0.04575646372652573,-4.972413753203417,0.5003988701211761,-0.6243053840214722,0.08361103203658823,-0.14819224191880642,0.14170353401082464
2.08,1,1.7740370643413206,-0.4051921125964992,-1.391958529219402,0.02513003121777599,-1.3182650699512197,0.03866283384615338,2.294640368639189,-0.4481255332824626,0.3073698380487818,0.019134711269918035,0.2734088380239488,0.05782361490400437,-3.853453493954841,0.7220047282658398,-0.39203210041603154,0.05900098580070191,-0.23883116411222063,0.05209421894667811
2.09,1,1.7970518931931914,-0.414117637988341,-1.3882458965660665,0.030762624269923974,-1.3157968018417945,0.041664646234386475,2.2101310655506397,-0.3645236552454566,0.35083691738651046,-0.024580322917394024,0.20877239388002836,-0.0005218731777603802,-2.8048047637227267,0.44458250411757033,-0.40153856438972185,0.01343402901205766,0.04252832704548959,-0.03797905733418577
2.1,1,1.8244412798915646,-0.41002608892155207,-1.3837979463397427,0.029852149091497512,-1.3239355789286733,0.047545038656283345,2.3502394694200386,-0.3827055315473805,0.30160929787908586,0.0646274961965522,0.10951118992432306,0.08874996110547445,-2.0407094860217487,-0.0157252958216883,-0.13491513682052803,0.15424796265819476,0.031357211573489766,0.13219920182117129
2.11,1,1.8364465948025246,-0.41994980495278317,-1.3758056245795633,0.030029121649576516,-1.3132598073144008,0.04195045986341511,2.0004397758656376,-0.39253036433325794,0.28569590818004187,0.08670532734762545,0.08390268336327146,0.07826413956010425,-1.4860293560626974,0.32930155681768614,0.24789876348717538,0.15862740740375025,0.034486114517449915,0.11829358972755055
2.12,1,1.8629247298455776,-0.4231394587172558,-1.3733609159932245,0.02836850123912884,-1.3133121932937397,0.05021685106197949,2.0428609947772163,-0.5489206409434368,0.3572808079075448,-0.08340203883446468,-0.037592679189574055,-0.05185727354743265,-0.8198469945184089,-0.17636533430542645,-0.18771739482840571,-0.0797716779887993,0.019849973702436248,-0.17425698178199642
2.13,1,1.8830074815591378,-0.42516991324575504,-1.3756337848380014,0.020808337908485006,-1.3198575012240368,0.041907260732673986,2.340442003958427,-0.3685222481567271,0.2473299371148674,0.03829040791675929,0.19604502708318694,-0.03862607495366918,0.15149698910738638,-0.26021689164385137,0.2729278941379546,0.25015804225055727,0.04605062212839631,-0.16060551254584526
2.14,1,1.9044122710546583,-0.4313961750383102,-1.373225334721827,0.028606857000319626,-1.3144945074049317,0.040240851714943494,2.1565460427558487,-0.4472197472564586,0.26972595279443207,0.030885484211722877,0.23028008135890538,-0.004238077367030505,1.3903603405689084,-0.41762214024477057,0.3777507234464119,0.05705789618477686,0.11642350384547204,0.019378691155598187
2.15,1,1.9301544988617776,-0.43716782071514626,-1.3691650478202988,0.026119322100681013,-1.3150948363820416,0.0449113376629483,2.079432275426837,-0.41543710391671457,0.31537175683779756,-0.0009149815086934585,0.06167022002835007,-0.1106089604155003,2.1068854221388027,-0.4065088270686798,0.06638212192191142,-0.07458688290243709,0.05315492787380911,0.12430500802887876
2.16,1,1.9478838014879665,-0.44044875523903276,-1.3621466624010363,0.031062410337018197,-1.316096354885944,0.04387708367332391,2.053442091576826,-0.3584828079449073,0.32397887975654316,0.04275638607415672,0.07214013792619803,0.021968565856413685,3.007971184499792,-0.30326092861328635,0.42217622594085896,0.08829162529898463,0.1220129808589164,0.2300634517308976
2.17,1,1.9733224999180636,-0.4399845311891862,-1.36055537077327,0.03144369367337607,-1.315422958377904,0.04509537949521422,1.935089800618533,-0.4031934337756139,0.28533599797792947,0.1081321627711612,0.099819048357339,0.16785204850895172,4.0004085291210005,-0.7854725253267235,0.6324165787377164,0.16415045278892101,0.2901944206327912,0.03427718185348731
2.18,1,1.9857473922886784,-0.45034723882272437,-1.3584534879508694,0.03368146510370183,-1.3073983216373253,0.0442793616578951,2.022903689934267,-0.3747479576014995,0.3081059161708191,0.14047332650996447,0.12005585605087622,-0.005338117035021499,5.0751672134179495,-0.7458158459038146,0.5205350345071352,0.22450052896089065,0.3806917429504756,-0.08029292591973601
2.19,1,2.007215396155104,-0.4505067703896849,-1.3529792722960592,0.03698101690392754,-1.3099586512042405,0.050070862332628537,2.1524596260301325,-0.4021840906694789,0.2960927321068557,-0.025738811170008306,0.18626382178718928,0.04637698183185891,5.394146422442936,-1.0417421523698198,0.5579654517036533,0.013214423228565725,0.23319871051432262,-0.10213425071444585
2.2,1,2.027985880574134,-0.4560293941569692,-1.353725952069598,0.02929108896277994,-1.3107088432320912,0.04464866858154333,2.019486935418292,-0.5459156744253304,0.3259847247967807,0.03362092444939837,0.11025709632104602,-0.08503026960022181,6.040358951778603,-1.5679011491029304,1.1924803817154197,0.30104474023455124,0.2007432641065013,0.09095608216950202
2.21,1,2.050644500045434,-0.4578195490526933,-1.343947730051697,0.03154923383128108,-1.3126398431069448,0.040929275486610225,1.8827764352567533,-0.3678423958839176,0.28508899725849024,0.179889153655887,0.12687177717199913,0.0022240653627820187,7.3884598907675985,-1.3908875358636195,0.6203134131095246,0.04839069065830438,0.20701055333545637,-0.10300182900834981
2.22,1,2.0708591500086913,-0.46340486108090884,-1.3452494704907865,0.03866383675963863,-1.3088112699161603,0.04016433938814888,2.2683976384805016,-0.3224325064602732,0.30501532422088523,0.02929897621320595,0.18805420029685557,0.0281346338335902,8.048979249573144,-1.2221910598332915,0.6568063025961627,0.2750236273210508,0.2525517525062152,0.1365008993523804
2.23,1,2.087810169625847,-0.4609721967657557,-1.3463168145819524,0.034756230658274934,-1.3055789259392758,0.04756670356274576,1.853374832694227,-0.2582959732872356,0.2873155243896975,-0.11261815672235864,0.16842919770242978,0.022387972060153766,8.83598643968349,-1.4303036200038843,1.442511313144771,0.3202427847800736,0.5824526098185391,0.31798295489402834
2.24,1,2.108205778803174,-0.46939741884481656,-1.3402078539362896,0.032682219071644286,-1.3002308352632392,0.042034524048459324,1.9389246240604443,-0.35994568841702035,0.23847069018717362,0.040597914476813636,0.17755994445097387,0.026442113109703864,9.864038122412957,-2.086164867821729,1.0775614304977725,0.05897635652048595,0.3888570553331266,-0.08649451419581881
2.25,1,2.128729597238868,-0.4749364572576536,-1.3336070836605367,0.04131363164624971,-1.3043901074312116,0.04291197840291203,1.9029276734432312,-0.4742667526589152,0.23301161279762828,0.03930485163228712,0.09564934276085578,0.05737912876462149,10.766833764029524,-1.9556703418131431,1.2484725677784645,0.45168709551422376,0.4831640449586096,-0.10790894440847026
2.26,1,2.1557702682993645,-0.47932816907633413,-1.3357414136681107,0.036728253362356446,-1.2990912275580473,0.048156261745819405,1.8559527166157475,-0.40643909022297914,0.35191829615584846,0.028181842484565945,-0.025275174193618938,0.05171415288083533,11.79059458906522,-1.9776691229706733,1.6435173806784982,0.25358990227734624,0.3904219453997186,-0.060560907157356056
2.27,1,2.17129467134946,-0.4857825479540095,-1.3280673619605625,0.03496579171675716,-1.3010696134256903,0.05204869361871637,2.0231201345511725,-0.28249550406940266,0.23630948339185262,0.10525316560789874,0.12679639424410608,-0.1427517333092793,12.34701932617766,-2.5056772402225698,1.5491436297734598,0.2408483385756687,0.26146296348012843,0.14259637111222484
2.28,1,2.1830898072649276,-0.48832823952079535,-1.3317396461078312,0.03399559188824029,-1.298799449648053,0.04322901048227506,1.9871899655226997,-0.3047484091268421,0.3187465773059326,0.00483881870139034,0.17960755922743354,-0.017368169118819082,12.827969962326714,-2.4060340004847145,1.5647465151717415,0.278015618081618,0.6712499297919672,0.168938076150216
2.29,1,2.2024560224448924,-0.49064540097757053,-1.3276406195896802,0.040811615109372604,-1.2947077949731773,0.044593552191525304,1.8220320642213215,-0.49626276515687295,0.31688815010552324,-0.04729721282261026,0.021735484848992917,0.10233219837097032,14.083340932877523,-2.290233779464358,1.6726134923849636,0.04898205965836644,0.6163701169881515,-0.0074276884383850175
2.3000000000000003,1,2.2177083175810863,-0.49116782410433135,-1.3206811250697987,0.0369609379820741,-1.2960329988910422,0.04388107670371672,1.895322742777387,-0.49886564504189573,0.23844472076685982,-0.054733478550703506,0.03212299568391685,0.009506648503076531,14.782243811548113,-2.4520626173567397,1.7667989791344847,0.34509011410254503,0.5179772764836446,0.2119952773005315
2.31,1,2.238801663387534,-0.49716787506216853,-1.322753015035979,0.03601932738400788,-1.3018565052055764,0.043550147462307266,1.784891446767343,-0.20392769891491797,0.2090949208282445,0.1353368165834175,0.21192335965126322,-0.031280666329749525,15.36391305501188,-2.7010442970336834,1.7124887577498142,0.36424250933206215,0.5440324757067672,0.21768669872007837
2.32,1,2.258183549453515,-0.500818473337625,-1.316083815729976,0.04106488860622274,-1.2985597649695115,0.04248155233745768,1.7501161780036938,-0.34857557818523466,0.2843390983393776,0.08372685679420575,0.0756395593400653,-0.057884089252044024,16.494385730036242,-2.99221234944952,1.9909147641026579,-0.00831270814445427,0.2521295516278309,0.0009380146192245198
2.33,1,2.2797965379778433,-0.4998565457847301,-1.3124268131268773,0.04020962131417714,-1.2952303925305002,0.04226196232611949,1.6372015293554896,-0.3078368313834353,0.3645654868595295,-0.04159513255632065,0.11093211472334182,0.03003754066789249,17.21916394038328,-3.0505128232570695,1.9915107485856884,0.258718019720081,0.8170451982292544,-0.025554366580683614
2.34,1,2.289305302422808,-0.5002147093224167,-1.3149151235695102,0.04024461924229002,-1.2919810758616408,0.04757237578710326,1.6426829036245472,-0.17229818949196682,0.10005727295548891,0.11752285940178007,0.13350581275963078,0.0063491530945586905,17.914958039904803,-3.1973793846004823,1.924035925856003,0.3277228559179627,0.8910723843505303,0.05822715984470928
2.35,1,2.3067164508913462,-0.5031847424543392,-1.3111491733824585,0.04227354343105717,-1.2862396215165388,0.04292462066417171,1.7808412782283052,-0.34684093310432174,0.2552336767313358,0.0044661931580517985,0.0910952001787239,0.004851409663314876,18.50567858863763,-3.4477828989870516,2.227491574022522,0.18408714999845038,0.49385142266336157,-0.21595314366488969
2.36,1,2.3205544804299434,-0.5148470168407343,-1.3080825867647958,0.04001337668282354,-1.2911558182741063,0.04856827018424383,1.6982260605043238,-0.37443499940600383,0.3061359857991943,-0.059802472110798775,0.08256601381405876,0.07379480127916316,19.47938945584377,-3.317310949056326,2.2974626906068187,0.28359530427978197,0.5809368949205468,0.053763647184358124
2.37,1,2.3423420121196687,-0.5164161956142257,-1.3031623656016136,0.03987534956182391,-1.283540139886592,0.044433672241809836,1.6897089517398387,-0.3425155526955608,0.20112218045883334,0.007646918545383078,0.08525992959480723,-0.09833695096714454,20.121621173763668,-3.5125206802608053,2.3915692734974994,0.4897177042310111,0.6322667203240088,0.2926948337772045
2.38,1,2.3556163661509117,-0.512046896517829,-1.295751880288772,0.0356842298794382,-1.2924610204941627,0.04135639513444367,1.6533749176034533,-0.41932990339494297,0.23924138318598767,-0.09563269840782962,-0.023264592167779354,-0.0036393004610152623,20.911585899665976,-3.5719598070544833,2.4710958563383225,0.6842104134707643,0.6775289272002493,0.04504565528839903
2.39,1,2.373011860500604,-0.5213231586315782,-1.3013922880011835,0.043098362894108774,-1.2912486953676185,0.04953208973461022,1.4367927611491202,-0.34764441850106126,0.22306981392474187,0.13983558562443188,0.14518118458353024,0.05282011006374926,22.03384803768886,-3.789153508381248,2.6981954594387147,0.11177293206460548,0.8180165611926076,0.12194315642461138
2.4,1,2.386622083294542,-0.5257192143748046,-1.2967174929611218,0.03661129722148175,-1.2885408813665955,0.04444972446935189,1.7548631275395594,-0.23418284711654624,0.24811445840341745,0.10340608774323748,0.10053020021267509,-0.0421423623054845,22.430827621838418,-4.401316307582546,2.676596238763772,0.3760568265352786,0.7667912116784543,-0.15010831257499585
2.41,1,2.4072786920818947,-0.5242197203505224,-1.2952464216224133,0.040522484474880494,-1.2895670239208186,0.04415254108145785,1.5202446671576013,-0.3207283033476795,0.38492710918577516,-0.07209140709906456,0.2082336699268054,0.021822587452576866,23.447372841114152,-3.985047788679645,2.7967557839863204,0.7683783500192024,0.7970066599861438,0.003441912810676233
2.42,1,2.414366882188246,-0.5277726212690312,-1.2914419128659602,0.0354866529860003,-1.2794764430881957,0.0443722262191844,1.5548423266149152,-0.31734337906197874,0.2824051566670688,-0.006017416380422833,0.02907447834196645,-0.0142165567526873,24.29737191955892,-3.971766093674817,2.776490552124763,0.4080451074539666,1.0616108049478161,0.10384572655617545
2.43,1,2.431744391730352,-0.535461608371463,-1.2903302137439965,0.03956402117714175,-1.2950620779714703,0.049723066476695596,1.4032028551444098,-0.2597381849113533,0.09775940325502,-0.014845755429280258,-0.06718667099830852,-0.10258080415966606,24.52956159864504,-4.028845365208001,2.8857628231640566,0.12983076203578658,0.9049003175976461,-0.0384875499810815
2.44,1,2.4580083125086705,-0.5357532284150942,-1.2925432521404856,0.03763805756050071,-1.2867883106099725,0.0437540794158534,1.2978076179689313,-0.2560833182917192,0.1702787482745802,-0.025862041395938444,0.14021176652214856,0.007486333682072022,24.978232623060354,-4.237294371610688,2.963357493501948,0.38570554880013913,1.034898081580783,0.1298276692869916
2.45,1,2.459409542563893,-0.5350539889837362,-1.2851501553024263,0.03959493801778012,-1.2790988356814998,0.04847298516682894,1.5007990728833083,-0.3618041043610609,0.24218629913181336,0.18252933921396947,0.17022703033095699,0.09638656889765658,26.169211090904717,-4.8759819308798376,2.9780325304762654,0.4822793650113866,0.8135207449607279,0.14695745253645884
2.46,1,2.4755887697234917,-0.5472469595235856,-1.2855850338001347,0.044043465072785073,-1.282811988776912,0.043950881028300914,1.2873101036557661,-0.316481121138618,0.25168242794394996,0.09784034992128826,0.13012693602151781,-0.046216102985850056,26.57306823505283,-4.616835093959523,3.24965336926539,0.4242135209326189,0.6340336475529951,0.14032103926989856
2.47,1,2.4975625286968586,-0.5441880475397504,-1.2846916583226045,0.037579260208538426,-1.2767962996180124,0.04690704510908487,1.2618999071245454,-0.16456746708726808,0.18904510575303393,-0.06292974086567849,0.04493665005333941,-0.08381987807579848,27.58747233222509,-4.534966439584407,3.114957546857404,0.571576964515884,1.0028279625518999,-0.17240659957836274
2.48,1,2.514619006877048,-0.5507850715994096,-1.2772335489233912,0.04175722094125235,-1.2733919300347951,0.044220531286383216,1.2953601692106045,-0.3214183039519165,0.17337921508767998,0.01911777841872389,0.08145455302243776,0.03507828903822652,28.36581843943449,-4.892412206834972,3.3981666541351,0.4502605227007215,1.1117820711197488,0.028911120080801926
2.49,1,2.5126112834979764,-0.5539174927196998,-1.277681212709885,0.04599038136876766,-1.2788499156670832,0.046398855267787524,1.1597026539158788,-0.26914672538209783,0.28232094120616746,0.03161473460953009,0.06097295230131776,0.06978741369590967,28.75577409018691,-5.4684905867499625,3.5479935661434303,0.3559558720531374,0.8008233106312844,0.2132761091195935
2.5,1,2.5277209665331335,-0.5544381491600278,-1.2760700507482203,0.03807987585295808,-1.275107613603991,0.04818100981189495,1.0364217027251008,-0.19024794620480925,0.2796501809467714,0.08059053150234481,0.017724756459971354,0.09551911424004882,29.601056604895888,-5.375057763985999,3.4368914960287413,0.3489708391464655,0.895339504276633,0.03425851574353976
2.51,1,2.5410164357445595,-0.5526430888165966,-1.2681805587067039,0.039743332177759126,-1.2697706063800678,0.041584875610330946,1.3113158142196046,-0.2725675030998105,0.034916003235847246,0.015428557715462254,0.04311221403976743,0.006750949705486245,29.845118281212653,-4.820328418320998,3.391589080142552,0.6857847105210125,1.239818183550999,0.03304598207097438
2.52,1,2.56031061929697,-0.5594177878882132,-1.2806995299077262,0.046027459627956485,-1.2767854279630162,0.0458108112488859,1.4217489277991948,-0.2652502629840202,0.0329780569175698,-0.10700097510667246,0.062098018080873785,-0.003624926576395033,30.562028693211502,-5.348718507118589,3.66095561786562,0.5901063225969487,1.107256274392339,-0.14392972397064774
2.53,1,2.561274097290518,-0.5627178155077548,-1.2677567535644227,0.04093434197624203,-1.277248045063594,0.047612189495142516,1.0976004115276912,-0.08993463397670888,0.279750805935134,0.04498217644231782,-0.0034274958888935248,-0.021958142079441603,31.290676195032393,-5.4450498227337905,3.956851647963598,0.3512954191768699,1.013909802188267,0.09624669023148776
2.54,1,2.5749324126377005,-0.5597960009660471,-1.2714408443686414,0.04365942971324649,-1.2749194730822555,0.048891343911628034,1.2143615496652427,-0.1152817154128497,0.22929354451881345,0.11055633278438864,0.16275195673121895,-0.04536779988729053,31.73185335617886,-5.0481134477441545,3.470888343001877,0.6799904865782277,1.2456472189942274,0.012583820225261689
2.5500000000000003,1,2.590186850829145,-0.5667377614555463,-1.266190972882645,0.046043290792560115,-1.269671069534945,0.04801290603973374,1.0674208188854049,-0.3241413238264796,0.0863245243899756,0.10605687124478547,0.16774363635887063,0.0023586943794830072,32.7895544136979,-5.541772871220185,3.8636520143549684,0.4478215172234709,1.1212359720608538,-0.043085797264902755
2.56,1,2.599653746409155,-0.5650016361804702,-1.2690725138884684,0.04224699541836181,-1.2752919937365796,0.0455922463136279,1.0892691202939002,-0.2381678628687816,0.15913899233368378,0.04964795201358305,-0.11422489252006932,-0.0024342335952343037,33.20750118595839,-5.819126234888992,4.108056276306905,0.2517850370568797,1.0809441653506164,0.19457930971805487
2.57,1,2.6065326484815587,-0.563125195655734,-1.2667124471417208,0.041873883137240185,-1.2775630271648128,0.049187341658688453,0.9215615233295614,-0.1389229926348305,0.1541467358342952,-0.07642089340814755,0.021432587327641726,-0.04044371742285334,33.400684525226644,-5.810249277699341,3.8334974937346917,0.3695839160856204,1.1060260883080457,-0.08945314599007757
2.58,1,2.6174720688225444,-0.5688061596449507,-1.2599854299726738,0.04120900423838214,-1.2682444116747276,0.041916581723673955,0.9515430888382014,-0.22638902751447687,0.024081777612223066,0.07764608844124979,0.16337502830183187,0.03103757831672066,34.137860124524636,-6.074583933917049,3.9545219610178335,0.2555690359889118,0.9627695739711355,0.025986365805643667
2.59,1,2.620940118588825,-0.5719575101612457,-1.255934879724861,0.043726747596039214,-1.2734018528200257,0.039201675749584476,0.8777084031496424,-0.20059120026147495,0.1541282565762022,0.001981417901582867,0.06442139370222777,0.02125228935025665,34.50635268970831,-6.038619814649801,3.9489643860755357,0.6860595700844957,1.23557876188499,0.22236109003275037
2.6,1,2.63491141395977,-0.5710380995442301,-1.2618882010795562,0.048121928127713993,-1.2692688425940546,0.043040040896220155,0.9465983435458458,-0.10973087185264412,0.19083058878029088,-0.09851744172056062,0.026344235268357115,-0.04234021082676671,35.418183551210014,-5.83939152652614,4.116950370546462,0.7855251798407061,1.2899023470724327,-0.023002134674618695
2.61,1,2.642947933113561,-0.5811001619307191,-1.257271085433652,0.037295466045972184,-1.2711478308728628,0.04856123740042818,0.9254710839372982,-0.14221698205258101,0.11441116138768331,-0.02227702197838654,0.07940541025740556,0.0819217400712708,35.81772954795789,-6.187308287906022,4.50707078310627,0.3044487357231621,1.4456521312655346,0.022401623903707014
2.62,1,2.6544740508019316,-0.5739307818378527,-1.2588744888988672,0.039513019549700386,-1.265176567977838,0.04170031559406226,0.8226596986690714,-0.17141664882904262,0.1584188750540395,0.06014892108435838,0.06453490628548164,-0.051888705079262396,36.08296496277668,-6.376450196016745,4.449730382777989,0.48128335507188197,1.226124570052857,0.030040498933892934
2.63,1,2.6576328344332247,-0.5662319959762793,-1.2495024879410164,0.04004099864229611,-1.2735754105969361,0.0388644188298825,0.7753534280878985,-0.20512692913495234,0.10631458152481067,0.12670166299929841,-0.006064610542483598,-0.015260891035870458,36.87293365536275,-6.245158539000128,4.058043901552616,0.34727367166162965,0.8881562295440897,-0.14066163114492564
2.64,1,2.6708502418663893,-0.5807078756737267,-1.2648297440173262,0.05080914302855749,-1.2744541029419276,0.038219525518384645,0.8393588875615735,-0.21705373622571414,0.034359731790944814,-0.03630102316159588,0.043615176202077284,0.07816819052301283,36.977783315707725,-6.282342200921921,4.263474473585073,0.3050874124463346,1.3015269907731812,-0.05037807357688691
2.65,1,2.6791072674913736,-0.5819513996100625,-1.2531191213213873,0.042457724196463854,-1.2668635657708125,0.04760003042190312,0.7364099870123648,-0.0742970138715162,0.3023587182697892,-0.04771117504988475,0.03930072717583141,0.06713378980134166,37.759114175073265,-6.623130641466264,4.549748041863555,0.7916804231751793,1.4563753540508326,0.24571794160043517
2.66,1,2.684749334073528,-0.5788778553221664,-1.2543707869378375,0.04330617003166087,-1.2737414928803388,0.040584387500199236,0.7855035739839137,-0.10181343800174303,0.06837003609533732,0.10277837768722396,0.05220169105248555,-0.0023853179917218484,38.13247636833499,-6.681265450737885,4.583161442956963,0.7097002050020763,1.397380008552666,-0.07559805395591675
2.67,1,2.693076329524335,-0.5784928776881388,-1.2606807148405528,0.0410598866442797,-1.2684887972888905,0.04674814970993325,0.7014720711176461,-0.1364255233490066,0.023054581587156408,0.07700320636301579,0.035570307705459596,-0.04391335508225631,38.283682427451794,-6.37954336244324,4.55291254816341,0.29896601605136,1.2190123775736856,-0.14189603334814085
2.68,1,2.6972350461463543,-0.5811784379621086,-1.2522146696181027,0.04450111281601552,-1.263582241546836,0.04359629407168833,0.5646963502392267,-0.0296111004608905,0.23266768506986893,-0.1233822483124496,0.04847069975746874,-0.054409347096006255,38.873798018952975,-6.851894594508031,4.551779996395384,0.4724007856945066,1.2819390913899584,0.034733443902616706
2.69,1,2.7028221190037613,-0.5924965055295969,-1.2412852505541094,0.04723144385053106,-1.2745275044668687,0.04133074895741443,0.6231920182680117,-0.09634122163144437,0.08895670238201145,0.026308591383691772,0.019858573627373723,0.02960068751821076,39.17930034367352,-6.876070062456186,4.881943575448464,0.5254077238972527,1.3668135028531851,0.15951942645303932
2.7,1,2.707255955544892,-0.5845576767824738,-1.2510237757066165,0.04778024312682105,-1.266657325980619,0.042196262249474405,0.5546815645902634,-0.08972030570670514,-0.012934089289916868,0.131769151601285,-0.05583910172791761,-0.002950641239348881,39.46447815361608,-6.70063399464884,4.930336351278335,0.6759910175859438,1.2536599991789075,0.19749463938568648
2.71,1,2.7138740974220346,-0.5772675363626629,-1.2454772921034725,0.04654342956423344,-1.2647314398123664,0.04469962779163515,0.5522669769580159,-0.08322163080755485,0.04683702704498202,-0.008432391342737877,-0.04828774195050987,-0.05976935725753825,40.19715540652242,-7.069925276949511,4.478226987601167,0.5090410005775285,1.2849680653983293,0.1131454785479114
2.72,1,2.7198385811318,-0.5864841339188113,-1.2433464259100033,0.041565197415591185,-1.269213773671587,0.042931237547837175,0.5378309573882969,-0.17101222429919088,0.01605455934352915,-0.03459679535491567,0.003681904767769719,0.09261541113860017,40.705140516729834,-7.255880505754217,4.388150649422519,0.21989080222825633,1.297400670823013,-0.013000080920527738
2.73,1,2.7322963624353345,-0.5938003855981397,-1.2483641343177991,0.04547147856154006,-1.272630186907431,0.04527126061577882,0.44138021607711864,-0.07757683263374823,0.07275134369858505,0.02151042420185389,0.09590234369158754,-0.039946159690704315,40.61622921711058,-6.6887559013218825,5.119722998795901,0.432516760315654,1.2139311498050216,-0.02064677039162198
2.74,1,2.733805441445619,-0.5894544604215546,-1.2460229086388606,0.04780087512673392,-1.2680822316860518,0.04552653493729368,0.4159170160223773,-0.03861188136667591,0.13697048173888424,-0.049649286040733556,0.11499126159357863,-0.1044456482016866,41.22413921936979,-6.746341366847648,5.150687761726356,0.7087529148580444,1.5299026889934337,-0.01300600272274546
2.75,1,2.7348597422553973,-0.5946806377252328,-1.2512098686608295,0.042553249048141416,-1.2698828966163525,0.0455098804198395,0.5354319647590473,-0.1766296218581806,0.0904515042824644,-0.06687630326547299,0.13124924678506572,0.011008025349776317,41.62573784526306,-7.470469615404183,4.704198288501903,0.7093614497027563,1.5846620623203296,0.06314957537592572
