alpha8332/-/real_like_cleaned.csv
timestamp,robot_state,joint_position_1,joint_position_2,joint_position_3,joint_position_4,joint_position_5,joint_position_6,joint_velocity_1,joint_velocity_2,joint_velocity_3,joint_velocity_4,joint_velocity_5,joint_velocity_6,joint_torque_1,joint_torque_2,joint_torque_3,joint_torque_4,joint_torque_5,joint_torque_6
0.0,1,0.4352082875086342,-0.1547857288476494,-1.590070630583469,0.0090093805842012,-1.406081896172272,0.0395969281329938,-0.0138035113446644,0.0271576151396094,-0.0872620775627523,-0.1402749703940642,0.220558172678066,0.2108506762120654,-43.58472098661184,7.669664212716009,-5.736688036432376,-1.188644119761745,-1.079979443672516,-0.2207812601978598
0.01,2,0.4303600408595958,-0.1459674653480079,-1.5916268849634811,-0.004075907054523,-1.4021979463528706,0.0416553522520897,-0.0224402640610116,0.1026117206588836,-0.0186403352922001,-0.0904320398659966,0.0920360508570662,0.0723004650609679,-43.58472098661184,7.669664212716009,-5.736688036432376,-1.188644119761745,-1.079979443672516,-0.2207812601978598
0.02,2,0.4365558999289018,-0.1445026685204994,-1.5885412126135077,-0.0029503249997664,-1.405456750823112,0.0446652904825985,0.02076253424945,-0.0172858969728076,-0.0243878164813957,-0.0095520083322444,0.0142422440551864,-0.0662497460901296,-43.58472098661184,7.669664212716009,-5.736688036432376,-1.188644119761745,-1.079979443672516,-0.2207812601978598
0.03,2,0.4379284911559101,-0.1480305180036883,-1.587981909981899,0.0036491564521526,-1.4042442918513194,0.0381334739086974,-0.0259833861938735,-0.0513536867964934,-0.0185688760781116,0.0191903324863418,-0.005793065812834451,0.0607358491626402,-43.58472098661184,7.669664212716009,-5.736688036432376,-1.188644119761745,-1.079979443672516,-0.2207812601978598
0.04,2,0.4266945243148522,-0.1514867995825992,-1.5894777972785927,0.0007095724699634,-1.4045606816862255,0.0383027249492744,0.0357374819992409,-0.0429591417531735,0.0390304836743161,-0.010134971576238,-0.0258283756808553,0.0423572922160399,-43.58472098661184,7.669664212716009,-5.736688036432376,-1.188644119761745,-1.079979443672516,-0.2207812601978598
0.05,2,0.4312021845597226,-0.1519242654535635,-1.5889881775815318,0.0019448978681483,-1.4026471872503703,0.0399222610472543,-0.047277916315388996,-0.0137617593202132,-0.0247442573588336,0.0199097031993084,-0.0281081546454353,0.0443180223955223,-43.58472098661184,7.669664212716009,-5.736688036432376,-1.188644119761745,-1.079979443672516,-0.2207812601978598
0.06,2,0.4342255177013915,-0.1453029234044796,-1.593486923204689,0.0017579982940168,-1.4024436628234638,0.0411621636165385,-0.1302933146300189,0.044323564906731,0.0510380083053468,0.0784418917063407,0.0147458075069939,-0.0509576944097248,-43.58472098661184,7.669664212716009,-5.736688036432376,-1.188644119761745,-1.079979443672516,-0.2207812601978598
0.07,2,0.4321940467523439,-0.1532234906342203,-1.5815881352926733,0.0012754306056285,-1.394026421152374,0.0351811820913783,0.0546244126478938,0.035140864291155,0.0586574277260726,0.0784202407331602,-0.0592286514863837,-0.033946641115587,-43.58472098661184,7.669664212716009,-5.736688036432376,-1.188644119761745,-1.079979443672516,-0.2207812601978598
0.08,2,0.4344125251737233,-0.1443762505566439,-1.5955466786421415,0.001071192443635,-1.4000023618608437,0.0428792400257428,-0.0330072943594213,-0.0414525749443369,-0.02667482126419,0.0783985897599797,-0.090852542907022,0.0565313397620062,-43.58472098661184,7.669664212716009,-5.736688036432376,-1.188644119761745,-1.079979443672516,-0.2207812601978598
0.09,2,0.4304905458099416,-0.1492851072345134,-1.5936268237740154,0.0035134061858497,-1.4115652719578162,0.0408779811945099,-0.1081223192627794,0.0120367035227094,-0.02752160282747,0.0167231019091197,0.0731954270801315,0.0325547446723412,-43.58472098661184,7.669664212716009,-5.736688036432376,-1.188644119761745,-1.079979443672516,-0.2207812601978598
0.1,2,0.4354798055259362,-0.1487776951169462,-1.588256137825366,0.0043335893970677,-1.4044795223647928,0.0442785924598223,-0.02696749385810855,-0.0078930119895863,0.0468606653540117,-0.0857374751750234,-0.0495833173094318,-0.1041468246840657,-43.58472098661184,7.669664212716009,-5.736688036432376,-1.188644119761745,-1.079979443672516,-0.2207812601978598
0.11,2,0.4362893944254293,-0.1545167562150321,-1.5881682834445856,0.0070507256538721,-1.4071307423833546,0.0322203995936258,0.0541873315465623,0.0270680103852808,-0.0153317574964951,-0.05231037485132731,-0.0607215345603824,-0.023631570326356308,-43.58472098661184,7.669664212716009,-5.736688036432376,-1.188644119761745,-1.079979443672516,-0.2207812601978598
0.12,2,0.4333068255571204,-0.1482292103442126,-1.5897189031439438,0.0014779338002822,-1.4005050022103198,0.0437380007409456,0.0784018758082153,0.019457037056692,-0.0034416213077475,-0.0188832745276312,0.032580585726336,0.0568836840313531,-43.58472098661184,7.669664212716009,-5.736688036432376,-1.188644119761745,-1.079979443672516,-0.2207812601978598
0.13,2,0.4383594531387683,-0.1462790655693469,-1.5887885832617907,-0.0003694224572788,-1.4060196448485534,0.0449398432645152,-0.0173894107825449,0.0080225370142449,-0.0231104201509382,-0.0565349775934417,0.0446064646625423,-0.004655517090493756,-43.58472098661184,7.669664212716009,-5.736688036432376,-1.188644119761745,-1.079979443672516,-0.2207812601978598
0.14,2,0.4344670569305957,-0.1523909148665089,-1.5992271189879914,-0.0002305579389376,-1.4025604477668927,0.0425268214038509,0.0412113917774918,-0.042320221332467094,-0.0209060000711906,0.021129865369164,-0.0397500274948357,-0.0661947182123406,-43.58472098661184,7.669664212716009,-5.736688036432376,-1.188644119761745,-1.079979443672516,-0.2207812601978598
0.15,2,0.4314598699307291,-0.146496304554437,-1.586366200129763,0.0066432200105655,-1.4142310134153775,0.0394482708877672,0.0065368658351927025,-0.0926629796791791,0.0413424539629274,-0.0557882773968614,-0.0563713510800346,0.0457509068965528,-43.58472098661184,7.669664212716009,-5.736688036432376,-1.188644119761745,-1.079979443672516,-0.2207812601978598
0.16,2,0.4340116183242282,-0.1487104779359197,-1.5919073465534714,0.0032017826921083,-1.4102141249162738,0.0447602485470424,-0.0281376601071064,0.0594019678037101,-0.0559638693162022,-0.010144686124133,0.0214938896261181,0.0616831175540413,-43.58472098661184,7.669664212716009,-5.736688036432376,-1.188644119761745,-1.079979443672516,-0.2207812601978598
0.17,2,0.4302206777564669,-0.1497544545465385,-1.5880102456712006,-0.0052258815082805,-1.3981262219513189,0.0447485884071647,0.0795665723061925,-0.0546783328860442,0.004427469684139547,0.0471106923532503,-0.0421255596485049,-0.128557179015872,-43.58472098661184,7.669664212716009,-5.736688036432376,-1.188644119761745,-1.079979443672516,-0.2207812601978598
0.18,2,0.4376783856275262,-0.1466749268399391,-1.5982637423696064,-0.0049930335943201,-1.4049437599015435,0.0411697632502948,0.0275277074534738,-0.0142451997154742,0.0648188086844813,0.0086006880018181,0.1157763572811759,-0.03346401901610224,-43.58472098661184,7.669664212716009,-5.736688036432376,-1.188644119761745,-1.079979443672516,-0.2207812601978598
0.19,2,0.4337673789905588,-0.1563003231618727,-1.5904458603425715,-0.0012961052407954,-1.406688119483243,0.0424836127975509,-0.0648201988336633,0.0577540903150758,0.006624135597839503,0.0392130629336873,0.056500058310812,0.0616291409836675,-43.58472098661184,7.669664212716009,-5.736688036432376,-1.188644119761745,-1.079979443672516,-0.2207812601978598
0.2,2,0.4323402469884554,-0.1467843356776469,-1.5933195123688395,0.0035717478291267,-1.4030241009734667,0.0467015757089961,0.0463565404225171,-0.0509003078291272,-0.0515705374888023,-0.0618400663459125,-0.0826830622312097,-0.0408282926607734,-43.58472098661184,7.669664212716009,-5.736688036432376,-1.188644119761745,-1.079979443672516,-0.2207812601978598
0.21,2,0.4327787885919359,-0.143535423646361,-1.5901057141297017,0.0006568508872188,-1.4086166947057042,0.0420618825187063,0.0278342598931352,0.06771291920928645,-0.0849876165428795,-0.1361299409740529,-0.0770295863313209,0.0229734152069243,-44.13394971593251,7.892833654286457,-5.516007585398135,-0.2143764878650235,-2.2409656957273563,0.2803077673272554
0.22,1,0.4387004565102137,-0.1433185034094377,-1.5917212376236969,0.0024929299512684,-1.405316220107946,0.0385443007768451,0.0258472702226471,0.1863261462477001,0.0290127062366259,0.0156793773608681,-0.0713761104314321,0.0406127043839558,-44.10702435360309,6.832841051360693,-4.616972908310943,-0.7646919715579467,-1.7640557012720086,-0.2349769644787709
0.23,2,0.4350817751925547,-0.1442474204432826,-1.5899051133597577,0.0001063257038232,-1.4115318068214044,0.0452613653655243,-0.066661593677434,-0.027790697551897,-0.030946616141981152,0.0388194318643885,0.0655446811444395,-0.0347831191314935,-44.13603897976886,7.117313372337639,-6.102805088144718,-1.31500745525087,-1.306527240838982,-0.6869344363156384
0.24,1,0.4316741373346147,-0.1495664594411488,-1.595775060703543,0.0063373222523858,-1.406423565475299,0.040311510672831,-0.0677000587537373,-0.1329429956139744,-0.0909059385205882,0.0397353107694314,0.1119996253614669,0.0557379539332097,-44.16505360593463,7.648834635014262,-5.067153130728185,-0.5457675859876168,-1.5709777591211038,0.3742792295109416
0.25,2,0.4325110954431541,-0.1512740752820908,-1.5932047979817188,0.0038530672014298,-1.406100875623729,0.0422653182298017,0.0298403522079678,0.0677136000922162,0.0205044607994575,-0.0426921632067508,-0.0960664753258018,-0.0274294698780754,-44.194068232100406,6.875016014437721,-6.325256047918426,-1.416890897519525,-0.6712682530010194,0.315878190125643
0.26,2,0.4358505039783011,-0.1483507357770825,-1.5926091209148183,0.0008190086952679,-1.4015308969549063,0.0403465326564855,0.0872627633435506,0.016154581599241553,0.1058878970608698,-0.0200848147783633,0.0227218868750042,-0.0828173481306277,-44.223082858266174,7.6243927535106915,-5.063328256218592,-0.4091922721134052,-0.8785633275938479,-0.2176318228835762
0.27,2,0.4370117891004464,-0.1469694769910969,-1.589083823593486,0.0047923099756563,-1.4021678753307227,0.0443242486682991,-0.0367166786486311,-0.0354044368937331,-0.0322938300085985,0.0659084318026944,0.018977014454291,-0.004694030693354528,-44.25209748443195,7.3960565017712785,-5.564262849558414,-0.1082912880287365,-1.4624810747789618,0.3078521777453681
0.28,2,0.4351827246746041,-0.1510043117552915,-1.5886626137593234,-0.0037842233426347,-1.4027688309211968,0.0456414341948383,-0.162328949237834,0.0707289849667035,0.0542946698298588,0.0385280301561735,-0.0266903157412098,0.07342928674391865,-44.20584723787975,7.103944398898048,-4.97138701083632,-0.2676444646577091,-1.6476052605839056,0.4906065753521796
0.29,2,0.434267346508945,-0.1453564080240761,-1.5896412245325686,0.0014249260130594,-1.4047941542650073,0.0409410059917675,0.1177467837419595,0.0431114123215313,0.0380087029924357,0.0302573843682598,0.0099589763293148,0.1515526041811918,-43.91455985982908,7.848908188129656,-4.296540217781078,-0.9602123056072188,-1.5352592847740654,0.05789287655525627
0.3,2,0.4424941703584436,-0.1405133450353036,-1.59635778497929,0.003027701284875,-1.4013542065088156,0.0479897734516363,0.0312921724380031,-0.058619902380067,-0.1394902579146381,0.0584115100689583,0.0709508882279877,-0.0498459134174015,-43.83193324603135,7.000542061146179,-5.156873737441384,-0.2238429354560389,-1.231997108637897,-0.374820822241667
0.31,2,0.4326199546049764,-0.149435491336911,-1.5923629249195153,0.0051244839954765,-1.4061456276529125,0.0410241902424719,-0.0985492796863088,0.0287854685479299,-0.0522886752073546,-0.0635610293524034,-0.0036909454621558424,-0.0780648268896718,-44.84116464194976,7.464631163501777,-4.570096101275671,-0.9496088079259905,-1.7400784573823471,0.5011952009558045
0.32,2,0.431756249967814,-0.1515683997024416,-1.583396205834887,-0.0051855816522157,-1.406596869989645,0.0451564602407807,-0.06591077149083326,0.0240050335786207,0.0675899415828761,0.0171970412256991,-0.0783327791522994,0.0386141059354124,-43.478355727280174,6.832657418723997,-4.951190790752193,-0.5223195991397551,-2.05846486145258,-0.3309264834604337
0.33,2,0.4310336360603617,-0.152987602806684,-1.5855042698104298,0.0019015418087992,-1.4030988408049196,0.0418609334107839,-0.0332722632953577,-0.0915430370402358,0.0178431877740673,0.012331801818968,-0.0569047790801168,0.0060230141080782,-44.37370166730939,7.3799808397933955,-5.082195255900089,-1.129166217855742,-0.919908271330972,1.1951547709134158
0.34,2,0.4342397695663591,-0.1454827169653607,-1.602662972026519,0.0019165306014388,-1.4063413930062718,0.0385958681845665,0.0573756902903995,-0.0650458870821068,-0.0216144176877151,-0.0505343024562051,-0.0135159552908626,0.0217685202911232,-43.94692061451838,6.675302870189611,-5.8895812648664,-0.3756879046696882,-2.670988255465195,-0.4114461110937166
0.35,2,0.4386188409103687,-0.1495169767989685,-1.5912966613319213,0.0028253662575077,-1.404934932135226,0.0481907914549545,0.1385662315363854,0.0685579126926852,-0.0036403379111014,0.0025614659988411545,0.0318964014240857,0.0300401493283191,-43.7808177335226,7.49701742489951,-4.61895896372007,-0.8327877508437889,-2.049825461698085,0.845076396603702
0.36,2,0.4339505510709454,-0.143923110043201,-1.5884256223632949,0.0051153234796545,-1.405368946162919,0.0387658420153925,-0.0423064804511769,0.0140770717299339,0.021907519295135,0.0556572344538874,0.1014893639116325,0.05059380064588401,-43.924372634225705,8.238110134238532,-5.089351851865693,-1.4717819293304566,-1.7202027464441956,-0.1876238250890726
0.37,2,0.4311000983992656,-0.1509599693276868,-1.5921019757755506,0.0044395956154378,-1.3980283744002135,0.0399584697395207,-0.0880659221845177,-0.0451687501906624,-0.0475357234122143,0.0063144753890563,0.0371932300433206,0.0711474519634489,-44.15812951760177,7.42956098612904,-5.798717708143862,-0.657487825581123,-2.0944864475862115,-0.8094239155630369
0.38,1,0.4302561307701085,-0.1455022934302388,-1.594427616020274,0.0008543918655879,-1.3997679955192688,0.0372742267760462,-0.0487945424952345,-0.0207379034775046,-0.0647468533302721,-0.0151384389981157,-0.1301459118120058,-0.1201394819723333,-43.82949773999997,7.493063265144483,-5.578627816824402,-0.2199550756939101,-1.803882078995887,0.3522908563776482
0.39,2,0.4355134599993089,-0.1492743461007936,-1.5943502457557506,0.0037964238226991,-1.4077135146009505,0.0445679037988225,-0.0325350989601995,0.04889432284608405,0.08753824993691135,-0.0492254136994035,0.0819465589362874,-0.1290134662321132,-43.92989172129983,7.447158727905648,-5.552088330783797,0.1281996312437898,-1.323160505928454,-0.5053692393400644
0.4,1,0.4357079495367451,-0.1507901083929229,-1.5911509041361664,-0.0004008564165559,-1.408885636555512,0.0447308616716386,-0.0162756554251645,0.1185265491696727,0.2398233532040948,-0.0513858169556822,0.0116892726224621,0.0384053505408145,-44.05810453025544,7.24013518327852,-5.780345824500367,-0.853251319568455,-2.002136700512143,-1.3630293350577771
0.41,2,0.434817548515456,-0.1479476665792842,-1.5930182687979502,0.0010722267530779,-1.407405602834347,0.0422068610168917,0.1039494502465062,-0.0944596853472904,0.0673933608669431,0.0548314754657349,-0.0604238651202508,0.0471717402547389,-44.10546185718373,7.787992789897513,-5.527942483490111,-0.3590822781224224,-1.394891110188941,0.4842338505904462
0.42,2,0.433064214590523,-0.1531906305151018,-1.5876092408194236,0.0050350123482964,-1.4073522288781384,0.036843705489587,0.0546163008681707,-0.1426616416925424,-0.1337542763987365,0.0504584671323576,0.0528787630971658,-0.0676725528398914,-44.54604981189589,7.709686451658439,-4.893221004895062,-0.8773435219950467,-1.703336364875404,0.4296555105529319
0.43,2,0.4345723217558208,-0.14240657536209,-1.5919477998839069,0.0011916772223586,-1.4014946964196655,0.0400980518701716,-0.0698484100578038,0.1348103301257075,-0.0457735560896855,-0.0240392792137034,-0.0100399227653458,-0.0144757521197377,-43.34163916537298,7.22752919685241,-5.265182188208246,0.5198177280706273,-1.5159646180914137,-0.969575114808035
0.44,2,0.434697513726832,-0.1476036020130764,-1.5946727144278288,0.0031528214884685,-1.4013411231518365,0.0395500615517583,-0.0437704271968127,0.0938327531729276,0.0422071642193655,0.091221874069802,0.0437928747330084,0.0677330952224954,-45.02249925225805,6.0785213703307726,-5.39181310331654,-0.8849570029135069,-1.051237058362139,-0.499709126997399
0.45,2,0.4340123974648605,-0.1456249553552554,-1.587704677790736,0.0067645083307142,-1.406826768986288,0.0373460293819352,-0.0723990257343469,-0.0797182879091086,0.0410005499008655,0.0230756652277603,-0.000946673169268851,-0.0759483940497192,-44.48251137535036,7.240119896590116,-5.910845693321956,-2.046490418152413,-2.2663556978787303,-0.1553844111334314
0.46,2,0.4362546756662926,-0.1509957162316856,-1.5958985576841014,0.0042974900423516,-1.4068153665767564,0.0373773367455541,0.0838245337747987,-0.016716220750547156,-0.0130518162804035,-0.1117088702452065,-0.0456862210715461,-0.064923616867388,-43.72644777653112,7.387610652278349,-4.475969190559908,-1.2583460653170682,-2.505737818394349,-0.3958286449563392
0.47,2,0.4354685468858686,-0.1514262915292306,-1.5944515840945737,0.0054764197640982,-1.4095332382422645,0.0424174650868958,0.0215783112268272,0.0462858464080143,-0.0713071584544411,-0.023154200709113,-0.08102975313344371,-0.0538988396850568,-44.591913743549874,6.663564605296769,-4.812500536158144,-0.5296005422558159,-1.1512938571382905,0.4653810348050339
0.48,2,0.4359935963702637,-0.1490576348314476,-1.5937599158427331,0.0098432275205892,-1.4028474637603947,0.0362540589745859,-0.0296660265070914,0.0186941173864766,0.0328852924683265,0.0036149630106338,-0.1163732851953413,0.0431742796734824,-43.65610286740638,7.684986529824699,-4.145860707745418,-0.1574873713717718,-1.7904084707654515,0.2075619189904803
0.49,2,0.4339079130325473,-0.144153004058998,-1.5838024290269948,0.0037113978714234,-1.406290469155174,0.0419109021322078,0.1158425877009783,-0.0671175853833569,0.0591333456179448,0.0135816447793745,-0.0601011611213627,0.0830050197516427,-44.59871264133664,7.795911259572463,-5.709439902198655,0.9012970028898626,-1.2563353938740578,-0.19932870258467053
0.5,2,0.436395322942755,-0.1513071707315421,-1.5931818430910245,-0.0003146333476778,-1.4018996130931438,0.0334869672385533,-0.0286295223260485,0.0709986302817652,0.031869476225903554,0.0959754298590034,0.1625745310372354,0.0647978912064437,-43.81294525500616,7.047951939051067,-6.165766585365577,-0.7283569493788937,-2.735431106904306,-0.6062193241598214
0.51,2,0.4357904519698699,-0.1500551541899371,-1.5985582867239685,0.0048806002943321,-1.401837851001861,0.0468509517675443,0.0114316643730966,0.0913720726187653,0.0046056068338623,0.0175162463783406,0.0293249401769963,0.0465907626612447,-43.87086750042997,7.737167080849053,-6.027806940161127,-1.8547089889604809,-1.823884149865254,-0.9255319453148632
0.52,2,0.4303141450432659,-0.1472251608989888,-1.5928528635573276,0.0029599517727777,-1.402412569918968,0.0386314274608934,0.0514928510722417,-0.0706846737041306,0.0121973531877631,-0.1028776360443767,-0.0336785533110603,0.0272353790819289,-44.76664622353249,7.542328844981663,-4.486672585738828,-1.2090757566157777,-1.822426755062127,0.4811993296426106
0.53,2,0.433626420270758,-0.1474372736920465,-1.589271601506936,0.0035574556464731,-1.4089611489151277,0.0442993271886153,-0.0272878024606174,0.0339185376363075,-0.1004874728047562,0.0202678307984502,-0.0966820467991169,0.0240554584870565,-44.73704113271004,8.150855902142142,-5.92133647914463,-0.5634425242710747,-1.6590872567832224,-0.5843333616983518
0.54,2,0.4338256116189252,-0.1417785841324476,-1.5901793942014382,0.0067424372721107,-1.4078097118128448,0.0408126792058134,0.0107501197717059,0.0839520131779152,-0.0294097034463708,-0.036044086889123,-0.0988549071008313,-0.0645893548174133,-44.0241755053828,6.631842819609355,-5.53368572642925,-0.1524975103137932,-1.1270941685406752,-0.1142504888324506
0.55,2,0.4329673996279811,-0.1463597519660792,-1.5842078108905342,-0.0051810196862748,-1.40125976806952,0.0409496631850755,-0.0751456655218356,-0.0151898048378553,0.1290385695976427,0.0301821601563063,-0.0495524187608326,0.0298129092187533,-44.10789693649426,8.166335559356671,-5.970846508577663,-1.0974446046863302,-1.8421685607663407,-0.3743428758309481
0.56,2,0.4323326004082231,-0.1456306891377275,-1.5856253027537623,0.0073978098212534,-1.4084801648985816,0.0369205678442437,-0.0776180312303886,-0.0147233406931648,0.100713502477613,-0.0557391412334406,0.0030022963693837543,0.1091196245947811,-43.99348853892013,7.856044463545019,-5.216702728537835,0.4862107512115625,-2.358057563396626,-0.6344352628294456
0.5700000000000001,2,0.4391598991787085,-0.1452789956527948,-1.5894781190521514,0.0062409320779171,-1.41079776399854,0.0384671400752042,-0.0586988158810626,0.0702301414800146,-0.0414307945622567,0.004889361887843356,0.0555570114996001,0.0585208132346873,-44.40681650398181,6.848862265398387,-5.286514334962361,-0.8637915808923579,-1.9514883823579177,0.2304875029068239
0.58,2,0.4294761861943487,-0.1508877017105102,-1.5943346768668851,0.0043039983496688,-1.4022784789272866,0.038740877207693,0.0403445774314475,-0.0199982835925336,-0.049879811646006,0.0655178650091273,0.0412611531274969,0.02060831888618425,-44.21641209241977,7.63082989361902,-5.306964103768317,-0.7375701150047008,-2.10103720643876,0.2142552495141607
0.59,2,0.4381910548299186,-0.1513103661599514,-1.5856710231387603,0.0038851340992571,-1.407369098125015,0.0405660648636583,0.0786821537285027,-0.0447322096313159,0.0378147481036676,-0.1143309458422305,0.0269652947553937,-0.0173041754623188,-43.81673314005331,7.730601191769463,-5.3944660086714284,-0.6326780317559275,-1.2220836234100254,-0.3051142341415519
0.6,2,0.4278712837283051,-0.1515998648238559,-1.591958519908778,-0.0001849727348123,-1.4010004403887863,0.0465282988220895,-0.0865516650779818,-0.0470047459401848,-0.009392464963876,0.0031569971095112004,0.0260413685836405,0.0662255626025898,-44.6419090872053,8.49351406264054,-5.325727898919643,-1.2937013951677252,-1.2983319875026458,-0.6222689181387305
0.61,1,0.432060836005069,-0.1535185417008201,-1.5936653583663871,0.0023412137359621,-1.4046549606759504,0.0432784103037706,0.0421951713588634,-0.006076751230474,-0.0087192301507443,0.1206449400612529,-0.0119165181618914,-0.1542741579505169,-43.84245005868127,7.685718415505375,-4.763068301609233,-0.5327940438270827,-2.3420687136326155,0.4427786072855528
0.62,2,0.435194517597552,-0.1446396219157201,-1.5925168060149573,0.0060498469226493,-1.4057473680428696,0.0357151449078674,0.0637059938616355,0.0192230666860763,-0.0080459953376126,0.019599449014165646,-0.1059885984635045,-0.1203691167593145,-44.06939691063583,6.335536384274317,-5.574954264258704,-1.3171664514960455,-1.016843175745605,-0.4674867367891651
0.63,2,0.4373249864250249,-0.1475378795700341,-1.5958216688129994,0.0049365873668511,-1.4012404536350416,0.0398189135514157,-0.0904471146326078,-0.1007425775930091,0.0063240017540251,-0.0814460420329216,0.0299000667584229,0.0253769813699802,-44.74446021519987,7.873687771215101,-5.195843418908924,-0.3262650127082073,-2.386864006718971,-0.4658052609951698
0.64,1,0.4349639789233433,-0.1485664483262099,-1.5927840726914717,0.004555465496421,-1.4089066834998862,0.0390919927229084,-0.1626380523251757,0.0133540449858778,-0.0522553306827489,-0.055795708903758,0.0906406715525329,0.0617235901806101,-43.78266574248376,8.233579279643676,-5.678530613186943,-0.5388588505626797,-2.0035288170107877,1.1356716478940163
0.65,2,0.4346320671480627,-0.1571537827880022,-1.5927699055004032,0.0041706494519897,-1.3989817058325793,0.0395022168753605,0.1220734190726177,0.0604041378387398,0.0221444599904917,-0.0340599938626736,0.025343882381646504,0.1010271757913174,-45.136026094992914,8.361458121059453,-4.946809462527229,-1.8764943336147188,-1.6201936273026043,-1.0971551152207693
0.66,2,0.4333247695420995,-0.1407759348519924,-1.5885314602574228,0.0041033029344225,-1.4069891662587573,0.0407242344278005,0.0995970349721176,-0.0167384873060787,0.0290965873968845,-0.0366224571723042,-0.0399529067892399,0.0558610558061436,-44.63149691557544,7.2012572259969225,-4.92054713814452,-1.054821308424009,-2.2953835568802043,-0.6909406231003788
0.67,2,0.4329808423846611,-0.1516161294553245,-1.592444381288978,0.0040962075202913,-1.4041364494463395,0.0439960781533477,-0.1203923996544826,-0.0643051021452641,-0.0731265185875551,-0.0560796347877348,-0.0272840185295277,0.0313485937085367,-43.70179938034706,8.616709115162354,-5.861315451643244,-0.4619648677672291,-1.707039814307605,0.0643603639438209
0.68,2,0.4351343359492717,-0.1421201351805321,-1.597262219816565,-0.0040298418572111,-1.404592784046229,0.0387473158948544,-0.0331006157586201,0.0097170377366454,0.0513792531299026,0.0375128850781124,-0.0400824676337774,0.0320054394543835,-44.989609453317456,7.657803242213239,-5.785256378599593,-0.4106650778028216,-2.251986000523853,-0.1225159426682185
0.6900000000000001,2,0.4329623221106998,-0.1530371299772327,-1.5961922010028744,0.0056460620064027,-1.4061519159628435,0.0405801678666369,0.0681299897711972,0.0398484445525675,0.0475910390322112,0.0471884895879629,-0.0344082340608755,-0.0485404794198967,-43.0336001054962,6.565029853130269,-4.754563952606755,0.2124124740661075,-2.2334825260444275,0.2274428233353261
0.7000000000000001,2,0.4295061187893851,-0.1517175101069205,-1.591331677409738,0.006777953096657,-1.4080359704284715,0.0437221485493234,0.0458500881711546,0.0539791111215852,-0.0832794423087281,-0.0220134659268118,-0.0287340004879736,-0.03583710189963785,-44.820595319399885,8.52134339848554,-6.102032744304156,-0.2639004174495394,-0.9307667738288185,0.0602170638381159
0.71,2,0.43062404999581,-0.1543386672552696,-1.592497170532219,0.0018321354982006,-1.4067996211449263,0.0426575689659956,-0.0176219290347429,-0.0225793964635447,0.0479204621413866,0.0498748732055429,0.0397712629485144,-0.023133724379379,-43.3817426616414,7.5202319214956095,-5.748281403350246,-0.6653735968817162,-1.0253638946649075,-0.0673732438355515
0.72,2,0.430554819802301,-0.148484639407316,-1.5926693261023683,0.0062884834718911,-1.4086080600004038,0.0441377361578024,-0.0682933630767205,-0.0344625371970472,0.0534602199122162,-0.0119959356660697,0.0413491925982195,0.0722114985276708,-43.45542112040941,7.739709185338611,-5.5958271380544735,-0.872140448274213,-1.7660702881302242,0.521159210195552
0.73,2,0.4350431569345738,-0.1516216339215913,-1.5933413793811306,-0.0013328791753269,-1.3974362812864562,0.0467708844528294,0.0135422824826789,-0.0158125140889675,0.06471156233039455,0.034359608714190554,0.0760620688585996,0.0833527652915473,-44.88827220276208,7.121502555585282,-5.926389998020253,0.2550431323426511,-1.7827203455528242,0.4123818026956596
0.74,2,0.4340767306851005,-0.153185205973421,-1.5892570992033868,0.001189104617707,-1.405307450804128,0.0361917039298389,-0.0075340209216096,-0.0116472603801647,0.0759629047485729,0.0807151530944508,0.007265121937356109,-0.0350750813066627,-43.99032269175508,8.451837497551608,-5.092858791547406,-1.1435160045681547,-2.3365310882615065,-0.3371331510450338
0.75,2,0.4361745179157472,-0.1526375413252382,-1.5849879999183356,0.0011567170422502,-1.4004946167368606,0.0417524705041694,0.0657328339452916,0.0195674828315184,-0.0674404231583031,0.0135833019437335,-0.0615318249838874,-0.0816303807854866,-45.09882720488613,7.730637261574624,-4.401555616796959,-0.7470563316644296,-1.1654212843489191,-0.0903815994938933
0.76,1,0.4333265120576522,-0.1461754246948635,-1.5939770612648956,0.006374094561795,-1.400741205673682,0.0381059741169779,-0.0577158096199682,-0.1031750890835032,-0.1364646589994543,-0.088125874884332,-0.0271975914596623,0.1061400715267887,-44.744847887095546,7.303090778450581,-4.4742023541668665,-0.3196700739307715,-1.95974441782357,0.303666954652619
0.77,2,0.4330449570252709,-0.1474764699555923,-1.5922092738178577,0.0069083474999324,-1.4035896464352209,0.0381125629151196,0.0199719018346091,-0.0240434989409831,-0.005859326721866953,-0.0355836184974708,-0.0492816449354472,0.0144095955929602,-44.47752172535005,7.358842590672731,-5.769408467486512,-0.4997190930204861,-0.9431524963925636,-0.0652039861952138
0.78,2,0.4370275921456611,-0.1426653186591554,-1.587896074068588,0.0008807712036543,-1.4053224157249995,0.0380132512569993,0.0838116431364423,0.0556164946369844,0.1247460055557204,-0.0100656896077369,-0.0093157978662727,0.0252328192658175,-45.09477747278324,7.312378341539989,-4.652511431139964,-0.8487431420976188,-1.52651292049084,0.5603030951349401
0.79,2,0.4333392140281096,-0.1508405538123925,-1.593325266017278,0.0046735205284219,-1.4039186941606376,0.0418233470910979,-0.0187323745610214,0.0957092877179271,-0.0325664635023354,0.0504212176683971,0.011900666757165852,-0.0426045802798759,-44.27953935119032,7.126666751668576,-5.82478379497352,-0.668696075754532,-1.81712218324902,0.5107494771588194
0.8,2,0.4356678285939968,-0.1461363879865847,-1.591519201621643,0.0078508712629614,-1.4026529557098597,0.039429548913587,-0.0599784045183492,0.0201230313679761,-0.084240892242722,0.0830464588633208,0.0331171313806044,-0.0749176998499727,-44.48368913405047,6.701417865462002,-5.11245379040115,0.3449759930310663,-2.056197129564832,0.4050059402890305
0.81,2,0.4308879242970352,-0.1522760473831701,-1.5924202377278198,0.002048197960508,-1.4033028596243544,0.0388077465488254,-0.020095581254025,-0.0462267184408816,-0.0312101297052574,0.0117533745665064,-0.0725912100703322,-0.0143601797016038,-44.151462391850885,7.064530693136005,-5.207925043741876,-0.2284235908681024,-0.7367469954430367,0.3379484934367417
0.8200000000000001,2,0.4323616122855112,-0.1489242743977439,-1.5963911535900823,0.002851611210149,-1.4116678412818893,0.040265838585703,-0.0500367191654873,-0.0653257644702474,0.0836259956608578,0.0319163498338088,-0.0673843824757788,-0.0746143054554184,-44.5242014485988,8.712579271736276,-4.495630872318164,-0.6945148474746848,-1.4959169163353034,-0.0393213266926648
0.8300000000000001,2,0.4308088805953044,-0.1512667257916607,-1.5897661355965116,0.0049242707568127,-1.4115756210962118,0.0478355534563492,-0.1093413124961173,-0.0751896784756719,0.1077585541816638,-0.0397858831961922,0.0647681656735636,0.008671420044744596,-44.62947984454573,7.202274622336877,-5.015395651830148,-0.7575104583788537,-1.5904279662347105,0.0786503496127889
0.84,2,0.4271174011486249,-0.1470039803967004,-1.5893221794080172,-0.0009792304893414,-1.3998216086524091,0.0349900388031206,0.0294569097645648,0.0532211981580826,-0.0543661640817639,-0.0630152442687822,0.0777013831179817,0.0919571455449076,-44.58044874467716,7.799975962010133,-4.464232758620077,-0.7642597214252003,-0.8216688554622205,0.0785969367330012
0.85,2,0.4342163699203896,-0.144860315050141,-1.5895200816419972,0.0018914498745617,-1.413107430251968,0.044876584690402,0.1328922583384098,-0.0185048340582333,-0.0752623537411807,0.0551742275021793,-0.0242206553436139,-0.0430117357182169,-43.556401182440304,7.466679513503048,-5.694930841429085,0.3875352135720188,-1.5207867684763676,0.2282344018751344
0.86,2,0.4328234096304555,-0.1452921700541967,-1.5949040252885127,0.0104835274473492,-1.4047641974106688,0.039767529665436,0.1368853603005853,0.035119661140920855,0.0294473780947745,-0.0296024763740821,0.0180571282899461,-0.0296559231977633,-42.46917446690242,8.149884559320734,-4.707612533665536,-0.2407016688660603,-1.8637373998274085,0.8113496876074587
0.87,2,0.4350880128664944,-0.1512598762402163,-1.5902846331898897,-0.0005492879474028,-1.4041511134894695,0.039192586215561,0.017306350862969555,0.088744156340075,-0.036674589426119,-0.1048500348164029,-0.0659543207077166,0.0539488724244107,-43.8909075269756,7.843268700761659,-4.893125061772122,-1.8186447907114205,-2.3792940401011053,0.1922210718068803
0.88,1,0.4357821779991406,-0.1433001427369442,-1.587037044208909,0.0037414056268697,-1.4044307965181608,0.033956182388887,-0.1022726585746462,0.0002829379732727094,-0.0870836442874856,0.103933372263669,-0.1499657697053793,-0.0140779633539729,-44.79910092414879,7.400120998507248,-4.961865947213941,0.2044051234134485,-2.247359695609629,-0.619338432756823
0.89,2,0.4340710137182189,-0.1477485151382465,-1.5847628258851514,0.0044123517113059,-1.4106692731616215,0.0425824668315749,-0.1098999352875692,-0.0881782803935296,0.0364404077081484,0.0367896493870918,0.0281494564321057,-0.0231013516257933,-44.15444535592791,7.276306144940698,-5.543822777599975,-0.6943060371900586,-1.1942287066546533,-0.4543626729806623
0.9,2,0.4347296195170503,-0.1500050054296314,-1.58685987828016,0.0008542181627326,-1.4035976705745803,0.0354374882612013,0.086828572936813,0.017163620001918206,0.0632217323178289,-0.0190808865508718,0.15481112467046,0.0778979083509767,-43.81129532813743,7.220670936239462,-5.677702941284407,-0.6011131410112376,-1.99412297161482,0.3692660708177548
0.91,2,0.4337124189553505,-0.1515042126608329,-1.5950364136535533,0.0029342811469009,-1.4035455102827783,0.0439818906625026,0.079727503274897,0.122505520397366,0.01699767499805155,0.026133130567034,-0.015743247946337,-0.0721494282959469,-43.4998866962109,7.150071092281049,-4.812905828284918,-0.23633761519267626,-2.0488796504079287,-0.4575422123261511
0.92,2,0.4326597920775936,-0.1483295354460189,-1.5900460347919496,0.0074320907426524,-1.3956204800173893,0.0457839010047211,-0.062003020913642,0.025056278697701287,-0.0292263823217258,-0.0069697211734895,-0.0236411353101086,-0.0680679858455969,-43.44632380933776,7.689362490062404,-4.717611161820507,0.128437910625885,-1.105411666870372,0.1509167915178323
0.93,2,0.4325144328685259,-0.1428447266174437,-1.593292681639445,0.0038064198814509,-1.404102306468429,0.0354604432930596,-0.0355558012769111,-0.0723929630019634,-0.0198669191284547,0.0056559768333559,0.0313374271207795,0.0783390820143795,-45.04578760061055,7.487523481501157,-5.72522099687423,-0.337462733719187,-1.5969521412784238,0.430850854462675
0.94,2,0.4287743593613604,-0.1464326019969367,-1.5906928210808553,0.003490231351062,-1.3994158303011095,0.0448487144279884,-0.0091085816401802,0.0544816909781691,0.0452340857775127,-0.0546842363473207,-0.020488111278405,-0.0453456516090489,-43.58473877597427,7.159601249972502,-5.564581777019288,-0.3748498871692698,-1.8310472467829255,0.11369124077605486
0.95,2,0.4275636035351145,-0.1476007409206344,-1.5940113770970648,0.0063852055344409,-1.409666382572953,0.0394255567308616,0.0251887729034147,0.005885967348102,0.0087384028177864,0.0429970000540533,-0.1714170716734391,-0.0747292011146829,-44.606550036222814,7.377421807737781,-4.649886465584007,-0.6899278213918324,-2.3670309619243075,-0.2034683729105653
0.96,2,0.4304276581195823,-0.1479772997062691,-1.597746015256322,0.0008892145014235,-1.403142901542706,0.0322870718102633,0.0319074301265049,-0.0190171816592594,-0.024439729336548546,0.1018880905045177,-0.0400294298193102,0.0274120051054358,-44.41891917578853,7.928292130260237,-5.087828156702447,-0.8606427854630307,-2.212588135927281,-0.3301517528269367
0.97,2,0.4301412898356167,-0.1405484638079199,-1.592123665159774,-0.0003291786422904,-1.4048375995034343,0.0356698998271768,-0.0171297107883735,-0.0177127538340164,-0.0576178614908835,0.026914789380703352,0.1915305680040026,-0.0370153756141031,-43.69387852385336,7.309129389906734,-4.643027771730448,0.2858172048271161,-1.655363796598881,0.4427438138425048
0.98,2,0.4354796511929005,-0.1421896172544932,-1.5900888652444185,0.0079722956356704,-1.4020697035768217,0.039787025282441,-0.0763226304601608,0.0334181082476912,-0.0139920076627141,-0.048058511743111,0.1120827839374805,-0.01322068792993,-44.24028198060737,8.088586866666896,-4.092667498992247,-1.3955871340522217,-1.6167464842414467,-0.4760842321040912
0.99,2,0.4296000464813952,-0.1510375753900713,-1.5909934919670758,0.0027679530810159,-1.403399923451843,0.0404577758220504,0.0225161681494097,-0.078115278574052,0.0969338762091434,-0.0213489359050465,-0.1073075129028952,0.1204701030341951,-44.46127269952887,8.087920952435402,-5.177365949588573,-0.5842200447853556,-1.7591670961248205,0.201969809336923
1.0,2,0.4330084525177747,-0.1496100217610049,-1.589025783292265,0.0041538557246558,-1.3991999600781229,0.0355609017571815,0.0387121309673639,0.0540383420208058,-0.0640236887701417,-0.0046534334027439,-0.0560540852651795,0.0933122442566425,-43.33787091144125,7.83398529347527,-6.2377959211121325,-0.01447485449709529,-0.7070680646541174,-1.259979058875463
1.01,2,0.4390825498149314,-0.1485083001457047,-1.5922598216415949,-0.0006091770213598,-1.4046125999507637,0.0409223227213715,-0.0857869093000964,0.0572038610822831,-0.1015104667490481,-0.0340334806839645,0.0715902344674983,0.0293110008097217,-43.41455854720228,7.25396741526794,-4.595316795558332,0.555270335791165,-1.7601998941889168,-0.4323461465121755
1.02,2,0.4314156966501627,-0.1472566851851421,-1.5908328622451542,0.001819624727047,-1.406713448936216,0.0436919973311138,-0.0502407860563396,0.0512232415495287,0.0659440467426674,0.056940581548534056,0.0692813280779658,-0.0397964476579775,-44.06223028223909,8.052173493474278,-5.091128760436246,0.4189852348100018,-1.6304477774555273,-0.189982011028933
1.03,2,0.4359944571172652,-0.1493471363428437,-1.5900691009197006,-0.0022172234810607,-1.4065113877651287,0.0435513928838083,0.0954050211106127,-0.022823876874672,0.0078293689952112,0.1479146437810326,-0.0883007769271289,-0.0964100258408205,-45.45522386613904,7.703200686494787,-4.060651351857677,-0.4475994055826024,-2.1185415216107057,0.1655630076049208
1.04,2,0.4312123545514329,-0.1471196533380904,-1.5928352597896354,0.0029974294774983,-1.4026455474416646,0.0370600372916081,0.1186007938345929,0.0238835817177339,0.05087872980394415,-0.0819570390611014,-0.0246169002226411,0.02164076576540684,-44.99959086094243,7.687437198838902,-5.74284210722249,-0.2808383885915776,-1.5453747967990308,0.5211080262387746
1.05,2,0.4349190938920377,-0.1409252375035228,-1.591555940278515,-0.0023627694204788,-1.403288608535579,0.041887728729807,0.0888842346134312,-0.0416824565197339,0.0939280906126771,-0.062028656941618,0.024726464321663897,0.1396915573716342,-43.67091941525087,7.244589811166029,-4.93316449113065,-0.4991611713892495,-1.7407064714135303,-1.0913273103439716
1.06,2,0.4309998570258759,-0.1538241700836352,-1.5848629339678342,-0.0010118599656613,-1.4112109829017656,0.0449610822544236,0.0591676753922695,-0.1354600561034654,-0.023965939366161,0.0598884834567055,0.0740698288659689,-0.0500168727422042,-43.519526826672895,7.228235426740851,-5.613763137718975,-0.7174839541869213,-1.827453663981318,-0.4586124946084649
1.07,2,0.435436930044784,-0.1521219513013477,-1.5912001872389252,0.000418753142021,-1.4022103421517005,0.0420733730739287,0.0775649893723818,0.0519620253092631,0.0546420586751485,-0.0237959241989555,0.1337055979118296,-0.0658182646021534,-44.00942591604185,8.519210488654865,-4.610140794067124,-0.4322261322579961,-0.4644112999835319,-0.4249787137801947
1.08,2,0.4383631315051975,-0.1504494502483546,-1.5895717171537682,-0.0065477634185729,-1.406838863084764,0.0427573654496735,0.0155017252316638,0.0058803752219472,-0.0143736962148988,-0.01997667323768955,0.033701533706131,0.0417422955398131,-45.00003412675771,8.180508419252352,-6.247223772394164,-0.6529064288307954,-2.085881207364527,0.4076067782259194
1.09,2,0.4303506448059416,-0.1497801239573029,-1.5916446807820144,-0.0022730286588997,-1.4018935171317597,0.0407235535432931,-0.0431644340705939,0.0172645159915395,-0.1311778228563216,-0.0161574222764236,-0.0713425077805331,-0.0529855826664354,-44.45412757852598,8.278629448557268,-5.168296416729089,-1.0959798478164604,-1.491485806790931,-0.547202619533432
1.1,2,0.4366258500596782,-0.1417119113431342,-1.5926855776676248,0.0040673602491654,-1.4073215117915483,0.0387928013452048,-0.0216097170390195,-0.0112933730551275,0.0361334988526901,-0.1224277683190406,-0.0195415652653876,0.0294502787365026,-43.45384313398978,7.537066017040419,-5.167865266569082,-0.2834334936865963,-1.0418935381354908,-0.522561044060867
1.11,1,0.4368740176983295,-0.1449225112574446,-1.5929827159011487,0.0006272894581413,-1.4046840188743304,0.0418002956702496,0.1088183343198316,-0.0546935594226387,0.1176787575646211,0.0410649743383537,0.1246566927977185,0.1015905002117982,-43.96245533452223,8.250546254384247,-5.596761306114381,-0.5607822148019994,-1.7164538230408033,-0.4979194685883021
1.12,1,0.4357874533911758,-0.1468911792072945,-1.5893941478607456,-0.0017728330254331,-1.404147145624302,0.0383152317837709,0.1562390438131276,-0.0806149760978805,0.049946904677052,0.178264828368516,0.072538971750839,-0.0736481853502676,-44.75846335313472,6.58068502893227,-5.349268632661817,-0.1354297651540454,-1.6564190576678628,-0.4732778931157372
1.13,2,0.4349793425537167,-0.1503388574891549,-1.5917233728260891,0.0041532911211825,-1.397858097753491,0.0440437713909183,0.1291232233165259,-0.0572556259439444,0.04120086495485195,0.0258028297002206,-0.1034976283019492,0.0069294871747686,-44.05721776479073,7.739125599410381,-5.637580450103076,-0.4172023425923209,-1.065748963108886,0.331391221073826
1.14,1,0.4409501773923169,-0.1509556483676921,-1.5902797430365507,-3.5552791298824535e-05,-1.4031668541075508,0.0349064597526772,0.1503187178273293,-0.0338962757900083,0.0324548252326519,-0.0992302875676973,-0.1035487782069072,-0.0047187172408189,-43.8901720765331,8.237111788494994,-5.371894305070469,-1.0980608113648038,-2.250770299435664,-0.4041303363088717
1.15,2,0.4410901008130989,-0.1551255763610626,-1.592152024822235,0.0023083629375954,-1.40039342482837,0.038178951770967,0.0748173230699257,-0.0618308965328599,-0.0392836288884446,-0.0549229266562738,0.0467559817206327,-0.0318425073228214,-44.30701491936649,8.42649341629896,-5.186903464067383,0.2156969921409645,-1.103755245861294,-1.0873717750047067
1.16,2,0.4432442586566318,-0.1483012497583743,-1.590375464544399,0.001209019693782,-1.3928892189313733,0.0402849677535071,0.1404248598211709,-0.0336742557586115,0.0887313549810477,0.0711266042968704,-0.004200077724368048,0.0627348295673137,-43.79311882697614,6.321123968130839,-5.641858906398213,0.1306345616458226,-1.5898594551803753,-0.4813962942270479
1.17,1,0.4456430877516786,-0.1489118678374212,-1.5866969205894996,-0.0001592936003966,-1.4044774780158131,0.0427558617960825,0.316947935057213,0.0386181888623483,0.0550393163832896,0.0394243766739613,-0.0551561371693688,-0.021618340725942,-44.36915262220035,6.817362401168056,-5.3966756806768,-0.1230853334179582,-0.4498463711233765,-1.0228725770088272
1.18,1,0.4541000195287998,-0.1459530249055297,-1.5900671734412917,0.0021652470058444,-1.3993725802831605,0.0429176237446877,0.2710645552692125,-0.0959216540648169,-0.0655197443930622,0.0927690826573122,0.0328790353986138,-0.0844281673965211,-44.9696115469078,8.057611976223745,-5.065516140556312,-1.228129449368807,-1.0899607208157405,-0.4677400542479889
1.19,1,0.4501538786515081,-0.1532801740502596,-1.5973189130939918,0.0114517704549307,-1.4063119585960653,0.0449428364220202,0.2317046727442139,-0.05402000180943295,-0.0609846915579898,-0.0928209281480796,0.0226534956148994,0.0725490036441564,-44.30496050706265,7.453051582297817,-5.445153362696262,-0.964615791018504,-2.7169702491818044,0.0873924685128493
1.2,1,0.4502319522439893,-0.151516871714454,-1.5884651954581233,-0.0019830268588606,-1.399826415694313,0.0421888059024582,0.2976423253888776,-0.012118349554049,0.0534864202719433,-0.0685369317512908,0.0914524311922685,0.0256667093491491,-43.35971782225371,6.993712707354413,-5.304760729089759,-0.8417049546872246,-2.169193140813581,0.0293140790988489
1.21,1,0.4577286991417492,-0.1513149830137891,-1.5886648660365186,0.0018433786619517,-1.4056514763148809,0.0381922234342991,0.3266877523950954,-0.0924847754724554,0.1537720509227572,0.0366945762854194,0.1068257859410997,-0.0453548694489903,-44.539630449740194,8.004627179296827,-6.0717642158615375,-0.6138500289790612,-1.6819334617581343,0.196349837856721
1.22,1,0.4613311261288895,-0.1502505917270662,-1.5908283233555625,0.0049578268906088,-1.402415614804295,0.0408513866147639,0.2535765125777216,-0.2215876687317755,0.1535747313485186,0.1134487682763782,-0.0403983637211275,-0.059149187921251,-43.32730919441479,7.637270876347123,-4.327377173905863,0.4151234106005478,-2.191201109516331,0.174796839713219
1.23,1,0.4669109265050096,-0.1609668070178161,-1.583504959947259,-0.000162575707485,-1.401837157655647,0.0379217732233898,0.3301251499258624,-0.17292183086401255,0.1185757171031293,0.0502129605570682,-0.0565060951896439,-0.0706041467396,-44.828778345664944,7.119855588123807,-5.016851053570505,-0.9230293312275804,-1.8525256059415616,-0.8051561829644281
1.24,1,0.4703520795537232,-0.1512185292907189,-1.5898241362687202,-0.0028806713757535,-1.4004956343757016,0.0417019747581676,0.4082221100584008,-0.12425599299624963,-0.0235902877431013,0.0175083546263528,0.1607366487788348,0.1243675194366801,-43.58474255002709,7.255772853035076,-5.924488324177303,-0.7034454638764874,-2.2675697982222074,0.1191297698876009
1.25,1,0.4726581470298006,-0.1557135596562556,-1.583138790039859,0.0020022991973,-1.4052359225062343,0.0379406085243575,0.3920219836433605,-0.0755901551284867,0.0121320141414567,-0.06975589450876235,0.1063200475087653,0.0666677250126842,-43.79119533989218,7.221460361779915,-4.231463085116486,-1.1722518150840675,-1.799228772766943,-0.2721886325169783
1.26,1,0.4800462092096633,-0.1591661684098314,-1.5848916876386585,0.0054343368276267,-1.4040275925927452,0.0406236456171802,0.5085810342392221,-0.0656331330501726,0.1018141152155205,-0.1570201436438775,-0.0328981400328769,-0.0388564013975755,-44.53060808189615,6.881578340568524,-5.040144405577019,-0.7822411388562277,-1.966343926665001,-0.9736722528140306
1.27,1,0.4768710358872075,-0.1638304643978542,-1.5921754160133412,-0.0002630186012064,-1.3996066520934447,0.045868658879324,0.4516948558325647,-0.0802527526869665,0.1379660484577789,0.0465401091348166,-0.0406194194458567,0.0458063733155306,-43.896839573731874,6.884335388554629,-5.545868789480338,-0.7967066851175647,-1.3642398394609594,0.3493815528252787
1.28,1,0.4819565705570126,-0.1570685811359689,-1.5816800774256663,0.0029627190080539,-1.4025792682705802,0.0425051750887868,0.4507537599377201,-0.109454921507472,0.0336095893868807,0.0924224673289249,0.0273235167887799,-0.0580008125579935,-45.21558552314544,8.482916371908004,-4.018571530916006,-0.2860975547939832,-0.9044460559385732,0.25037749904215106
1.29,1,0.4873184651669935,-0.1538382112709551,-1.5853962280524732,0.0062108232548271,-1.4060295876193096,0.0358959297895885,0.5832684270091353,-0.2337678869044797,0.1075608315452446,0.0154982768631315,0.0317110107646721,-0.0207287818676975,-44.05698142571772,8.412815470533173,-5.623541228253953,-1.7942817550183627,-2.111134286522059,0.1513734452590234
1.3,1,0.4946812566136807,-0.1543607406829116,-1.5825655302803097,0.0007587940854946,-1.4011100961131222,0.0397491344126165,0.5737260557537265,-0.1518239416050592,0.1045134372231661,0.0267369796279727,-0.0303534089781577,-0.0049867119321276,-44.3558508199975,8.150145441114372,-6.0071839515854455,-1.6131966763912438,-1.521511388643054,-0.6092892378908554
1.31,1,0.497176904769882,-0.1602020449088031,-1.584829431970284,0.0024654895916569,-1.4015876677816392,0.0318429341630795,0.567110847245086,-0.0775765276622407,-0.0785940234416912,-0.0272752072260828,0.0877676244892087,0.031096044158081,-43.48389704705701,7.341520039671945,-4.4106059412954135,-0.8053296595681884,-1.7730314961946023,0.3517781902600811
1.32,1,0.510781172388408,-0.1552649317210964,-1.5823845659160451,-0.0023640679623779,-1.398664788868473,0.041458602085001,0.6513759742057691,-0.1234892065770212,0.0828611037600631,-0.0413457154246299,0.1039695162341877,0.0499921572689781,-43.12976507100628,6.994761790260957,-4.877024035817013,-0.3108825735112114,-1.2142838652915933,-0.2281218425264553
1.33,1,0.5147319759640535,-0.1638223397349793,-1.581835805051924,0.0033275236761113,-1.397613889263556,0.0468338614625517,0.7635814608519148,-0.1167645204627585,0.1963420887187062,-0.0308663937557078,-0.0311571715186549,-0.0409799688709548,-43.60035585804007,6.746470466184315,-4.484342274685767,-0.8866958695965212,-2.1545160822070835,-0.1584183486793446
1.34,1,0.5174199534437777,-0.1607325322024331,-1.5849759664115206,0.0030017763954051,-1.3980064230867884,0.0368111787660024,0.6677839721765066,-0.1161357900367725,0.1267025620611386,0.0121173637662432,0.0206183244358783,0.0077356042902024524,-44.04230780802247,7.831164078909347,-5.069336093107621,-1.0298212052430238,-1.5755024233795678,0.7463939345800121
1.35,1,0.5248539046766421,-0.1684761111435379,-1.572644136664198,0.0057626462092264,-1.402154697660537,0.0359657029325448,0.6997049248107703,-0.1248167507736078,0.1229302381336721,0.014283699071872,0.036999499306379,0.0564511774513597,-44.225246498467385,7.234777125009385,-5.667526971992946,-0.9976851967662144,-2.3841411559351338,-0.9689697964413594
1.36,1,0.5367925533536484,-0.1694199811318457,-1.5767959250222388,-0.0014210796712748,-1.4003312778358383,0.0397642889900744,0.7883177062005264,-0.2107696585834477,0.0641625735495487,0.0522822802645398,0.0743284215241804,0.0174689302572625,-44.00561486920154,8.328746285295884,-5.7497860373367375,-0.1398875604475156,-2.213724357672884,0.3683022933506196
1.37,1,0.5457653896950303,-0.1735526136041582,-1.579187467540635,0.0030784646024391,-1.394743907187945,0.0439172885982716,0.9558538032972332,-0.2690223415066594,0.1421202613734763,0.1425893112553386,0.0396504315222196,-0.0989563199108623,-42.67931639951281,7.674040939245758,-5.384211133669856,-0.3394430096433327,-1.529257934354711,0.578494001158904
1.38,1,0.5600213005800924,-0.1804336084730182,-1.5773775063530937,0.0007811838869407,-1.4004019954763958,0.0464374082273737,0.8567967082822832,-0.082570982825889,0.2165423633047709,0.0822541863977345,0.1158924776727135,-0.0117537822404176,-42.67226091257969,7.294306943270264,-5.73560351228972,-0.3894927530860435,-0.8826091856681015,0.6001615868536725
1.39,1,0.5699785702066674,-0.1688286276396135,-1.5701044480938813,0.004432828743171,-1.3967896739826824,0.0421051601592075,0.9841134554162754,-0.0504710757355129,0.1558361512137016,-0.0664094295272164,0.0760811275265274,-0.0073262169221262,-43.86260340828822,6.935601690157209,-6.176844951424585,-0.187709742898102,-1.048738483606756,0.621829172548441
1.4,1,0.5723815408980468,-0.1764467686834779,-1.574187620140911,0.0093086314761189,-1.4016225804170854,0.0366798576565846,1.021200589477578,-0.1063034311760127,0.1011615171117428,-0.025102784771987803,-0.0464536133267481,-0.0163910100473408,-41.6056340632267,8.54060355289225,-5.458357841886896,-0.3575628313455181,-1.353337886974867,-0.3057961526851694
1.41,1,0.5777372289047648,-0.1780547423654828,-1.5699600388875152,0.0041216036093304,-1.396353855051494,0.0403610562015865,1.0360112205634278,-0.1910258511223464,0.0894592552011818,0.0162038599832408,0.0678931357098282,0.0252848292629161,-42.15054738596009,6.086848525782308,-4.88048089121906,-0.5202401676149342,-1.671393563066801,-0.1124528446595878
1.42,1,0.5812498820701786,-0.1819187732726486,-1.5701789764996494,-0.0001755633488817,-1.3938707545012043,0.0475001856027412,0.7810116465324792,-0.2160856551853855,0.10238125108824,-0.071794098172664,0.078893451553323,0.0580222875309686,-42.65666443591482,6.88970848364296,-4.923130237627949,-0.9424264836944614,-2.273111432826461,0.2132501770633569
1.43,1,0.5969626853368776,-0.1798506219814465,-1.5695992879117628,0.0011394488883698,-1.4017279431771044,0.0398887411633888,0.9549708642973684,-0.1434945644090799,0.0902078267804387,0.02442609083917105,0.0249697845190496,0.0127201760347684,-42.46836237025808,6.930820544359392,-6.402681094542721,-0.576249012781771,-1.722848891930152,-0.5241571318484504
1.44,1,0.60443221263904,-0.1747949399021903,-1.5704044465323066,-0.0010093974168814,-1.3984187573867546,0.041368637070521,1.182207028648803,-0.259265742376121,0.184910203837835,0.1206462798510061,-0.0330929979593471,-0.1068111950688815,-41.77751309604908,7.92048669548717,-5.688493511014874,-1.1558564805192562,-1.7700057513265732,-0.4876521475749373
1.45,1,0.617162113914416,-0.1772686388123053,-1.5653364073720313,0.0007051401603084,-1.4001573695734404,0.0400683224070296,1.012982825446549,-0.2458575069349992,0.1985699675857408,0.043716274169072,0.1107385039509156,0.0374129406292561,-41.05918287119926,7.143909398972005,-5.168802077906308,-0.2079565085624962,-1.533078915641615,1.3073447503046989
1.46,1,0.6270510379164609,-0.1917747441044131,-1.5622341786817435,0.0077018230939546,-1.3899457983776466,0.036388163078258,0.980641133349828,-0.2087753753318719,0.0551556725725246,0.0110230915458989,0.2073713561284026,0.0536151942373744,-40.82165035989992,6.84163343999924,-5.078848997557347,-0.23784981906017444,-1.4013520745685866,0.1436010013768928
1.47,1,0.6389024221204938,-0.1901956369111372,-1.5606285283351569,0.0008050243918361,-1.3978142884584248,0.0440843994552732,1.0284824463938746,-0.3217676263666428,0.1512328443857755,-0.0252934611293366,0.0721457348174976,-0.0436955902087989,-41.09563033472694,7.310157005878649,-4.483963596985834,-0.2677431295578527,-1.8679101986924989,0.4033485631289516
1.48,1,0.653400481702702,-0.1952488602766039,-1.562235910624065,0.0064287243748241,-1.392167210121822,0.0440118427409574,1.2157998301494746,-0.1371304146563644,0.1776293398040829,-0.0232554318962318,0.0548884377840009,-0.0191257201629455,-40.37980246157311,7.640238729501044,-5.240057566268793,0.202849831724761,-1.6811805561708295,-0.0695619211144434
1.49,1,0.6639705155974092,-0.188065274441701,-1.5578949619868394,0.005392843916806,-1.3879033404286991,0.0327203725970166,1.4596501085223723,-0.179999835373948,0.2072528208234641,0.0614991630193481,0.0695721748176648,0.1095142314598118,-39.926032750186245,6.917863746746022,-4.880626417080647,-1.0391412519132763,-1.5814750941869966,0.1427004635041452
1.5,1,0.6756431635497794,-0.1936844700475767,-1.5521861363130112,0.0058228834703947,-1.389985470416862,0.0381941932858781,1.1539167328344944,-0.3565773373432939,0.218602949246757,0.0058603315401645,0.11044710526043264,0.0722455052148365,-40.26632021193815,7.178841858118133,-4.526276588352538,-0.469170283089476,-1.299731484923838,-0.2632053163607281
1.51,1,0.6845361676319524,-0.2005175705228818,-1.5590231400867949,0.0063897680274266,-1.3915412525814796,0.038025122343245,1.3593202624165668,-0.2893867158559281,0.245475598980785,-0.0057156154157596,0.1513220357032005,-0.0712526168160831,-39.24076485053213,7.430012677280414,-4.6612044228077405,-0.7162510106490884,-1.5112840092555684,0.0869261883058907
1.52,1,0.6958046530821856,-0.1999403716791121,-1.5505133483760345,0.0045219140787534,-1.3861184659061208,0.044160798916815,1.3171709001354566,-0.258900902438782,0.1891118436985779,0.0182990200350554,0.110886521366207,-0.0481505402812744,-38.75789387219157,6.656589409546699,-4.679670163976908,-1.0521331852065356,-0.6832089171650734,0.2371424731610581
1.53,1,0.7137992009383725,-0.2054905948297362,-1.5529733886581585,0.0092191387046111,-1.3840699101550142,0.037989618917317,1.288830252747701,-0.1865691056175047,0.1629125565278256,0.06307630514012534,0.1086325104331343,-0.0284540764171879,-38.484224224398965,7.6673203658454465,-5.360647220856524,-0.7331379786898025,-1.1347289705817254,0.09491173045509
1.54,1,0.7274365105989783,-0.1974993646592731,-1.5511754683288448,0.0052261135126086,-1.3875651613925706,0.0426014180674203,1.2938266644840315,-0.1754219903499788,0.2617399426152974,0.1078535902451953,0.1063784995000616,0.05195881080074,-38.68134312511055,6.6161060960597045,-3.797051130659684,-1.034517882022841,-0.8771085869279419,-0.232127787132445
1.55,1,0.7477259558391662,-0.2051312893349366,-1.5433526716842267,0.0076598504929494,-1.3937061100934696,0.0410390875306518,1.3277145154735877,-0.3525578610314245,0.2438810548300693,0.0151976355440672,0.0719821740449331,0.0541879293333351,-38.44299574599951,6.449544711034784,-4.011226293774214,-0.8640289513289955,-1.2112082375592867,-0.0470796675787628
1.56,1,0.7550946794482706,-0.2078860678788291,-1.5442440219805793,0.0068369420205578,-1.381125185034936,0.0422064105013276,1.4990864810864477,-0.2334627306256973,0.1818164536715517,-0.0499627725970215,0.0817228591750614,-0.0931442415328958,-38.678376525781296,7.339884633036035,-5.248849128674415,-0.6935400206351501,-0.5232989977434911,0.2887593440592308
1.57,1,0.7739087381476644,-0.2211849948473984,-1.544990053306999,0.0102219614185923,-1.3827625418978502,0.0403840478558211,1.4755206521705044,-0.4303217780409245,0.0791160183634047,0.05214655843456845,0.1170189326029019,-0.0844859832737036,-38.532068780581575,5.92711211122004,-4.370740475248125,-0.6110114461241236,-1.3092087723285069,0.33745001062649904
1.58,1,0.7833543401387775,-0.2191749891154311,-1.535664141234719,0.010706740557189,-1.3832697416529045,0.0411729827215664,1.3186329878073837,-0.2914647201118409,0.1783725793870533,0.1542558894661584,0.0686001462453974,0.1714196295830412,-37.09760534991688,6.823785755110819,-4.706471812623805,-0.1913799429301591,-0.9149045360773602,0.3861406771937672
1.59,1,0.7950216518395702,-0.2101834824798184,-1.5337354744433869,0.0015101661225144,-1.3895855117051137,0.0415536020640382,1.5197619042435355,-0.1296058470245568,0.2889226062096159,0.050182097266296355,0.053710263880851,-0.0259490466427723,-36.96272743215125,5.778844889809779,-4.486914454746391,-0.2715041370851485,-1.9586542223902816,-0.551016374385307
1.6,1,0.8131366124852619,-0.2168587528412893,-1.5418416120239673,0.0097941337626809,-1.3828255139807897,0.0412420290344869,1.622373719363251,-0.3861936366264246,0.2852002921641846,-0.0538916949335657,0.098959168534488,-0.0180139866195383,-36.12464908794091,5.780077258401636,-3.956530958216032,-0.5244260559840228,-1.3165286458048993,0.2877022465315962
1.61,1,0.8279494686559296,-0.2317050261826408,-1.5362147509861654,0.0032466745572363,-1.3841203804286104,0.0419840251468808,1.4205601568040385,-0.2754524746691166,0.269230447091042,-0.03953828059885415,0.1517509276074891,0.0396640957630768,-36.7527380373067,6.706108953715329,-4.341777854675989,-0.7773479748828971,-0.9566913563684109,-0.5115491732235266
1.62,1,0.8542282946777517,-0.2282290449079326,-1.52828475097455,0.007515329538863,-1.3831462897486289,0.0402561703477576,1.6253359364905011,-0.2668531090577656,0.2308330294365309,-0.0251848662641426,0.1329730983126723,0.0484592293880842,-35.8152673511746,5.755532370659253,-4.063803323818235,-0.7221783156361066,-1.017783087954892,0.7523218490966666
1.63,1,0.8586847874193995,-0.2345984315588534,-1.5276402840785437,0.0082173472584583,-1.3791707321733369,0.0405135788145355,1.7674517597047352,-0.24023891362559,0.2040252806737347,0.1158787127029284,0.0477199106048966,0.0096670244181255,-35.4717589531102,6.492852388422892,-4.132237888184262,-0.7626881949401068,-0.90580006717485,0.25298177805590516
1.64,1,0.8825064852147418,-0.2274395753319952,-1.5205619838853617,0.0093111905345122,-1.3800428863005691,0.0475492088253182,1.881735082148605,-0.2719587456770521,0.3142368367137503,0.1652772863369241,0.0820481452730193,-0.0001631438419445498,-34.90502904353159,6.440379434329639,-3.236643354957497,-0.8031980742441069,-1.250650896062923,-0.2463582929848563
1.65,1,0.8935999422978224,-0.235045589951002,-1.518340186426503,0.0134726115445939,-1.3786414065231825,0.0401990893069158,1.719054002093812,-0.3674612721604519,0.2563132107908716,0.0619980373694654,0.123832736395379,-0.0099933121020146,-34.39544021692995,5.12286555113417,-3.5426077136062157,-0.352700013226549,-1.2111978049274588,0.1415753582945194
1.66,1,0.916921400246608,-0.2430406655207646,-1.518340531852734,0.0141404957722281,-1.3733552747697622,0.0456024634667195,1.47243566984435,-0.3960613278816162,0.2033946014146627,-0.0076048383650533,0.1383337040419937,-0.0355552873872633,-34.35849424452572,6.949888078668908,-4.15483725807332,-0.3669464476882584,-1.478937588279036,0.3284543807226562
1.67,1,0.9312543975317226,-0.2431217695136626,-1.5204671927378386,0.008841266580999,-1.3733732904959646,0.0387795436615861,1.7739919126762866,-0.326231236228872,0.2221525707541353,0.0176882573503752,0.0784773117338185,-0.0614559088456793,-33.63105175086345,4.962933285238182,-4.179766759473153,-0.967569332115748,-1.7466773716306134,0.3422468805569246
1.68,1,0.947915247283248,-0.2559425722262988,-1.5136290538046588,0.0100174112137795,-1.3759662028428072,0.0429134017062015,1.815596553330732,-0.3978814564001433,0.2657255419004445,0.0049049513105069,0.0620896149626749,0.0497286075996605,-32.589494749693635,5.9917187215324,-3.898015185376742,-0.6517038830891192,-0.8408666198536081,0.482657054949048
1.69,1,0.9645292830016344,-0.2552760799998317,-1.5160008893439922,0.0115670565013865,-1.375200307196433,0.0483289333637917,1.6693200329409257,-0.3386782161481654,0.3467983153192855,0.0257060513542513,0.0175906965166852,0.0563543938764185,-31.471797369579715,6.297190986458573,-3.882688394661127,-0.3358384340624903,-1.1498129073853074,-0.7042669011682101
1.7,1,0.9816215963940432,-0.2536681973880421,-1.503968660629794,0.0074315177378846,-1.3750807151027618,0.0400978878312789,1.7371821018058085,-0.2522706866884441,0.2990781258744048,0.099521704449582,0.1651047966561276,0.0119176679886231,-32.3965257216406,5.25701838323824,-3.587494834212836,0.2634718714186526,-1.0253384598194693,-0.5521639465263622
1.71,1,1.0015315272887433,-0.254607281994005,-1.5046662883992976,0.0118854566804293,-1.3703859949835018,0.0394741760956802,1.8435246832393912,-0.3332917411781395,0.2293720568930448,0.0707525501604804,0.2416214263934716,-0.0080290856759558,-30.859903751751627,5.484914866403924,-4.170115603416954,-0.9917627579458934,-1.1570976222731333,-0.4000609918845144
1.72,1,1.018351410629704,-0.267508155431736,-1.506693995666306,0.0177025652009781,-1.3665506537509222,0.0396750560508549,2.187351794105823,-0.379207053266063,0.2577262476285213,0.0419833958713788,0.0458912811694005,-0.0119105162530641,-30.925955938280737,4.755532388811937,-3.573772760432056,-1.5562330410478216,-0.6454960901638214,-0.4569482131807875
1.73,1,1.0355265748991869,-0.2655023540708449,-1.498562757309285,0.0089544822395384,-1.371357272130011,0.0417150829323148,1.833791258175506,-0.4196556086608586,0.3179805600800764,0.0407183700056645,0.038560427914723,0.0567086139159324,-30.035620925064386,5.155434075194873,-3.009155341216821,-0.7558521486770617,-1.6882691363096385,-0.7089322964861116
1.74,1,1.052920387339606,-0.2656385636553658,-1.490334506059184,0.0130175994035122,-1.3629352667003003,0.0432331244450762,1.8992466277739224,-0.4021247739706017,0.3239584960084357,0.11851379504245,0.0282624513009254,0.0346172708936177,-29.144466965711647,5.503283367034399,-3.2529197575442144,0.1333151983933067,-1.1959438278031982,0.1182823545309988
1.75,1,1.076722615441184,-0.2773490054080061,-1.4954729998181564,0.0141704746133271,-1.3652047741299056,0.0429071588090015,2.0341692265509086,-0.3069186628747245,0.3236655677597649,0.0247751734883591,0.1831545650501169,0.0513563235704738,-28.806596733595747,4.957125002212067,-3.2269765346003245,-0.5220292286742638,-0.8102326008785821,-0.550696229094082
1.76,1,1.1022094011134442,-0.2746763247274044,-1.4898729378199864,0.0218689033924896,-1.374574892285245,0.0415998651425868,1.9640806940510989,-0.2711823703574849,0.2684806216138217,-0.0712191304940928,0.1004536976351142,-0.0508937996232668,-28.95733460354265,4.191726294966877,-4.204427822308949,-0.5044917878961452,-1.364208233695524,0.1288714442118287
1.77,1,1.1162877203788837,-0.2783857273499275,-1.4910258559596652,0.0129317748680226,-1.3643487880883811,0.0490518564910525,2.1784055068189425,-0.4205947084773601,0.2529373972237534,-0.0493407087746105,0.0937308737069157,-0.1603204621067547,-27.34887605036324,4.480553652931917,-4.185007348972018,-0.4101113814571749,-0.3769763898699249,-0.6277372791917616
1.78,1,1.1367265371566655,-0.2774930066215162,-1.4858599895663245,0.0125987618258882,-1.3590946891087563,0.0397779851698951,1.8904079144377737,-0.4238147639791146,0.4105265336465532,0.1649283859850373,0.1642840862942087,0.0470297952775561,-26.030096471279347,4.172128294573766,-3.900216764951781,-0.4799875050425993,-0.4252900972924807,0.4901881207638685
1.79,1,1.156016108397615,-0.2878563272528543,-1.4870986399863044,0.0144877872842288,-1.360487704368874,0.0409914157469525,1.997719564415242,-0.4297664056774262,0.3588784013034455,0.0452546054647676,0.1146891011867898,0.0089505345096039,-25.379490151401114,4.574757236761917,-3.154457197033823,1.0626503754672552,-1.2396938961717954,-0.4223222693288994
1.8,1,1.1806979726794988,-0.2918568908454362,-1.4795886801454623,0.016112365318645,-1.3614703113215327,0.044482269678913,2.0204397918458565,-0.4715889557970852,0.2406537481974561,-0.1092003600733873,0.1073047647954948,-0.0483187178468163,-24.029803291174677,4.665603767432066,-3.0375085724372437,-0.6182706261315721,-0.5460351824999736,-0.5027236056615554
1.81,1,1.195751888557911,-0.2933960197073792,-1.4761927443688283,0.0171221211987054,-1.3596453142404346,0.0449380544793105,1.8915686587882736,-0.3921004531012168,0.2538608543756304,0.0743280877840961,0.182887689659308,0.0442538036879758,-24.835738849340277,4.112175419215854,-3.112741936839202,-0.731780151906819,-1.00288696945749,-0.1208778828086075
1.82,1,1.2159057432853535,-0.3034441109090837,-1.4681341916516817,0.0147964321223859,-1.3556862730776391,0.0473748390664295,2.2880035642456837,-0.270559751358256,0.3080713962012514,0.0619797799104138,0.2104960043064014,0.0154346556761923,-24.505609352739008,4.205661604446838,-2.8535497862893706,0.8377350619816264,-1.5202529862773502,-0.4226714725032424
1.83,1,1.2419507268917416,-0.302626659381195,-1.476024392410359,0.0212064096638215,-1.353244098925287,0.0492327419521639,2.0369884578270225,-0.3653773175336232,0.3024332161314876,-0.1154004013041609,0.1102982468184837,0.0378345672608681,-23.545668862423103,4.192125188617057,-2.1723829051147154,-0.626044933537978,-2.0376190030972103,0.5331768366749647
1.84,1,1.258516039877065,-0.3079143801349902,-1.4697902115684636,0.0178756307635709,-1.3590117885098243,0.0440289459267726,2.0961161678626525,-0.5567351875944938,0.2217891724894558,-0.038622093765444454,0.1045987285814457,-0.009651557169670852,-22.240209650681035,4.256126355381909,-2.2084852312073973,0.1128489169843364,-0.4030377904519931,0.0978140600794124
1.85,1,1.28551009960588,-0.3116790511892299,-1.4609968980969958,0.0207930333717797,-1.3559815594902038,0.041187236815266,2.163150492992993,-0.4399571091935528,0.4370476978087155,0.038156213773272,0.09602616708604,-0.0571376816002098,-21.98043724524409,3.6418491881500152,-1.5099591192164197,-0.4623162036416253,-0.2864510995319073,0.3410893209926455
1.86,1,1.3014830512980269,-0.3123575920970763,-1.4618663324635224,0.0164298234172497,-1.34658722594876,0.0355248920894431,2.014774836240128,-0.4083073762014172,0.3375095967749676,0.0239449731506321,0.1850445360899948,0.008580988207866548,-20.97066015295025,3.447719892370348,-3.4603816500448223,-0.9475512545076986,-0.9634073921666716,-0.2653239793803217
1.87,1,1.316048712839383,-0.3173451586586193,-1.4589121762236437,0.0194622403165947,-1.349773145968527,0.0388405622289176,2.146376815716316,-0.479478185180844,0.2608866268419874,0.0837148854379764,0.0667692211059395,0.0742996580159429,-20.207117748965533,3.08609734703382,-2.410533453990965,0.3083875610838091,-0.5063375000058046,1.2704030540706954
1.88,1,1.337223794068453,-0.3276090234226296,-1.4586492374540736,0.0182890295123115,-1.3454263827209016,0.0441721303708913,2.19157538054558,-0.3371869361374487,0.3131117159167199,0.0726016067091077,0.0249727033268599,0.021083791734487906,-20.501340506429724,3.194422567512667,-2.453019000177475,-0.2490985270501605,-1.0722606140711992,0.3418170353914149
1.89,1,1.3691701308251472,-0.3256751937551208,-1.4549531559843951,0.0247985550893287,-1.3385381459539405,0.0381577330632532,2.141337885133406,-0.4183877286196229,0.2213986542801154,0.0379555775117826,0.1532085868075703,-0.0321320745469671,-18.63810632509028,3.2818105825962105,-1.7018087566972722,-0.9426542530716964,-1.115669043823825,-0.313555966392171
1.9,1,1.3925019854312286,-0.3282282023187086,-1.4566487083757962,0.0200268333778639,-1.3493025749900385,0.0373843068278252,2.1422343277666376,-0.4406958168358783,0.4183105661511841,0.0926219668466719,0.1643391584263874,0.0818545359180625,-18.283729445001423,3.680417704534045,-2.4607583214932585,0.9569594629382528,-0.30611216208877245,0.017506232532672805
1.91,1,1.4062923955030266,-0.338790473679829,-1.4465996433239707,0.0214434639523242,-1.350326590679662,0.0434237226026218,2.096976051810207,-0.2989371879483588,0.4579904068257551,0.0805315592868317,0.120218188204768,0.0444539957831407,-16.86533129165774,3.5062545427852454,-2.0545954311530648,-0.2214276039195016,0.5034447196462801,0.3485684314575166
1.92,1,1.4270056560006992,-0.3396980372796696,-1.444889278197435,0.0194312676339553,-1.34593911416278,0.0463894657872845,1.9147358506992305,-0.4250706956560733,0.2459072409442258,0.09207859642096665,0.1122593613920585,-0.1286078741397106,-15.85828085358821,2.540625283899967,-2.2774113767263344,0.4702990828957219,-1.007845669939032,-0.2613820911780542
1.93,1,1.4527367083130316,-0.3458012606369593,-1.439410328237357,0.0192380184330984,-1.3401007042685034,0.0402558423078101,2.14729169621918,-0.3888417143585843,0.4041474841362511,0.1036256335551016,0.1158981482941785,-0.0736669748845062,-15.396054128629164,3.0039485078736856,-1.6451989093160742,0.6100081257127944,-0.1740207777316711,0.4477571633398515
1.94,1,1.466779912614216,-0.3490478206937839,-1.4361239490516486,0.0241811576718206,-1.3384471409563488,0.0452837380992767,2.1462021534244755,-0.4863537868640024,0.4029542041270473,0.034845303250297596,0.1139967476339273,-0.0306661099491869,-15.487029131229043,1.831375017202424,-1.015022765195425,-0.7538847457835117,-0.2430130901446774,-0.586962041922439
1.95,1,1.4891601403038222,-0.3596308152053326,-1.434019709382822,0.0241931230892248,-1.3332502512130822,0.043265619122529,2.0689083204665906,-0.3496252275540606,0.2096216958275275,-0.0339350270545064,0.1023208758548314,0.0668151384944541,-14.971358046576835,2.6473861853998404,-2.5772118187466964,0.2744453134969935,-1.1666181898952392,-0.43779804174758286
1.96,1,1.5166928535355644,-0.351424741675616,-1.4302206148580034,0.0206025973518727,-1.3410796205029607,0.0473064316757895,2.529940444876437,-0.3231296982917348,0.3225376191698607,0.0382081886596324,0.1013416429828372,0.0794747439209111,-12.838986516839451,2.9935022522475387,-1.8291071735345383,0.1309627051070709,-0.7228492132898219,-0.2886340415727267
1.97,1,1.5348973966069894,-0.3628417510667679,-1.4258519214089962,0.022294074214061,-1.3370608971645523,0.05049384602284,2.443902813140845,-0.4121192497212522,0.4405162667586589,0.0514342001954989,0.155794616027271,-0.0015363095558029588,-12.284076065361983,2.7077037766026333,-0.6473032787380751,-0.2209374714278661,-0.9058669320404764,0.4296572507711304
1.98,1,1.5593774295407583,-0.3614495473185804,-1.422891530837154,0.025001468043529,-1.3398853446260972,0.052406878806986,2.31464142726076,-0.3555890984334046,0.2709442247538399,0.0546846913231874,0.1924061710448403,-0.082547363032517,-11.166453535720308,2.094690656428336,-0.6549153854787408,0.7149042458360134,-0.2779200424411765,-0.3862695799094442
1.99,1,1.5818821992074663,-0.3695868767580481,-1.4238675591901333,0.0243481116823576,-1.343319194463935,0.0442974459084017,2.1788023927210545,-0.4232945327866934,0.3076741029183198,-0.0139790343754087,0.1287106728287734,-0.0670496942842791,-11.618006610439537,2.3778868798764923,-0.8739926648072296,-0.1354720202168546,-0.6826015357387636,0.1738220231547222
2.0,1,1.6027029310324856,-0.3759586348380008,-1.4151284033188831,0.0182826289413136,-1.335256790173294,0.0405127873742414,2.2064718648079937,-0.6390727520853904,0.4812968870736629,0.0972498483544651,0.1188016295761788,0.0340441150968077,-10.270012248541372,1.6363535039331316,-1.6553475170407548,0.3763743355437,-0.3034149089215466,0.5489992488779935
2.01,1,1.6288836546407754,-0.3741060637453239,-1.4067820891827434,0.0217905091495337,-1.3364908211871938,0.042534748448378,2.183034660204404,-0.4105266498412557,0.1521394626493256,0.09395633771098165,0.0852530489428231,-0.0777341023860093,-9.530239438914828,1.2742532892382314,-1.5397836473198026,-0.1978662084785704,0.3130566698651651,0.2134835532168179
2.02,1,1.6466509449904625,-0.3789470571317557,-1.411071254402698,0.019214934548486,-1.3312588002850203,0.0463134454958337,2.2014090036654554,-0.3711437952198341,0.2221934411522675,0.0906628270674982,0.0961184164076331,0.0466970503593413,-8.764584047769054,2.350128277489769,-0.8660633921555057,0.8619410044659354,0.1447965897547624,-0.3650339503022
2.03,1,1.6695888950096929,-0.3841262054913615,-1.4080819469013564,0.0268522113019984,-1.3368213549746473,0.0403893509788936,2.138517698236919,-0.384172251818289,0.4706164244655096,0.043274831730774,0.2567811115060863,0.1269461857624508,-8.968252150463234,1.7716720875225769,-0.9788656216574514,0.4588108885260173,-0.5581735952881476,0.4149757956570984
2.04,1,1.6823026176897866,-0.3871087698310494,-1.402421243832903,0.0223884945851926,-1.3313949711526405,0.0484110433430707,2.33217970744135,-0.5390555297798706,0.2914027368969804,0.09078654778420064,0.1205276406081117,-0.0658124904368274,-7.258312789450459,1.1932158975553846,-1.6348338764237345,0.0556807725860993,0.2468092668452935,0.9020009476742176
2.05,1,1.7114215859586075,-0.3964153056872536,-1.4075367851381526,0.0248048162855149,-1.3267746552586954,0.0416181197148402,2.3572049101709203,-0.4103028982054597,0.2784223932497987,0.1382982638376273,0.1299836719904238,-0.0652551507098869,-6.365714530326873,0.5877985726280253,-0.7570340406289816,-0.6996050652428805,0.2240572482916365,0.8536216934034673
2.06,1,1.7309332444216472,-0.3981565099962636,-1.3960171621457131,0.0240709583122586,-1.3242747551953928,0.0428610398486473,2.443717629769155,-0.3815252516536073,0.4087060891901116,0.0482822744754046,0.1151147028197692,-0.0545374083750776,-5.076609132541125,0.8051279689527407,0.7442954835107891,0.7143202888315697,0.534465051383213,0.805242439132717
2.07,1,1.7527980680329909,-0.4055848839462244,-1.3932882330549097,0.0259602400126607,-1.325911841971996,0.0385841801044359,2.188483441716699,-0.5440040931815887,0.3418098993961619,0.0314150775437611,0.0464047273153742,0.0457564637265257,-4.651708339034787,1.5970510486910905,-0.4089017414684074,-0.381868958830823,0.2590058283114755,0.4228604162384937
2.08,1,1.7740370643413206,-0.4051921125964992,-1.391958529219402,0.0251300312177759,-1.3182650699512195,0.0386628338461533,2.294640368639189,-0.4481255332824626,0.3073698380487818,0.019134711269918,0.2734088380239488,0.0578236149040043,-3.984880379330209,0.9655533046542336,-1.144282570742953,0.9079079887411088,-0.8548542475203056,1.0202392626631038
2.09,1,1.7970518931931914,-0.414117637988341,-1.3882458965660665,0.0307626242699239,-1.3157968018417945,0.0416646462343864,2.21013106555064,-0.3645236552454566,0.3508369173865104,-0.024580322917394,0.2087723938800283,0.07328678800473934,-2.1343920422959832,0.0021717469343776052,0.4487987330767959,0.1767524859867218,0.4411805154882999,0.2181338137632022
2.1,1,1.8244412798915648,-0.410026088921552,-1.3837979463397427,0.0298521490914975,-1.3239355789286733,0.0475450386562833,2.3502394694200386,-0.3827055315473805,0.3016092978790858,0.0646274961965522,0.109511189924323,0.0887499611054744,-1.5481051863729336,-0.9612098107854784,-0.4210926729786895,0.3545214099138067,-0.142596278494241,1.1865224444701197
2.11,1,1.8364465948025248,-0.4199498049527831,-1.3758056245795631,0.0300291216495765,-1.3132598073144008,0.0419504598634151,2.0004397758656376,-0.3925303643332579,0.2856959081800418,0.0867053273476254,0.0839026833632714,0.0782641395601042,-1.3767963314372038,-0.1190114037159963,1.165143388987304,-0.1145596508098118,-0.1484085396929356,0.53321167150808
2.12,1,1.8629247298455776,-0.4231394587172558,-1.3733609159932243,0.0283685012391288,-1.3133121932937395,0.0502168510619794,2.0428609947772163,-0.5489206409434368,0.3572808079075448,-0.0834020388344646,-0.037592679189574,-0.0518572735474326,-0.8111724176753144,0.2514436383989531,0.2771150266224345,-0.2936109199800886,-0.04137225859450294,-0.1200991014539596
2.13,1,1.8830074815591376,-0.425169913245755,-1.3756337848380014,0.020808337908485,-1.3198575012240368,0.0419072607326739,2.340442003958427,-0.3685222481567271,0.2473299371148674,0.0382904079167592,0.1960450270831869,-0.0386260749536691,-0.3311675338589597,-0.5330469032517714,-1.178384187438318,-0.5938697546464992,0.0656640225039297,-0.6769005094191536
2.14,1,1.9044122710546585,-0.4313961750383102,-1.373225334721827,0.0286068570003196,-1.3144945074049317,0.0402408517149434,2.1565460427558487,-0.4472197472564586,0.269725952794432,0.0308854842117228,0.2302800813589053,-0.07461751768458469,1.453688611029533,-0.5112857096468938,-0.6371247140697582,0.4651827537479817,-0.7891381397020271,0.3910812829846126
2.15,1,1.9301544988617776,-0.4371678207151462,-1.3691650478202988,0.026119322100681,-1.3150948363820416,0.0449113376629483,2.079432275426837,-0.4154371039167145,0.3153717568377975,0.03682093514293975,0.06167022002835,-0.1106089604155003,1.96887296009182,-0.58247270796884,0.018497592594925227,0.1058902408456013,0.2955155741951881,0.2220284621802762
2.16,1,1.9478838014879665,-0.4404487552390327,-1.3621466624010363,0.0310624103370181,-1.316096354885944,0.0438770836733239,2.053442091576826,-0.3584828079449073,0.3239788797565431,0.0427563860741567,0.072140137926198,0.0219685658564136,3.50428423522185,-0.7938031990112507,0.6741198992596087,0.8806984640496596,0.1836999405148385,0.5681291841345737
2.17,1,1.973322499918064,-0.4399845311891862,-1.36055537077327,0.031443693673376,-1.315422958377904,0.0450953794952142,1.935089800618533,-0.4031934337756139,0.2853359979779294,0.1081321627711612,0.099819048357339,0.1678520485089517,4.097937175075166,-0.7318011157624742,0.956080595750777,1.056057661792386,0.401357132237306,0.28710467420276
2.18,1,1.9857473922886784,-0.4503472388227243,-1.3584534879508694,0.0336814651037018,-1.3073983216373253,0.0442793616578951,2.022903689934267,-0.3747479576014995,0.3081059161708191,0.1404733265099644,0.1200558560508762,0.1071145151704053,4.760440155492785,-0.6697990325136975,1.0353522294969055,1.2314168595351125,-0.3163168868388472,0.1364796759779426
2.19,1,2.007215396155104,-0.4505067703896849,-1.3529792722960592,0.0369810169039275,-1.3099586512042405,0.0500708623326285,2.1524596260301325,-0.4021840906694789,0.2960927321068557,-0.0257388111700083,0.1862638217871892,0.0463769818318589,5.867082423628387,-0.856810723388867,0.4800332291614781,-0.5204155884368389,-0.1602544270159426,0.2960973950080927
2.2,1,2.027985880574134,-0.4560293941569692,-1.353725952069598,0.0292910889627799,-1.3107088432320912,0.0446486685815433,2.019486935418292,-0.5459156744253304,0.3259847247967807,0.0336209244493983,0.110257096321046,-0.0850302696002218,5.5657414043292,-0.6882908963819341,0.4739928815319695,0.4327421178843869,0.12330509386534694,0.5585135754959959
2.21,1,2.050644500045434,-0.4578195490526933,-1.343947730051697,0.031549233831281,-1.3126398431069448,0.0409292754866102,1.882776435256753,-0.3678423958839176,0.2850889972584902,0.179889153655887,0.1268717771719991,-0.028447817883315796,6.951291287162173,-1.5159211310110996,0.4512482285912303,0.3757297807341345,0.4068646147466365,0.0753488887236296
2.22,1,2.0708591500086917,-0.4634048610809088,-1.3452494704907865,0.0386638367596386,-1.3088112699161605,0.0401643393881488,2.2683976384805016,-0.3224325064602732,0.3050153242208852,0.0292989762132059,0.1880542002968555,0.0281346338335902,7.862687620893836,-1.4841091388250232,-0.2698136378528165,0.5109710639402455,0.685863587170187,0.2553815774961381
2.23,1,2.087810169625847,-0.4609721967657557,-1.3463168145819524,0.0347562306582749,-1.3055789259392758,0.0475667035627457,1.853374832694227,-0.2582959732872356,0.2873155243896975,-0.1126181567223586,0.1684291977024297,0.0223879720601537,8.88542173174165,-1.4316313263266625,1.3054186600669833,0.1101101236846441,0.2797537215619537,-0.0944145672022653
2.24,1,2.108205778803174,-0.4693974188448165,-1.3402078539362896,0.0326822190716442,-1.3002308352632392,0.0420345240484593,1.9389246240604443,-0.3599456884170203,0.2384706901871736,0.0405979144768136,0.1775599444509738,0.0264421131097038,9.77311839935389,-2.7718581976388914,1.7116167145179175,-0.63571346991734,0.8108067045304275,0.4172006565476414
2.25,1,2.128729597238868,-0.4749364572576536,-1.3336070836605367,0.0413136316462497,-1.3043901074312116,0.042911978402912,1.9029276734432312,-0.4742667526589152,0.2330116127976282,0.0393048516322871,0.0956493427608557,0.0573791287646214,11.336954720013198,-1.8572066195557717,2.021819846053881,0.4600296725438476,0.1960307864017933,-0.5652142562238052
2.26,1,2.1557702682993645,-0.4793281690763341,-1.3357414136681107,0.0367282533623564,-1.2990912275580473,0.0481562617458194,1.8559527166157477,-0.4064390902229791,0.3519182961558484,0.0281818424845659,-0.0252751741936189,0.0517141528808353,11.708623535085083,-2.0135665114863843,1.4215049476643118,0.8179480813890243,0.1829947366776266,-0.1857388399586017
2.27,1,2.17129467134946,-0.4857825479540095,-1.3280673619605623,0.0349657917167571,-1.3010696134256905,0.0520486936187163,2.0231201345511725,-0.2824955040694026,0.2363094833918526,0.1052531656078987,0.126796394244106,-0.1427517333092793,11.073323006575212,-2.610778708755066,1.7685065135627414,1.175866490234201,0.2092156181060749,0.1589338267907888
2.28,1,2.183089807264928,-0.4883282395207953,-1.3317396461078312,0.0339955918882402,-1.298799449648053,0.043229010482275,1.9871899655227,-0.3047484091268421,0.3187465773059326,0.028977976392644253,0.1796075592274335,-0.020209767469154497,12.546464243058026,-1.8750298468990725,0.896154618009344,0.5322381579313473,0.4655827410169203,-0.496487922808751
2.29,1,2.2024560224448924,-0.4906454009775705,-1.3276406195896802,0.0408116151093726,-1.2947077949731771,0.0445935521915253,1.8220320642213212,-0.4962627651568729,0.3168881501055232,-0.0472972128226102,0.0217354848489929,0.1023321983709703,13.702891574662598,-2.202746995162284,2.160389125044532,0.7898812872062688,0.8240031136871137,-0.6410219499362592
2.3000000000000003,1,2.2177083175810863,-0.4911678241043313,-1.3206811250697987,0.0369609379820741,-1.2960329988910422,0.0438810767037167,1.895322742777387,-0.4988656450418957,0.2384447207668598,-0.0547334785507035,0.0321229956839168,0.0355257660206104,13.905716054727655,-2.3034838229254624,1.4042184219103122,1.0475244164811903,0.2117505699146785,-0.1553850178578832
2.31,1,2.238801663387534,-0.4971678750621685,-1.322753015035979,0.0360193273840078,-1.3018565052055764,0.0435501474623072,1.784891446767343,-0.2039276989149179,0.2090949208282445,0.1353368165834175,0.2119233596512632,-0.0312806663297495,14.819701492673117,-2.531152706056872,1.532478508884742,0.719859644598449,0.8285749164517424,0.4669574542121418
2.32,1,2.258183549453515,-0.500818473337625,-1.316083815729976,0.0410648886062227,-1.2985597649695115,0.0424815523374576,1.7501161780036938,-0.3485755781852346,0.2843390983393776,0.0837268567942057,0.0756395593400653,-0.057884089252044,15.3673908083503,-2.786447953853632,2.3411728699064662,-0.9829349430763584,0.3144268707436531,0.1603583093618991
2.33,1,2.2797965379778438,-0.4998565457847301,-1.3124268131268773,0.0402096213141771,-1.2952303925305002,0.0422619623261194,1.6372015293554896,-0.3078368313834353,0.3645654868595295,-0.0415951325563206,0.1109321147233418,0.0300375406678924,16.860988107255327,-3.179403471028829,1.7980972038213892,0.737677441058424,0.2440185757104623,-0.3191553399281549
2.34,1,2.289305302422808,-0.5002147093224167,-1.3149151235695102,0.04024461924229,-1.2919810758616408,0.0475723757871032,1.6426829036245472,-0.1722981894919668,0.1000572729554889,0.11752285940178,0.1335058127596307,0.0063491530945586,17.3396348879672,-3.95774113661994,2.1788262901002717,0.5343237808208514,1.3957246819352898,0.7237353353485396
2.35,1,2.3067164508913462,-0.5031847424543392,-1.3111491733824585,0.0422735434310571,-1.2862396215165388,0.0429246206641717,1.7808412782283052,-0.3468409331043217,0.2552336767313358,0.028860193645490653,0.0910952001787239,0.04007197718686085,17.492414813255827,-3.844228698067617,2.0684738908739697,0.3626881008931518,0.7257322303713974,-0.4314851038457751
2.36,1,2.3205544804299434,-0.5148470168407343,-1.3080825867647958,0.0400133766828235,-1.2911558182741063,0.0485682701842438,1.6982260605043238,-0.3744349994060038,0.3061359857991943,-0.0598024721107987,0.0825660138140587,0.0737948012791631,18.687134883229398,-3.440901469170035,2.524204612795573,0.2501157415047947,0.73437186223395,0.8078967562879114
2.37,1,2.3423420121196687,-0.5164161956142257,-1.3031623656016136,0.0398753495618239,-1.283540139886592,0.0444336722418098,1.6897089517398387,-0.3425155526955608,0.2011221804588333,-0.07771758525931416,0.0852599295948072,-0.0983369509671445,20.14160888827236,-3.1554514489117165,2.404288849921065,0.2120558722541485,0.4013615599691456,0.1488458635327256
2.38,1,2.355616366150912,-0.512046896517829,-1.295751880288772,0.0356842298794382,-1.292461020494163,0.0413563951344436,1.6533749176034531,-0.4193299033949429,0.2392413831859876,-0.0956326984078296,-0.0232645921677793,-0.022758420451697653,20.35873367889368,-3.348070068696052,3.0464837572583736,0.1459296445404932,0.7297916976918172,-0.303586870445155
2.39,1,2.373011860500604,-0.5213231586315782,-1.3013922880011837,0.0430983628941087,-1.2912486953676183,0.0495320897346102,1.4367927611491202,-0.3476444185010612,0.2230698139247418,0.1398355856244318,0.1451811845835302,0.0528201100637492,21.24657420658327,-3.104458303110857,2.3280345078600577,0.4984764205054568,1.0582218354144888,1.4276261004224269
2.4,1,2.386622083294542,-0.5257192143748046,-1.2967174929611218,0.0366112972214817,-1.2885408813665955,0.0444497244693518,1.7548631275395594,-0.2341828471165462,0.2481144584034174,0.1034060877432374,0.100530200212675,-0.0421423623054845,21.43236980557354,-4.349084170413066,3.0600346555968145,0.1162511228731109,2.145031743991032,-1.1969984520498629
2.41,1,2.4072786920818947,-0.5242197203505224,-1.295246421622413,0.0405224844748804,-1.2895670239208186,0.0441525410814578,1.520244667157601,-0.3207283033476795,0.3849271091857751,-0.0720914070990645,0.2082336699268054,0.0218225874525768,23.071695241719333,-2.677564697056738,2.7886374439011536,0.4171369993841348,-0.4319771538476005,0.1435967654905446
2.42,1,2.414366882188246,-0.5277726212690312,-1.2914419128659602,0.0354866529860003,-1.2794764430881955,0.0443722262191844,1.5548423266149152,-0.3173433790619787,0.2824051566670688,-0.04346858126417235,0.0290744783419664,-0.0142165567526873,23.99913864869586,-3.3762190194259967,2.991638003780017,1.9108898716827585,1.5979767593552774,-0.2831302066269293
2.43,1,2.431744391730352,-0.535461608371463,-1.2903302137439965,0.0395640211771417,-1.2950620779714703,0.0497230664766955,1.4032028551444098,-0.2597381849113533,0.09775940325502,-0.0148457554292802,-0.0671866709983085,-0.102580804159666,24.171894067394845,-4.38718121816012,2.537114063462265,1.5279333251514797,0.4241125957973862,-0.6614258453142298
2.44,1,2.4580083125086705,-0.5357532284150942,-1.2925432521404856,0.0376380575605007,-1.2867883106099725,0.0437540794158534,1.2978076179689313,-0.2560833182917192,0.1702787482745802,-0.0258620413959384,0.1402117665221485,-0.003097117631004759,24.557544592317846,-4.304779041667175,3.7370253072603,1.144976778620201,1.4093155849335033,0.13675226880045244
2.45,1,2.459409542563893,-0.5350539889837362,-1.2851501553024265,0.0395949380177801,-1.2790988356814998,0.0484729851668289,1.5007990728833085,-0.3618041043610609,0.2421862991318133,0.1825293392139694,0.1702270303309569,0.0963865688976565,25.907289658266947,-5.101757343998736,3.2251227098530157,0.762020232088922,0.3616781033090827,0.9349303829151346
2.46,1,2.475588769723492,-0.5472469595235856,-1.285585033800135,0.044043465072785,-1.282811988776912,0.0439508810283009,1.287310103655766,-0.316481121138618,0.2516824279439499,0.0978403499212882,0.1301269360215178,-0.04621610298585,25.61169070617997,-4.272984614030652,2.618500003532393,0.2357161527571376,1.001507791462697,0.4126965582909679
2.47,1,2.4975625286968586,-0.5441880475397504,-1.2846916583226045,0.0375792602085384,-1.2767962996180124,0.0469070451090848,1.2618999071245454,-0.164567467087268,0.1890451057530339,-0.0629297408656784,0.0449366500533394,-0.0838198780757984,26.40907789863899,-4.2477500058669815,3.5637308894705715,1.2719364106361133,1.6656160593557006,-0.9881859754489536
2.48,1,2.514619006877048,-0.5507850715994096,-1.2772335489233912,0.0417572209412523,-1.2733919300347951,0.0442205312863832,1.2953601692106045,-0.3214183039519165,0.1733792150876799,0.0191177784187238,0.0814545530224377,0.0350782890382265,27.703088632822663,-4.545294833862718,4.355398964024824,0.6713975265078501,1.2121789540800088,-0.5651105102833168
2.49,1,2.5126112834979764,-0.5539174927196998,-1.277681212709885,0.0459903813687676,-1.2788499156670832,0.0463988552677875,1.1597026539158788,-0.2691467253820978,0.2823209412061674,0.03161473460953,0.0609729523013177,0.0697874136959096,27.959983445256874,-6.437950825009757,3.05360695433032,0.3865188666250874,1.0962318072586663,-0.5034326981113111
2.5,1,2.527720966533133,-0.5544381491600278,-1.2760700507482203,0.038079875852958,-1.275107613603991,0.0481810098118949,1.0364217027251008,-0.1902479462048092,0.2796501809467714,0.0805905315023448,0.0177247564599713,0.0955191142400488,28.60394172714521,-5.723462862135737,2.952525991589889,0.6895549723220703,1.0725106736260468,-0.4417548859393054
2.51,1,2.5410164357445595,-0.5526430888165966,-1.268180558706704,0.0397433321777591,-1.2697706063800678,0.0415848756103309,1.3113158142196046,-0.2725675030998105,0.0349160032358472,0.0154285577154622,0.0431122140397674,0.0459470938318269,28.99105297245572,-5.272382597813465,4.0972586968803935,0.8428545268393481,0.9462838484434812,0.7232043193774329
2.52,1,2.56031061929697,-0.5594177878882132,-1.2806995299077262,0.0460274596279564,-1.2767854279630162,0.0458108112488859,1.4217489277991948,-0.2652502629840202,0.0329780569175698,-0.1070009751066724,0.0620980180808737,-0.003624926576395,30.638526239094123,-5.258061646326403,3.3234896794457223,0.1611165758539447,1.1194398439026636,0.1184996810165724
2.53,1,2.561274097290518,-0.5627178155077548,-1.2677567535644227,0.040934341976242,-1.277248045063594,0.0476121894951425,1.0976004115276912,-0.0899346339767088,0.279750805935134,0.0449821764423178,0.1124249874060463,-0.0219581420794416,30.520307360845766,-5.902783831207852,4.420100968372441,0.482216430901425,1.342658383750055,-0.1409185117892898
2.54,1,2.5749324126377005,-0.5597960009660471,-1.2714408443686414,0.0436594297132464,-1.2749194730822555,0.048891343911628,1.214361549665243,-0.1152817154128497,0.2292935445188134,0.1105563327843886,0.1627519567312189,-0.0453677998872905,31.14082930683719,-5.301672142483328,3.572742229789598,0.13710537460344313,1.9675662628312072,-0.327925091963174
2.5500000000000003,1,2.590186850829145,-0.5667377614555463,-1.266190972882645,0.0460432907925601,-1.269671069534945,0.0480129060397337,1.0674208188854049,-0.3241413238264796,0.0863245243899756,0.1060568712447854,0.1677436363588706,-0.04372643906581143,31.09047976836708,-6.09506278373582,3.6198860594809297,-0.2080056816945388,0.9024601056432128,-0.5149316721370583
2.56,1,2.599653746409155,-0.5650016361804702,-1.2690725138884684,0.0422469954183618,-1.2752919937365796,0.0455922463136279,1.0892691202939002,-0.2381678628687816,0.1591389923336837,0.049647952013583,-0.1142248925200693,-0.042085078244332365,32.79705542749904,-5.66369801040186,4.117936070576822,-0.087273331302108,1.381446480806798,-0.6044451173360985
2.57,1,2.6065326484815587,-0.563125195655734,-1.2667124471417208,0.0418738831372401,-1.2775630271648128,0.0491873416586884,0.9215615233295614,-0.1389229926348305,0.1541467358342952,-0.0764208934081475,0.0214325873276417,-0.0404437174228533,32.42102226528468,-4.842962034794887,4.3685444505372,0.2185408002797115,1.000206171515969,-0.6939585625351388
2.58,1,2.6174720688225444,-0.5688061596449507,-1.2599854299726738,0.0412090042383821,-1.2682444116747276,0.0419165817236739,0.9515430888382014,-0.2263890275144768,0.024081777612223,0.0776460884412497,0.1633750283018318,0.0310375783167206,33.181640393145855,-5.637448651528414,4.146884801042468,0.273314869357584,1.32848022347336,0.0801057311355351
2.59,1,2.620940118588825,-0.5719575101612457,-1.255934879724861,0.0437267475960392,-1.2734018528200255,0.0392016757495844,0.8777084031496424,-0.2005912002614749,0.1541282565762022,-0.010435676639655445,0.0644213937022277,0.0212522893502566,33.34811025666048,-5.474899124838385,3.4464638237569853,-0.7138305809881633,1.661343906939197,0.0381897856318488
2.6,1,2.63491141395977,-0.5710380995442301,-1.2618882010795562,0.0481219281277139,-1.2692688425940546,0.0430400408962201,0.9465983435458458,-0.1097308718526441,0.1908305887802908,-0.0985174417205606,0.0263442352683571,-0.0423402108267667,33.76662547910242,-4.794461689041325,3.9172869597695703,0.560117892890698,1.3024688941244726,0.29779397069752744
2.61,1,2.642947933113561,-0.5811001619307191,-1.257271085433652,0.0372954660459721,-1.2711478308728628,0.0485612374004281,0.9254710839372982,-0.142216982052581,0.1144111613876833,-0.0222770219783865,0.0794054102574055,0.0819217400712708,33.99055209531842,-5.748804432993566,4.973512072246936,-0.4711937611604506,1.736359522796521,0.5573981557632061
2.62,1,2.654474050801932,-0.5739307818378527,-1.2588744888988672,0.0395130195497003,-1.265176567977838,0.0417003155940622,0.8226596986690714,-0.1714166488290426,0.1584188750540395,0.0601489210843583,0.0645349062854816,-0.0518887050792623,34.63334317255221,-6.100857817526679,5.300775897092914,0.768997556637071,0.5583794344714419,-0.39661704804300857
2.63,1,2.6576328344332247,-0.5662319959762793,-1.2495024879410164,0.0400409986422961,-1.273575410596936,0.0388644188298825,0.7753534280878985,-0.2051269291349523,0.1063145815248106,0.1267016629992984,0.054075041243779404,-0.0152608910358704,37.52004532071258,-7.0768236421767945,4.385467215073653,0.1098236110305355,1.2223349281803986,-1.3506322518492233
2.64,1,2.6708502418663893,-0.5807078756737267,-1.2648297440173262,0.0508091430285574,-1.2744541029419276,0.0382195255183846,0.8393588875615735,-0.2170537362257141,0.0343597317909448,-0.0363010231615958,0.0436151762020772,0.0781681905230128,36.61543075473186,-5.752706811342624,5.40881611142073,0.182971450637173,1.5638147699288534,0.8280583176607097
2.65,1,2.6791072674913736,-0.5819513996100625,-1.2531191213213873,0.0424577241964638,-1.2668635657708125,0.0476000304219031,0.7364099870123648,-0.0742970138715162,0.3023587182697892,-0.0477111750498847,0.0393007271758314,0.0671337898013416,36.6848113636211,-6.820744135311306,4.384410188021399,0.2635545736032119,2.0539694742858585,0.3753320121630168
2.66,1,2.684749334073528,-0.5788778553221664,-1.2543707869378375,0.0433061700316608,-1.2737414928803388,0.0405843875001992,0.7855035739839137,-0.101813438001743,0.0683700360953373,0.1027783776872239,0.0522016910524855,0.011610217359542652,37.16588733785623,-6.430357140692162,4.887306244825853,1.0028983505435782,0.5640790302850667,-0.6895166132660526
2.67,1,2.693076329524335,-0.5784928776881388,-1.2606807148405528,0.0410598866442797,-1.2684887972888903,0.0467481497099332,0.7014720711176461,-0.1364255233490066,0.0230545815871564,0.0770032063630157,0.0355703077054595,-0.0439133550822563,37.854927353369305,-5.958701028298296,4.650035260631842,-0.4216786648664272,1.241602435542401,-0.2200843213532344
2.68,1,2.6972350461463543,-0.5811784379621086,-1.252214669618103,0.0445011128160155,-1.263582241546836,0.0435962940716883,0.5646963502392267,-0.0296111004608905,0.2326676850698689,-0.1233822483124496,0.0484706997574687,-0.0544093470960062,37.78577085577775,-6.902839594048294,5.42950312998001,0.3203960256610939,0.7606772739028516,0.5006040087553273
2.69,1,2.7028221190037613,-0.5924965055295969,-1.2412852505541094,0.047231443850531,-1.274527504466869,0.0413307489574144,0.6231920182680117,-0.0963412216314443,0.0889567023820114,0.0263085913836917,0.0198585736273737,0.0296006875182107,37.04045671590006,-6.778732611353213,4.835638923219771,0.2667800709647999,0.8783311989072076,0.33930893095588477
2.7,1,2.707255955544892,-0.5845576767824738,-1.2510237757066165,0.047780243126821,-1.266657325980619,0.0421962622494744,0.5546815645902634,-0.0897203057067051,-0.0129340892899168,0.131769151601285,-0.0558391017279176,-0.015084334869663752,38.89449301972074,-7.439405468753234,5.423457824145027,1.5337184861659918,0.3516067902733997,0.1780138531564423
2.71,1,2.7138740974220346,-0.5772675363626629,-1.2454772921034725,0.0465434295642334,-1.2647314398123664,0.0446996277916351,0.5522669769580159,-0.0832216308075548,0.046837027044982,0.04858617812318469,-0.0482877419505098,-0.0597693572575382,38.99784233657967,-7.567363139188997,4.361889653318184,-0.4369367336502362,1.5113065499862743,0.49005546415281004
2.72,1,2.7198385811318,-0.5864841339188113,-1.243346425910003,0.0415651974155911,-1.269213773671587,0.0429312375478371,0.5378309573882969,-0.1710122242991908,0.0160545593435291,-0.0345967953549156,0.023807300870538846,0.0926154111386001,39.57345781597706,-7.172584508873285,3.972381675575055,0.9984362820371186,1.1024795905782487,0.8020970751491777
2.73,1,2.7322963624353345,-0.5938003855981397,-1.2483641343177991,0.04547147856154,-1.272630186907431,0.0452712606157788,0.4413802160771186,-0.0775768326337482,0.072751343698585,0.0215104242018538,0.0959023436915875,-0.0399461596907043,39.36139991915204,-7.600197573104313,5.917343824892178,0.2712679660854213,1.365577658314134,1.1876336724044467
2.74,1,2.733805441445619,-0.5894544604215546,-1.2460229086388606,0.0478008751267339,-1.2680822316860518,0.0455265349372936,0.4159170160223773,-0.0386118813666759,0.1369704817388842,-0.0496492860407335,0.1149912615935786,-0.1044456482016866,39.86182040585583,-5.8454523765534105,5.007063233405994,0.5996226418721051,1.7089725352541727,0.4507468835256192
2.75,1,2.7348597422553973,-0.5946806377252328,-1.2512098686608295,0.0425532490481414,-1.2698828966163525,0.0455098804198395,0.5354319647590473,-0.1766296218581806,0.0904515042824644,-0.0668763032654729,0.1312492467850657,-0.02354589208246889,40.753675101919,-7.462763321625059,4.7189604542041685,1.323497208989656,1.9116560677746703,0.8960204334200689
2.76,1,2.735682285211664,-0.5893341273213526,-1.246921412036413,0.0488290087507659,-1.26418231392075,0.0470475334487056,0.414872909047555,-0.0433590881624326,0.0784520960838159,-0.0206742655710442,0.0462791271494175,0.0573538640367488,40.551673010819805,-7.026904684951203,4.432736645604149,1.141395165948535,1.4193343012741473,-0.6758431799517309
2.77,1,2.737804706887853,-0.5945955376129655,-1.2403048958009246,0.0489860667264702,-1.267051188133861,0.0453297190102671,0.3141557953546252,-0.10576732809676395,0.0469952958898675,-0.0562111084758595,-0.0986003448648266,0.053037095247961,40.87701783512479,-7.639349030464008,5.343149366070556,0.398875163950811,2.0799756683834847,-0.2755229587102284
2.78,1,2.749677015166115,-0.5938522813506637,-1.2438511223506938,0.0433323010044962,-1.2677449403715235,0.041486456049055,0.31256238279075,-0.1681755680310953,0.0219078436645935,0.0500565667443032,-0.0479140441559515,-0.0074138310258594,40.448935949305,-7.6033212285668785,4.027380848980351,0.9388390274247242,1.716466703411137,-0.323112751926087
2.79,1,2.7492198183351078,-0.5985273049158056,-1.2413546743380803,0.0494867688641783,-1.264884181023298,0.0461458695305668,0.2171918091609564,-0.087345660721957,-0.0219883584469614,0.0981246091256818,-0.0040070773696497,0.0189243258684081,42.31850207270834,-7.448978790341359,4.407285685504599,-0.351857403953658,1.316469353030871,0.3534894381326461
